!!!id: 18xx:231
!!!COM: Elsner, Józef
!!!OTL: Vesperae C op. 36 - Laudate pueri
!!!PDT: 1834
!!!SMS-siglum: PL-CZ
!!!SMS-shelfmark: III-188
!!!NIFC-rismID:
!!!URL-scan: http://repozytorium.nifc.pl/skany/pl-cz-nut--iii-188
!!!ONB-nifc:
!!!ENC: Anna Matuszewska
!!!END: 2020-05-27
**kern	**fb	**dynam	**kern	**dynam	**kern	**dynam	**kern	**dynam	**kern	**dynam	**kern	**text	**dynam	**kern	**text	**dynam	**kern	**text	**dynam	**kern	**text	**dynam	**kern	**dynam	**kern	**dynam	**kern	**kern	**dynam	**kern	**dynam	**kern	**dynam
*part15	*	*part15	*part14	*part14	*part13	*part13	*part12	*part12	*part11	*part11	*part10	*part10	*part10	*part9	*part9	*part9	*part8	*part8	*part8	*part7	*part7	*part7	*part6	*part6	*part5	*part5	*part4	*part3	*part3	*part2	*part2	*part1	*part1
*staff15	*	*	*staff14	*	*staff13	*	*staff12	*	*staff11	*	*staff10	*staff10	*	*staff9	*staff9	*	*staff8	*staff8	*	*staff7	*staff7	*	*staff6	*	*staff5	*	*staff4	*staff3	*	*staff2	*	*staff1	*
*I"Organo	*	*	*I"Baſso	*	*I"Viola	*	*I"Violino 2do	*	*I"Violino 1mo	*	*I"Baſso.	*	*	*I"Tenore.	*	*	*I"Alto.	*	*	*I"Canto.	*	*	*I"Corno 2do in D	*	*I"Corno 1mo in D	*	*I"Fagotto 1mo et Secundo	*I"Clarinetto 2do [in A]	*	*I"Clarinetto 1mo [in A]	*	*I"Flauto.	*
*I'org	*	*	*I'b	*	*I'vla	*	*I'vl II	*	*I'vl I	*	*I'B	*	*	*I'T	*	*	*I'A	*	*	*I'S	*	*	*I'C. in D	*	*I'C. in D	*	*I'fag	*I'cl II in A	*	*I'cl I in A	*	*I'fl	*
*group5	*	*	*group4	*	*group4	*	*group4	*	*group4	*	*group3	*	*	*group3	*	*	*group3	*	*	*group3	*	*	*group2	*	*group2	*	*group1	*group1	*	*group1	*	*group1	*
*clefF4	*	*	*clefF4	*	*clefC3	*	*clefG2	*	*clefG2	*	*clefF4	*	*	*clefC4	*	*	*clefC3	*	*	*clefC1	*	*	*clefG2	*	*clefG2	*	*clefF4	*clefG2	*	*clefG2	*	*clefG2	*
*	*	*	*	*	*	*	*	*	*	*	*	*	*	*	*	*	*	*	*	*	*	*	*ITrd6c10	*	*ITrd6c10	*	*	*ITrd2c3	*	*ITrd2c3	*	*	*
*k[f#c#g#]	*	*	*k[f#c#g#]	*	*k[f#c#g#]	*	*k[f#c#g#]	*	*k[f#c#g#]	*	*k[f#c#g#]	*	*	*k[f#c#g#]	*	*	*k[f#c#g#]	*	*	*k[f#c#g#]	*	*	*k[f#c#]	*	*k[f#c#]	*	*k[f#c#g#]	*k[f#c#g#]	*	*k[f#c#g#]	*	*k[f#c#g#]	*
*M6/8	*	*	*M6/8	*	*M6/8	*	*M6/8	*	*M6/8	*	*M6/8	*	*	*M6/8	*	*	*M6/8	*	*	*M6/8	*	*	*M6/8	*	*M6/8	*	*M6/8	*M6/8	*	*M6/8	*	*M6/8	*
!LO:TX:a:t=P:problem:i oznaczenia przykluczowe zapisane jedynie w pierwszym takcie	!	!	!	!	!	!	!	!	!	!	!LO:TX:a:t=P:problem: klucz i oznaczenia przykluczowe zapisane jedynie na początku nowych stron	!	!	!LO:TX:a:t=P:problem: klucz i oznaczenia przykluczowe zapisane jedynie na początku nowych stron	!	!	!	!	!	!	!	!	!	!	!	!	!	!	!	!	!	!LO:TX:a:t=P:problem:i oznaczenia przykluczowe zapisane jedynie w pierwszym takcie	!
!LO:TX:b:t=Uniſ	!	!	!LO:TX:a:t=P:problem:i oznaczenia przykluczowe zapisane jedynie w pierwszym takcie	!	!LO:TX:a:t=P:problem:i oznaczenia przykluczowe zapisane jedynie w pierwszym takcie	!	!LO:TX:a:t=P:problem:i oznaczenia przykluczowe zapisane jedynie w pierwszym takcie	!	!LO:TX:a:t=P:problem:i oznaczenia przykluczowe zapisane jedynie w pierwszym takcie	!	!	!	!LO:DY:t=for.	!LO:TX:a:t=P:problem:zapis metrum z kreską	!	!	!LO:TX:a:t=P:problem: klucz i oznaczenia przykluczowe zapisane jedynie na początku nowych stron	!	!	!	!	!	!LO:TX:a:t=P:problem:i oznaczenia przykluczowe zapisane jedynie w pierwszym takcie	!	!LO:TX:a:t=P:problem:i oznaczenia przykluczowe zapisane jedynie w pierwszym takcie	!	!LO:TX:a:t=P:problem:i oznaczenia przykluczowe zapisane jedynie w pierwszym takcie	!LO:TX:a:t=P:problem:i oznaczenia przykluczowe zapisane jedynie w pierwszym takcie	!	!LO:TX:a:t=P:problem:i oznaczenia przykluczowe zapisane jedynie w pierwszym takcie	!	!	!LO:DY:t=for
!LO:TX:a:t=P:problem:zapis metrum z kreską	!	!	!LO:TX:a:t=P:problem:zapis metrum z kreską	!	!LO:TX:a:t=P:problem:zapis metrum z kreską	!	!LO:TX:a:t=Laudate pueri	!	!LO:TX:a:t=Laudate pueri	!	!LO:TX:a:t=P:problem:zapis metrum z kreską	!	!	!	!	!LO:DY:t=for.	!LO:TX:a:t=P:problem:zapis metrum z kreską	!	!	!LO:TX:a:t=P:problem: klucz i oznaczenia przykluczowe zapisane jedynie na początku nowych stron	!	!	!LO:TX:a:t=P:problem:zapis metrum z kreską	!	!LO:TX:a:t=P:problem:zapis metrum z kreską	!	!LO:TX:a:t=P:problem:zapis metrum z kreską	!LO:TX:a:t=P:problem:zapis metrum z kreską	!	!LO:TX:a:t=P:problem:zapis metrum z kreską	!	!LO:TX:a:t=P:problem:zapis metrum z kreską	!
!LO:TX:a:t=Laudate pueri	!	!	!LO:TX:a:t=Laudate pueri	!	!LO:TX:a:t=Laudate pueri	!	!LO:TX:a:t=P:problem:zapis metrum z kreską	!	!LO:TX:a:t=P:problem:zapis metrum z kreską	!	!LO:TX:a:t=Allegretto.	!	!	!LO:TX:a:t=Allegretto.	!	!	!LO:TX:a:t=Allegretto.	!	!	!LO:TX:a:t=P:problem:zapis metrum z kreską	!	!	!LO:TX:a:t=All[egre]tto in D.	!	!LO:TX:a:t=Allegretto in D.	!	!LO:TX:a:t=Allegretto	!LO:TX:a:t=Allegretto. in A.	!	!LO:TX:a:t=Allegretto in A.	!	!LO:TX:a:t=Allegretto	!
!LO:TX:a:t=allegretto	!	!	!LO:TX:a:t=allegretto	!	!LO:TX:a:t=allegretto	!	!LO:TX:a:t=Alegretto	!	!LO:TX:a:t=Allegreto	!	!LO:TX:a:t=Laudate pueri	!	!	!LO:TX:a:t=Laudate pueri	!	!LO:DY:a	!LO:TX:a:t=Laudate pueri.	!	!	!LO:TX:a:t=Laudate pueri.	!	!	!LO:TX:a:t=Laudate pueri	!	!LO:TX:a:t=Laudate pueri	!	!LO:TX:a:t=Laudate	!LO:TX:a:t=Laudate Pueri	!	!LO:TX:a:t=Laudati pueri	!	!LO:TX:a:t=Laudate Pueris	!
8A\	.	ff	8A\	ff	8a\	ff	8a/	ff	8aa\	ff	8A\	Lau-	f	8A\	Lau-	f	8r	.	.	8r	.	.	8r	.	8r	.	8A\	8r	.	8a\	.	8aa\	f
=1	=1	=1	=1	=1	=1	=1	=1	=1	=1	=1	=1	=1	=1	=1	=1	=1	=1	=1	=1	=1	=1	=1	=1	=1	=1	=1	=1	=1	=1	=1	=1	=1	=1
!	!	!	!	!	!	!	!	!	!	!	!	!	!	!	!	!	!LO:TX:a:t=3.	!	!	!LO:TX:a:t=3.	!	!	!LO:TX:a:t=7	!	!LO:TX:a:t=7	!	!	!LO:TX:b:t=7	!	!	!	!	!
!	!	!	!	!	!	!	!	!	!	!	!	!	!	!	!	!	!LO:N:vis=0	!	!	!LO:N:vis=0	!	!	!	!	!LO:N:vis=00	!	!	!	!	!	!	!	!
4G#\	.	.	4G#\	.	4g#\	.	4g#/	.	4gg#\	.	4G#\	-da-	.	4G#/	-da-	.	1.r	.	.	1.r	.	.	2.r	.	0.r	.	4G#\	2.r	.	4g#\	.	4gg#\	.
8A\	.	.	8A\	.	8a\	.	8a/	.	8aa\	.	8A\	-te	.	8A\	-te	.	.	.	.	.	.	.	.	.	.	.	8A\	.	.	8a\	.	8aa\	.
4B\	.	.	4B\	.	4b\	.	4b/	.	4bb\	.	8.B\	pu-	.	8.B\	pu-	.	.	.	.	.	.	.	.	.	.	.	4B\	.	.	4b\	.	4bb\	.
.	.	.	.	.	.	.	.	.	.	.	16B\	-e-	.	16B\	-e-	.	.	.	.	.	.	.	.	.	.	.	.	.	.	.	.	.	.
8A\	.	.	8A\	.	8a\	.	8a/	.	8aa\	.	8A\	-ri	.	8A\	-ri	.	.	.	.	.	.	.	.	.	.	.	8A\	.	.	8a\	.	8aa\	.
=2	=2	=2	=2	=2	=2	=2	=2	=2	=2	=2	=2	=2	=2	=2	=2	=2	=2	=2	=2	=2	=2	=2	=2	=2	=2	=2	=2	=2	=2	=2	=2	=2	=2
4F#\	.	.	4F#\	.	4f#\	.	4f#/	.	4ff#\	.	4F#\	Do-	.	4F#/	Do-	.	.	.	.	.	.	.	2.r	.	.	.	4F#\	2.r	.	4f#\	.	4ff#\	.
8G#\	.	.	8G#\	.	8g#\	.	8g#/	.	8gg#\	.	8G#\	-mi-	.	8G#/	-mi-	.	.	.	.	.	.	.	.	.	.	.	8G#\	.	.	8g#\	.	8gg#\	.
4A\	.	.	4A\	.	4a\	.	4a/	.	4aa\	.	4A\	-num	.	4A/	-no	.	.	.	.	.	.	.	.	.	.	.	4A\	.	.	4a\	.	4aa\	.
8B\	.	.	8B\	.	8b\	.	8b/	.	8bb\	.	8B\	lau-	.	8B/	Lau-	.	.	.	.	.	.	.	.	.	.	.	8B\	.	.	8b\	.	8bb\	.
=3	=3	=3	=3	=3	=3	=3	=3	=3	=3	=3	=3	=3	=3	=3	=3	=3	=3	=3	=3	=3	=3	=3	=3	=3	=3	=3	=3	=3	=3	=3	=3	=3	=3
!	!	!	!	!	!	!	!	!	!	!	!LO:LB:g=original	!	!	!LO:LB:g=original	!	!	!	!	!	!	!	!	!	!	!	!	!	!	!	!	!	!	!
4c#\	.	.	4c#\	.	4cc#\	.	4cc#\	.	4ccc#\	.	4c#\	-da-	.	4c#\	-da-	.	2.r	.	.	2.r	.	.	2.r	.	.	.	4c#\	2.r	.	4cc#\	.	4ccc#\	.
16B\LL	.	.	16B\LL	.	16b\LL	.	(16b\LL	.	16bb\LL	.	(16B\LL	-te	.	(16B\LL	-te	.	.	.	.	.	.	.	.	.	.	.	16B\LL	.	.	(16b\LL	.	(16bb\LL	.
16A\JJ	.	.	16A\JJ	.	16a\JJ	.	16a\JJ)	.	16aa\JJ	.	16A\JJ)	.	.	16A\JJ)	.	.	.	.	.	.	.	.	.	.	.	.	16A\JJ	.	.	16a\JJ)	.	16aa\JJ)	.
4G#\	.	.	4G#\	.	4g#\	.	4g#/	.	4gg#\	.	4G#\	no-	.	4G#/	no-	.	.	.	.	.	.	.	.	.	.	.	4G#\	.	.	4g#\	.	4gg#\	.
8F#\	.	.	8F#\	.	8f#\	.	8f#/	.	8ff#\	.	8F#\	-men	.	8F#/	-men	.	.	.	.	.	.	.	.	.	.	.	8F#\	.	.	8f#\	.	8ff#\	.
=4	=4	=4	=4	=4	=4	=4	=4	=4	=4	=4	=4	=4	=4	=4	=4	=4	=4	=4	=4	=4	=4	=4	=4	=4	=4	=4	=4	=4	=4	=4	=4	=4	=4
*	*	*	*	*	*	*	*	*	*	*	*	*	*	*	*	*	*	*	*	*	*	*	*	*	*	*	*^	*	*	*	*	*	*
4E\	.	.	4E\	.	4e\	.	4e/	.	4ee\	.	4E\	Do-	.	4E/	Do-	.	4r	.	.	4r	.	.	2.r	.	.	.	4E\	4.ryy	2.r	.	4e/	.	4ee\	.
8D#X\	.	.	8D#X\	.	8d#X\	.	8d#X/	.	8dd#X\	.	(16D#X\LL	-mi-	.	16D#X/LL	-mi-	.	8r	.	.	8r	.	.	.	.	.	.	8D#X\	.	.	.	8d#X/	.	8dd#X\	.
.	.	.	.	.	.	.	.	.	.	.	16E\JJ)	.	.	16E/JJ	.	.	.	.	.	.	.	.	.	.	.	.	.	.	.	.	.	.	.	.
4E\	.	.	4E\	.	4e\	.	4e/	.	4ee\	.	4E\	-ni	.	4E/	-ni	.	4r	.	.	4r	.	.	.	.	.	.	4E\	4ryy	.	.	4e/	.	4ee\	.
!	!	!	!	!	!	!	!	!	!	!	!	!	!	!	!	!	!LO:TX:a:t=problem: ołówkiem dopisane "Solo"	!	!LO:DY:a	!	!	!	!	!	!	!	!	!	!	!	!	!	!	!
8r	.	.	8r	.	8r	.	(16g#/LL	p	16b\LL	p	8r	.	.	8r	.	.	16g#\LL	Sit	p	16b\LL	Sit	.	.	.	.	.	16B/LL	16G#\LL	.	.	8r	.	8r	.
.	.	.	.	.	.	.	16a/JJ)	.	16cc#\JJ	.	.	.	.	.	.	.	16a\JJ	.	.	16cc#\JJ	.	.	.	.	.	.	16c#/JJ	16A\JJ	.	.	.	.	.	.
*	*	*	*	*	*	*	*	*	*	*	*	*	*	*	*	*	*	*	*	*	*	*	*	*	*	*	*v	*v	*	*	*	*	*	*
=5	=5	=5	=5	=5	=5	=5	=5	=5	=5	=5	=5	=5	=5	=5	=5	=5	=5	=5	=5	=5	=5	=5	=5	=5	=5	=5	=5	=5	=5	=5	=5	=5	=5
!	!	!	!	!	!LO:LB:g=original	!	!	!	!	!	!	!	!	!	!	!	!	!	!	!	!	!	!	!	!	!	!	!	!	!LO:LB:g=original	!	!	!
!LO:TX:a:t= Serte	!	!	!	!	!	!	!	!	!	!	!LO:TX:a:t=3.	!	!	!LO:TX:a:t=3.	!	!	!	!	!	!	!	!	!	!	!	!	!	!	!	!LO:TX:a:t=3.	!	!LO:TX:a:t=3.	!
!	!	!	!	!	!	!	!	!	!	!	!LO:N:vis=0	!	!	!LO:N:vis=0	!	!	!	!	!	!	!	!	!	!	!LO:N:vis=0	!	!	!	!	!LO:N:vis=0	!	!LO:N:vis=0	!
8E\	.	p	8E\	p	16r	.	8.b\L	.	8.dd\L	.	1.r	.	.	1.r	.	.	8.b\L	no-	.	(8.dd\L	no-	.	2.r	.	1.r	.	8.B\L 8.d	2.r	.	1.r	.	1.r	.
.	.	.	.	.	16e'\	.	.	.	.	.	.	.	.	.	.	.	.	.	.	.	.	.	.	.	.	.	.	.	.	.	.	.	.
8r	.	.	8r	.	16e'\LL	.	.	.	.	.	.	.	.	.	.	.	.	.	.	.	.	.	.	.	.	.	.	.	.	.	.	.	.
.	.	.	.	.	16e'\	.	16cc#\K	.	16ee\K	.	.	.	.	.	.	.	16cc#\Jk	.	.	16ee\Jk)	.	.	.	.	.	.	16c#\K 16e	.	.	.	.	.	.
8r	.	.	8r	.	16e'\	.	8b\J	.	8dd\J	.	.	.	.	.	.	.	8b\	-men	.	8dd\	-men	.	.	.	.	.	8B\J 8d	.	.	.	.	.	.
.	.	.	.	.	16e'\JJ	.	.	.	.	.	.	.	.	.	.	.	.	.	.	.	.	.	.	.	.	.	.	.	.	.	.	.	.
!	!	!	!	!	!	!	!	!	!	!	!	!	!	!	!	!	!	!	!	!LO:LB:g=original	!	!	!	!	!	!	!	!	!	!	!	!	!
8E\	.	.	8E\	.	16r	.	8.a\L	.	8.cc#\L	.	.	.	.	.	.	.	8.a\	Do-	.	8.cc#\	Do-	.	.	.	.	.	8.A\L 8.c#	.	.	.	.	.	.
.	.	.	.	.	16e\	.	.	.	.	.	.	.	.	.	.	.	.	.	.	.	.	.	.	.	.	.	.	.	.	.	.	.	.
8r	.	.	8r	.	16e'\LL	.	.	.	.	.	.	.	.	.	.	.	.	.	.	.	.	.	.	.	.	.	.	.	.	.	.	.	.
.	.	.	.	.	16e'\	.	16g#\K	.	16b\K	.	.	.	.	.	.	.	16g#\	-mi-	.	16b\	-mi-	.	.	.	.	.	16G#\K 16B	.	.	.	.	.	.
8r	.	.	8r	.	16e'\	.	8a\J	.	8cc#\J	.	.	.	.	.	.	.	8a\	-ni	.	8cc#\	-ni	.	.	.	.	.	8A\J 8c#	.	.	.	.	.	.
.	.	.	.	.	16e'\JJ	.	.	.	.	.	.	.	.	.	.	.	.	.	.	.	.	.	.	.	.	.	.	.	.	.	.	.	.
=6	=6	=6	=6	=6	=6	=6	=6	=6	=6	=6	=6	=6	=6	=6	=6	=6	=6	=6	=6	=6	=6	=6	=6	=6	=6	=6	=6	=6	=6	=6	=6	=6	=6
!	!	!	!	!	!	!	!LO:LB:g=original	!	!LO:LB:g=original	!	!	!	!	!	!	!	!LO:LB:g=original	!	!	!	!	!	!	!	!	!	!LO:LB:g=original	!	!	!	!	!	!
!	!	!	!	!	!	!	!	!	!	!	!	!	!	!	!	!	!	!	!	!	!	!	!	!	!	!	!LO:N:vis=8	!	!	!	!	!	!
8E\	.	.	8E\	.	16r	.	8.b\L	.	8.dd\L	.	.	.	.	.	.	.	8.b\L	Be-	.	(8.dd\L	be-	.	2.r	.	.	.	8.B\L 8.d	2.r	.	.	.	.	.
.	.	.	.	.	16e\	.	.	.	.	.	.	.	.	.	.	.	.	.	.	.	.	.	.	.	.	.	.	.	.	.	.	.	.
*	*	*	*	*	*tremolo	*	*	*	*	*	*	*	*	*	*	*	*	*	*	*	*	*	*	*	*	*	*	*	*	*	*	*	*
!	!	!	!	!	!LO:TX:a:t=problem: u góry cztery kropki (staccato?)	!	!	!	!	!	!	!	!	!	!	!	!	!	!	!	!	!	!	!	!	!	!	!	!	!	!	!	!
8r	.	.	8r	.	16e'\LL	.	.	.	.	.	.	.	.	.	.	.	.	.	.	.	.	.	.	.	.	.	.	.	.	.	.	.	.
.	.	.	.	.	16e'\	.	16cc#\K	.	16ee\K	.	.	.	.	.	.	.	16cc#\Jk	.	.	16ee\Jk)	.	.	.	.	.	.	16c#\K 16e	.	.	.	.	.	.
8r	.	.	8r	.	16e'\	.	8b\J	.	8dd\J	.	.	.	.	.	.	.	8b\	-ne-	.	8dd\	-ne-	.	.	.	.	.	8B\J 8d	.	.	.	.	.	.
.	.	.	.	.	16e'\JJ	.	.	.	.	.	.	.	.	.	.	.	.	.	.	.	.	.	.	.	.	.	.	.	.	.	.	.	.
*	*	*	*	*	*Xtremolo	*	*	*	*	*	*	*	*	*	*	*	*	*	*	*	*	*	*	*	*	*	*	*	*	*	*	*	*
.	.	.	.	.	.	.	8qb/	.	8qqdd/	.	.	.	.	.	.	.	.	.	.	16qqdd/	.	.	.	.	.	.	.	.	.	.	.	.	.
8AA/	.	.	8AA/	.	16r	.	4a/	.	4cc#\	.	.	.	.	.	.	.	8a\	-dic-	.	8cc#\	-dic-	.	.	.	.	.	4A\ 4c#	.	.	.	.	.	.
.	.	.	.	.	16e\	.	.	.	.	.	.	.	.	.	.	.	.	.	.	.	.	.	.	.	.	.	.	.	.	.	.	.	.
*	*	*	*	*	*tremolo	*	*	*	*	*	*	*	*	*	*	*	*	*	*	*	*	*	*	*	*	*	*	*	*	*	*	*	*
8r	.	.	8r	.	16e'\LL	.	.	.	.	.	.	.	.	.	.	.	8a\	-tum	.	8cc#\	-tum	.	.	.	.	.	.	.	.	.	.	.	.
.	.	.	.	.	16e'\	.	.	.	.	.	.	.	.	.	.	.	.	.	.	.	.	.	.	.	.	.	.	.	.	.	.	.	.
8r	.	.	8r	.	16e'\	.	16a\LL	.	(16cc#\LL	.	.	.	.	.	.	.	16a\	ex	.	16cc#\	ex	.	.	.	.	.	(16A\LL 16c#	.	.	.	.	.	.
.	.	.	.	.	16e'\JJ	.	16b\JJ	.	16dd\JJ	.	.	.	.	.	.	.	16b\	hoc	.	16dd\	hoc	.	.	.	.	.	16B\JJ) 16d	.	.	.	.	.	.
*	*	*	*	*	*Xtremolo	*	*	*	*	*	*	*	*	*	*	*	*	*	*	*	*	*	*	*	*	*	*	*	*	*	*	*	*
=7	=7	=7	=7	=7	=7	=7	=7	=7	=7	=7	=7	=7	=7	=7	=7	=7	=7	=7	=7	=7	=7	=7	=7	=7	=7	=7	=7	=7	=7	=7	=7	=7	=7
!LO:LB:g=original	!	!	!	!	!	!	!	!	!	!	!	!	!	!	!	!	!	!	!	!	!	!	!	!	!	!	!	!	!	!	!	!	!
4.A\	.	.	4.A\	.	16e\LL	.	8cc#\L	.	16ee\LL)	.	2.r	.	.	2.r	.	.	4cc#\	nunc	.	4ee\	nunc	.	2.r	.	2.r	.	4.c#\ 4.e	2.r	.	2.r	.	2.r	.
.	.	.	.	.	16c#\JJ	.	.	.	16aa\	.	.	.	.	.	.	.	.	.	.	.	.	.	.	.	.	.	.	.	.	.	.	.	.
.	.	.	.	.	4A\	.	16cc#\L	.	16ee\	.	.	.	.	.	.	.	.	.	.	.	.	.	.	.	.	.	.	.	.	.	.	.	.
.	.	.	.	.	.	.	16a\	.	16cc#\	.	.	.	.	.	.	.	.	.	.	.	.	.	.	.	.	.	.	.	.	.	.	.	.
.	.	.	.	.	.	.	16b\	.	16dd\	.	.	.	.	.	.	.	8cc#\	et	.	8ee\	et	.	.	.	.	.	.	.	.	.	.	.	.
.	.	.	.	.	.	.	16cc#\JJ	.	16ee\JJ	.	.	.	.	.	.	.	.	.	.	.	.	.	.	.	.	.	.	.	.	.	.	.	.
8D\L	.	.	8D\L	.	8d\L	.	8dd\	.	8ff#\	.	.	.	.	.	.	.	4dd\	us-	.	4ff#\	us-	.	.	.	.	.	4d\ 4f#	.	.	.	.	.	.
8D\J	.	.	8D\J	.	8d\J	.	16r	.	16r	.	.	.	.	.	.	.	.	.	.	.	.	.	.	.	.	.	.	.	.	.	.	.	.
.	.	.	.	.	.	.	16dd\LL	.	16ff#\LL	.	.	.	.	.	.	.	.	.	.	.	.	.	.	.	.	.	.	.	.	.	.	.	.
8r	.	.	8r	.	8r	.	16cc#\	.	16ee\	.	.	.	.	.	.	.	16cc#\	-que	.	16ee\	-que	.	.	.	.	.	(16c#\LL 16e	.	.	.	.	.	.
.	.	.	.	.	.	.	16b\JJ	.	16dd\JJ	.	.	.	.	.	.	.	16b\	in	.	16dd\	in	.	.	.	.	.	16B\JJ) 16d	.	.	.	.	.	.
=8	=8	=8	=8	=8	=8	=8	=8	=8	=8	=8	=8	=8	=8	=8	=8	=8	=8	=8	=8	=8	=8	=8	=8	=8	=8	=8	=8	=8	=8	=8	=8	=8	=8
*	*	*	*	*	*	*	*	*	*	*	*	*	*	*	*	*	*	*	*	*	*	*	*	*	*	*	*^	*	*	*	*	*	*
*	*	*	*	*	*2\right	*	*	*	*	*	*	*	*	*	*	*	*	*	*	*	*	*	*	*	*	*	*	*	*	*	*	*	*	*
*tremolo	*	*	*tremolo	*	*tremolo	*	*	*	*	*	*	*	*	*	*	*	*	*	*	*	*	*	*	*	*	*	*	*	*	*	*	*	*	*
!	!	!	!LO:LB:g=original	!	!	!	!	!	!	!	!	!	!	!	!	!	!	!	!	!LO:LB:g=original	!	!	!	!	!	!	!	!	!	!	!	!	!LO:LB:g=original	!
!	!	!	!	!	!	!	!	!	!LO:TX:a:t=problem: niejasna interpretacja łuku	!	!	!	!	!	!	!	!	!	!	!	!	!	!	!	!	!	!LO:TX:a:t=problem: niejasna interpretacja tego taktu	!	!	!	!	!	!	!
8E\L	.	.	8E\L	.	8e\L	.	16a/LL	.	(16cc#\LL	.	4r	.	.	4r	.	.	4a\	Se-	.	4cc#\	sæ-	.	4r	.	4r	.	4ryy	4A\ 4c#	4r	.	4r	.	4r	.
.	.	.	.	.	.	.	(16c#/	.	16ee\	.	.	.	.	.	.	.	.	.	.	.	.	.	.	.	.	.	.	.	.	.	.	.	.	.
8E\	.	.	8E\	.	8e\	.	16e/	.	16cc#\	.	.	.	.	.	.	.	.	.	.	.	.	.	.	.	.	.	.	.	.	.	.	.	.	.
.	.	.	.	.	.	.	16e/	.	16cc#\)	.	.	.	.	.	.	.	.	.	.	.	.	.	.	.	.	.	.	.	.	.	.	.	.	.
8E\J	.	.	8E\J	.	8e\J	.	16d/	.	16b\	.	8r	.	.	8r	.	.	16g#\LL	-cu-	.	16b\LL	-cu-	.	8r	.	8r	.	16ryy	16G#\LL 16B	8r	.	8r	.	8r	.
!	!	!	!	!	!	!	!	!	!	!	!	!	!	!	!	!	!	!	!	!	!	!	!	!	!	!	!LO:N:vis=4	!	!	!	!	!	!	!
.	.	.	.	.	.	.	16c#/JJ)	.	16a\JJ	.	.	.	.	.	.	.	16a\JJ	.	.	16a\JJ	.	.	.	.	.	.	16A/	16A\JJ	.	.	.	.	.	.
4AA/	.	.	4AA/	.	4A/	.	4c#/	.	4a/	.	4r	.	.	4r	.	.	4a\	-lum	.	4a\	-lum	.	4r	.	4r	.	4A/	4A\	4r	.	4r	.	4r	.
!LO:TX:b:t=Uniſ:	!	!	!	!	!	!	!	!	!	!	!	!	!	!	!	!	!	!	!	!	!	!	!	!	!	!	!	!	!	!	!	!	!	!
!LO:TX:a:t=Organo	!	!	!	!	!	!	!	!	!	!	!	!	!LO:DY:a	!	!	!LO:DY:a	!	!	!LO:DY:a	!	!	!LO:DY:a	!	!	!	!	!	!	!	!	!	!	!	!
!	!	!	!	!	!	!	!	!	!	!	!	!	!LO:DY:t=ff.	!	!	!LO:DY:t=ff.	!	!	!LO:DY:t=ff.	!	!	!LO:DY:t=ffr.	!	!	!	!	!	!	!	!	!	!	!	!
8A\	.	.	8A\	.	8a\	.	8a/	ff	8aa\	ff	8A\	a	ff	8A/	a	ff	8a\	a	ff	8a\	a	ff	8A/	.	8A/	.	8ryy	8A\	8a\	.	8a\	.	8aa\	.
*	*	*	*	*	*	*	*	*	*	*	*	*	*	*	*	*	*	*	*	*	*	*	*	*	*	*	*v	*v	*	*	*	*	*	*
=9	=9	=9	=9	=9	=9	=9	=9	=9	=9	=9	=9	=9	=9	=9	=9	=9	=9	=9	=9	=9	=9	=9	=9	=9	=9	=9	=9	=9	=9	=9	=9	=9	=9
!	!	!	!	!	!LO:TX:a:t=problem: laska z lewej strony	!	!	!	!	!	!LO:LB:g=original	!	!	!LO:LB:g=original	!	!	!LO:LB:g=original	!	!	!	!	!	!	!	!	!	!	!	!	!	!	!	!
4G#\	.	.	4G#\	.	4g#\	.	4g#/	.	4gg#\	.	4G#\	so-	.	4G#/	so-	.	4g#\	so-	.	4g#\	So-	.	4G#X/	.	4G#X/	.	4G#\	4g#\	.	4g#\	.	4gg#\	.
8A\	.	.	8A\	.	8a\	.	8a/	.	8aa\	.	8A\	-lis	.	8A/	-lis	.	8a\	-lis	.	8a\	-lis	.	8A/	.	8A/	.	8A\	8a\	.	8a\	.	8aa\	.
4B\	.	.	4B\	.	4b\	.	4b\	.	4bb\	.	8.B\	or-	.	8.B/	or-	.	8.b\	or-	.	8.b\	or-	.	4B/	.	4B/	.	4B\	4b\	.	4b\	.	4bb\	.
.	.	.	.	.	.	.	.	.	.	.	16B\	-tu	.	16B/	-tu	.	16b\	-tu	.	16b\	-tu	.	.	.	.	.	.	.	.	.	.	.	.
8A\	.	.	8A\	.	8a\	.	8a\	.	8aa\	.	8A\	a	.	8A/	a	.	8a\	a	.	8a\	a	.	8A/	.	8A/	.	8A\	8a\	.	8a\	.	8aa\	.
=10	=10	=10	=10	=10	=10	=10	=10	=10	=10	=10	=10	=10	=10	=10	=10	=10	=10	=10	=10	=10	=10	=10	=10	=10	=10	=10	=10	=10	=10	=10	=10	=10	=10
!	!	!	!	!	!	!	!	!	!	!	!	!	!	!	!	!	!	!	!	!	!	!	!	!	!	!	!	!	!	!	!	!LO:TX:a:t=problem: pierwotnie 4ee, ołówkiem poprawione na 4ff# z adnotacją "fis"	!
4F#\	.	.	4F#\	.	4f#\	.	4f#/	.	4ff#\	.	4F#\	so-	.	4F#/	so-	.	4f#\	So-	.	4f#/	So-	.	4F#/	.	4F#/	.	4F#\	4f#\	.	4f#\	.	4ff#\	.
8G#\	.	.	8G#\	.	8g#\	.	8g#/	.	8gg#\	.	8G#\	-lis	.	8G#/	-lis	.	8g#\	-lis	.	8g#/	-lis	.	8G#X/	.	8G#X/	.	8G#\	8g#\	.	8g#\	.	8gg#\	.
4A\	.	.	4A\	.	4a\	.	4a\	.	4aa\	.	4A\	or-	.	4A/	or-	.	4a\	or-	.	4a\	or-	.	4A/	.	4A/	.	4A\	4a\	.	4a\	.	4aa\	.
8B\	.	.	8B\	.	8b\	.	8b\	.	8bb\	.	8B\	-tu	.	8B/	-tu	.	8b\	-tu	.	8b\	-tu	.	8r	.	8r	.	8B\	8b\	.	8b\	.	8bb\	.
=11	=11	=11	=11	=11	=11	=11	=11	=11	=11	=11	=11	=11	=11	=11	=11	=11	=11	=11	=11	=11	=11	=11	=11	=11	=11	=11	=11	=11	=11	=11	=11	=11	=11
!	!	!	!	!	!LO:LB:g=original	!	!LO:LB:g=original	!	!LO:LB:g=original	!	!	!	!	!	!	!	!	!	!	!LO:LB:g=original	!	!	!	!	!	!	!	!	!	!	!	!	!
4c#\	.	.	4c#\	.	4cc#\	.	4cc#\	.	(4ccc#\	.	4c#\	us-	.	4c#\	us-	.	4cc#\	us-	.	4cc#\	us-	.	4r	.	4r	.	4c#\	4cc#\	.	4cc#\	.	4ccc#\	.
16B\LL	.	.	16B\LL	.	16b\LL	.	16b\LL	.	16bb\LL	.	(16B\LL	-que	.	16B\LL	-que	.	16b\LL	-que	.	16b\LL	-que	.	8r	.	8r	.	16B\LL	16b\LL	.	(16b\LL	.	16bb\LL	.
16A\JJ	.	.	16A\JJ	.	16a\JJ	.	16a\JJ	.	16aa\JJ)	.	16A\JJ)	.	.	16A\JJ	.	.	16a\JJ	.	.	16a\JJ	.	.	.	.	.	.	16A\JJ	16a\JJ	.	16a\JJ)	.	16aa\JJ	.
4G#\	.	.	4G#\	.	4g#\	.	4g#/	.	4gg#\	.	4G#\	ad	.	4G#/	ad	.	4g#\	ad	.	4g#/	ad	.	4r	.	4r	.	4G#\	4g#\	.	4g#\	.	4gg#\	.
8F#\	.	.	8F#\	.	8f#\	.	8f#/	.	8ff#\	.	8F#\	oc-	.	8F#/	oc-	.	8f#\	oc-	.	8f#/	oc-	.	8f#\	.	8f#\	.	8F#\	8f#\	.	8f#\	.	8ff#\	.
=12	=12	=12	=12	=12	=12	=12	=12	=12	=12	=12	=12	=12	=12	=12	=12	=12	=12	=12	=12	=12	=12	=12	=12	=12	=12	=12	=12	=12	=12	=12	=12	=12	=12
!	!	!	!	!	!	!	!	!	!	!	!LO:LB:g=original	!	!	!LO:LB:g=original	!	!	!LO:LB:g=original	!	!	!	!	!	!	!	!	!	!	!	!	!	!	!	!
4E\	.	.	4E\	.	4e\	.	4e/	.	4ee\	.	(4E\	-ca-	.	(>4E/	-ca-	.	(4e\	-ca-	.	4e/	-ca-	.	4e\	.	4e\	.	4E\	4e/	.	4e/	.	4ee\	.
8D#X\	.	.	8D#X\	.	8d#X\	.	8d#X/	.	8dd#X\	.	16D#X\LL	.	.	16D#X/LL)	-sum	.	16d#X\LL	.	.	(16d#X/LL	-sum	.	8d#X\	.	8d#X\	.	16D#X\LL	8d#X/	.	8d#X/	.	8dd#X\	.
.	.	.	.	.	.	.	.	.	.	.	16E\JJ)	.	.	16E/JJ	.	.	16e\JJ)	.	.	16e/JJ)	.	.	.	.	.	.	16E\JJ	.	.	.	.	.	.
!	!	!	!	!	!	!	!	!	!	!	!	!	!	!LO:TX:a:t=SIC:s=4E	!	!	!	!	!	!	!	!	!	!	!	!	!	!	!	!	!	!	!
4E\	.	.	4E\	.	4e\	.	4e/	.	4ee\	.	4E\	-sum	.	4F#/	.	.	4e\	-sum	.	4e/	.	.	4e\	.	4e\	.	4E\	4e/	.	4e/	.	4ee\	.
8r	.	.	8r	.	8r	.	16g#\LL	.	16b\LL	.	8E\	lau-	.	(16G#/LL	Lau-	.	8e\	Lau-	.	16b\LL	Lau-	.	8r	.	8r	.	8r	(16g#\LL	.	16b\LL	.	16bb\LL	.
.	.	.	.	.	.	.	16a\JJ	.	16cc#\JJ	.	.	.	.	16A/JJ)	.	.	.	.	.	16cc#\JJ	.	.	.	.	.	.	.	16a\JJ)	.	16cc#\JJ	.	16ccc#\JJ	.
=13	=13	=13	=13	=13	=13	=13	=13	=13	=13	=13	=13	=13	=13	=13	=13	=13	=13	=13	=13	=13	=13	=13	=13	=13	=13	=13	=13	=13	=13	=13	=13	=13	=13
*	*	*	*	*	*	*	*	*	*	*	*	*	*	*	*	*	*	*	*	*	*	*	*2\right	*	*2\right	*	*tremolo	*	*	*	*	*	*
!	!	!	!	!	!	!	!	!	!	!	!	!	!	!	!	!	!	!	!	!	!	!	!LO:LB:g=original	!	!LO:LB:g=original	!	!LO:LB:g=original	!	!	!	!	!	!
!	!	!	!	!	!	!	!	!	!	!	!	!	!	!	!	!	!	!	!	!	!	!	!	!	!	!	!	!LO:LB:g=original	!	!	!	!	!
16E\LL	7	.	16E\LL	.	16e\LL	.	8.b\L	.	8.dd\L	.	8.E\	-da-	.	8.B\	-da-	.	8.e\	-da-	.	8.dd\	-da-	.	[2.e\	.	2.e\	.	16E\LL	(8.b\L	.	8.dd\L	.	8.ddd\L	.
16E\	.	.	16E\	.	16e\	.	.	.	.	.	.	.	.	.	.	.	.	.	.	.	.	.	.	.	.	.	16E\	.	.	.	.	.	.
16E\	.	.	16E\	.	16e\	.	.	.	.	.	.	.	.	.	.	.	.	.	.	.	.	.	.	.	.	.	16E\	.	.	.	.	.	.
16E\	.	.	16E\	.	16e\	.	16cc#\K	.	16ee\K	.	16E\	-bi-	.	16c#\	-bi-	.	16e\	-bi-	.	16ee\	-bi-	.	.	.	.	.	16E\	16cc#\K	.	16ee\K	.	16eee\K	.
16E\	.	.	16E\	.	16e\	.	8b\J	.	8dd\J	.	8E\	-le	.	8B\	-le	.	8e\	-le	.	8dd\	-le	.	.	.	.	.	16E\	8b\J)	.	8dd\J	.	8ddd\J	.
16E\JJ	.	.	16E\JJ	.	16e\JJ	.	.	.	.	.	.	.	.	.	.	.	.	.	.	.	.	.	.	.	.	.	16E\JJ	.	.	.	.	.	.
16E\LL	6 4	.	16E\LL	.	16e\LL	.	8.a\L	.	8.cc#\L	.	4E\	no-	.	8.A/L	no-	.	4e\	no-	.	8.cc#\L	no-	.	.	.	.	.	16E\LL	(8.a\L	.	8.cc#\L	.	8.ccc#\L	.
16E\	.	.	16E\	.	16e\	.	.	.	.	.	.	.	.	.	.	.	.	.	.	.	.	.	.	.	.	.	16E\	.	.	.	.	.	.
16E\	.	.	16E\	.	16e\	.	.	.	.	.	.	.	.	.	.	.	.	.	.	.	.	.	.	.	.	.	16E\	.	.	.	.	.	.
16E\	.	.	16E\	.	16e\	.	16g#\K	.	16b\K	.	.	.	.	16G#/Jk	.	.	.	.	.	16b\Jk	.	.	.	.	.	.	16E\	16g#\K	.	16b\K	.	16bb\K	.
16E\	.	.	16E\	.	16e\	.	8a\J	.	8cc#\J	.	8E\	-men	.	8A/	-men	.	8a\	-men	.	8cc#\	-men	.	.	.	.	.	16E\	8a\J)	.	8cc#\J	.	8ccc#\J	.
16E\JJ	.	.	16E\JJ	.	16e\JJ	.	.	.	.	.	.	.	.	.	.	.	.	.	.	.	.	.	.	.	.	.	16E\JJ	.	.	.	.	.	.
=14	=14	=14	=14	=14	=14	=14	=14	=14	=14	=14	=14	=14	=14	=14	=14	=14	=14	=14	=14	=14	=14	=14	=14	=14	=14	=14	=14	=14	=14	=14	=14	=14	=14
*	*	*	*	*	*	*	*tremolo	*	*tremolo	*	*	*	*	*	*	*	*	*	*	*	*	*	*	*	*	*	*	*	*	*	*	*	*
!	!	!	!	!	!	!	!	!	!	!	!	!	!	!	!	!	!	!	!	!LO:LB:g=original	!	!	!	!	!	!	!	!	!	!	!	!	!
16E\LL	7#	.	16E\LL	.	16e\LL	.	16f#/LL 16a	.	16dd#X\LL	.	4E\	Do-	.	4A/	Do-	.	4f#\	Do-	.	4dd#X\	Do-	.	4.e\]	.	4.e\	.	16E\LL	4.f#\	.	4.dd#X\	.	4.ddd#X\	.
16E\	.	.	16E\	.	16e\	.	16f#/ 16a	.	16dd#\	.	.	.	.	.	.	.	.	.	.	.	.	.	.	.	.	.	16E\	.	.	.	.	.	.
16E\	.	.	16E\	.	16e\	.	16f#/ 16a	.	16dd#\	.	.	.	.	.	.	.	.	.	.	.	.	.	.	.	.	.	16E\	.	.	.	.	.	.
16E\	.	.	16E\	.	16e\	.	16f#/ 16a	.	16dd#\	.	.	.	.	.	.	.	.	.	.	.	.	.	.	.	.	.	16E\	.	.	.	.	.	.
16E\	.	.	16E\	.	16e\	.	16f#/ 16a	.	16dd#\	.	8E\	-mi-	.	8A/	-mi-	.	8f#\	-mi-	.	8dd#\	-mi-	.	.	.	.	.	16E\	.	.	.	.	.	.
16E\JJ	.	.	16E\JJ	.	16e\JJ	.	16f#/JJ 16a	.	16dd#\JJ	.	.	.	.	.	.	.	.	.	.	.	.	.	.	.	.	.	16E\JJ	.	.	.	.	.	.
!	!	!	!	!	!	!	!	!	!	!	!	!	!	!LO:N:vis=16	!	!	!	!	!	!	!	!	!	!	!	!	!	!	!	!LO:N:vis=4	!	!	!
16E\LL	8	.	16E\LL	.	16e\LL	.	16g#/LL 16b	.	16ee\LL	.	8E\	-ni	.	8G#/	-ni	.	8e\	-ni	.	8ee\	-ni	.	4.e\	.	4.e\	.	16E\LL	4.g#\	.	4.ee\	.	4.eee\	.
16E\	.	.	16E\	.	16e\	.	16g#/ 16b	.	16ee\	.	.	.	.	.	.	.	.	.	.	.	.	.	.	.	.	.	16E\	.	.	.	.	.	.
16E\	.	.	16E\	.	16e\	.	16g#/ 16b	.	16ee\	.	16r	.	.	16r	.	.	16r	.	.	16r	.	.	.	.	.	.	16E\	.	.	.	.	.	.
16E\	.	.	16E\	.	16e\	.	16g#/ 16b	.	16ee\	.	16E\	ex-	.	16B\	ex-	.	16g#\	ex-	.	16ee\	ex-	.	.	.	.	.	16E\	.	.	.	.	.	.
16E\	.	.	16E\	.	16e\	.	16g#/ 16b	.	16ee\	.	16E\	-cel-	.	16B\	-cel-	.	16g#\	-cel-	.	16ee\	-cel-	.	.	.	.	.	16E\	.	.	.	.	.	.
16E\JJ	.	.	16E\JJ	.	16e\JJ	.	16g#/JJ 16b	.	16ee\JJ	.	16E\	-sus	.	16B\	-sus	.	16g#\	-sus	.	16ee\	-sus	.	.	.	.	.	16E\JJ	.	.	.	.	.	.
*	*	*	*	*	*	*	*	*	*Xtremolo	*	*	*	*	*	*	*	*	*	*	*	*	*	*	*	*	*	*	*	*	*	*	*	*
=15	=15	=15	=15	=15	=15	=15	=15	=15	=15	=15	=15	=15	=15	=15	=15	=15	=15	=15	=15	=15	=15	=15	=15	=15	=15	=15	=15	=15	=15	=15	=15	=15	=15
!LO:LB:g=original	!	!	!	!	!	!	!	!	!	!	!LO:LB:g=original	!	!	!LO:LB:g=original	!	!	!LO:LB:g=original	!	!	!	!	!	!	!	!	!	!	!	!	!	!	!	!
16D#X\LL	6 5	.	16D#X\LL	.	16d#X\LL	.	16a/LL 16b	>	16ff#\LL	>	4D#X\	su-	.	4B\	su-	.	4a^\	su-	.	4ff#\	su-	.	4d#X\	.	4f#^<\	.	16D#X\LL	4a\	.	4ff#\	.	4fff#\	.
16B\	.	.	16B\	.	16b\	.	16a/ 16b	.	16ff#\	.	.	.	.	.	.	.	.	.	.	.	.	.	.	.	.	.	16B\	.	.	.	.	.	.
16F#\	.	.	16F#\	.	16f#\	.	16a/ 16b	.	16ff#\	.	.	.	.	.	.	.	.	.	.	.	.	.	.	.	.	.	16F#\	.	.	.	.	.	.
16D#\JJ	.	.	16D#\	.	16d#\	.	16a/JJ 16b	.	16ff#\	.	.	.	.	.	.	.	.	.	.	.	.	.	.	.	.	.	16D#\	.	.	.	.	.	.
*	*	*	*	*	*	*	*Xtremolo	*	*	*	*	*	*	*	*	*	*	*	*	*	*	*	*	*	*	*	*	*	*	*	*	*	*
16E\LL	8	.	16E\	.	16e\	.	16g#/LL 16b	]	16ee\	]	8E\	-per	.	8B\	-per	.	8g#\	-per	.	8ee\	-per	.	8e\	.	8e\	.	16E\	8g#\	.	8ee\	.	8eee\	.
16G#\JJ	.	.	16G#\JJ	.	16g#\JJ	.	16g#/JJ 16b	.	16ee\JJ	.	.	.	.	.	.	.	.	.	.	.	.	.	.	.	.	.	16G#\JJ	.	.	.	.	.	.
*	*	*	*	*	*	*	*tremolo	*	*	*	*	*	*	*	*	*	*	*	*	*	*	*	*	*	*	*	*	*	*	*	*	*	*
!	!	!	!LO:TX:a:t=problem:custos E	!	!	!	!	!	!	!	!	!	!	!	!	!	!	!	!	!	!	!	!	!	!	!	!	!	!	!	!	!	!
!	!	!	!LO:LB:g=original	!	!	!	!	!	!	!	!	!	!	!	!	!	!	!	!	!	!	!	!	!	!	!	!	!	!	!	!	!	!
16D#\LL	6 5	.	16D#\LL	.	16d#\LL	.	16a/LL 16b	>	16ff#\LL	.	4D#\	om-	.	4B\	om-	.	4a^\	om-	.	4ff#\	om-	.	4d#\	.	4f#^<\	.	16D#\LL	4a\	.	4ff#\	.	4fff#\	.
16B\	.	.	16B\	.	16b\	.	16a/ 16b	.	16ff#\	.	.	.	.	.	.	.	.	.	.	.	.	.	.	.	.	.	16B\	.	.	.	.	.	.
16F#\	.	.	16F#\	.	16f#\	.	16a/ 16b	.	16ff#\	.	.	.	.	.	.	.	.	.	.	.	.	.	.	.	.	.	16F#\	.	.	.	.	.	.
16D#\JJ	.	.	16D#\	.	16d#\	.	16a/JJ 16b	.	16ff#\	.	.	.	.	.	.	.	.	.	.	.	.	.	.	.	.	.	16D#\	.	.	.	.	.	.
*	*	*	*	*	*	*	*Xtremolo	*	*	*	*	*	*	*	*	*	*	*	*	*	*	*	*	*	*	*	*	*	*	*	*	*	*
16E\LL	.	.	16E\	.	16e\	.	16g#/LL 16b	]	16ee\	.	8E\	-nes	.	8B\	-nes	.	8g#\	-nes	.	8ee\	-nes	.	8e\	.	8e\	.	16E\	8g#\	.	8ee\	.	8eee\	.
16G#\JJ	.	.	16G#\JJ	.	16g#\JJ	.	16g#/JJ 16b	.	16ee\JJ	.	.	.	.	.	.	.	.	.	.	.	.	.	.	.	.	.	16G#\JJ	.	.	.	.	.	.
=16	=16	=16	=16	=16	=16	=16	=16	=16	=16	=16	=16	=16	=16	=16	=16	=16	=16	=16	=16	=16	=16	=16	=16	=16	=16	=16	=16	=16	=16	=16	=16	=16	=16
*	*	*	*	*	*	*	*tremolo	*	*tremolo	*	*	*	*	*	*	*	*	*	*	*	*	*	*	*	*	*	*	*	*	*	*	*	*
!	!	!	!	!	!	!	!	!	!LO:TX:a:t=problem: u góry cztery kropki (ilość nut?)	!	!	!	!	!	!	!	!	!	!	!	!	!	!	!	!	!	!	!	!	!LO:LB:goriginal	!	!	!
!	!	!	!	!	!	!	!	!	!LO:LB:g=original	!	!	!	!	!	!	!	!	!	!	!	!	!	!	!	!	!	!LO:TX:a:t=SIC:s=16D#	!	!	!	!	!	!
16D#X\LL	6 5	.	16D#X\LL	.	16d#X\LL	.	16a/LL 16b	.	16ff#\LL	.	4D#X\	gen-	.	4B\	gen-	.	4a\	gen-	.	4ff#\	gen-	.	4d#X\	.	4f#\	.	16D\LL	4a\	.	4ff#\	.	4fff#\	.
16B\	.	.	16B\	.	16b\	.	16a/ 16b	.	16ff#\	.	.	.	.	.	.	.	.	.	.	.	.	.	.	.	.	.	16B\	.	.	.	.	.	.
16F#\	.	.	16F#\	.	16f#\	.	16a/ 16b	.	16ff#\	.	.	.	.	.	.	.	.	.	.	.	.	.	.	.	.	.	16F#\	.	.	.	.	.	.
!	!	!	!	!	!	!	!	!	!	!	!	!	!	!	!	!	!	!	!	!	!	!	!	!	!	!	!LO:TX:a:t=SIC:s=16D#	!	!	!	!	!	!
16D#\JJ	.	.	16D#\	.	16d#\	.	16a/JJ 16b	.	16ff#\JJ	.	.	.	.	.	.	.	.	.	.	.	.	.	.	.	.	.	16D\	.	.	.	.	.	.
*	*	*	*	*	*	*	*Xtremolo	*	*Xtremolo	*	*	*	*	*	*	*	*	*	*	*	*	*	*	*	*	*	*	*	*	*	*	*	*
16E\LL	8	.	16E\	.	16e\	.	16g#/LL 16b	.	16ee\LL	.	8E\	-tes	.	8B\	-tes	.	8g#\	-tes	.	8ee\	-tes	.	8e\	.	8e\	.	16E\	8g#\	.	8ee\	.	8eee\	.
16G#\JJ	.	.	16G#\JJ	.	16g#\JJ	.	16g#/JJ 16b	.	16ee\JJ	.	.	.	.	.	.	.	.	.	.	.	.	.	.	.	.	.	16G#\JJ	.	.	.	.	.	.
*	*	*	*	*	*	*	*tremolo	*	*tremolo	*	*	*	*	*	*	*	*	*	*	*	*	*	*	*	*	*	*	*	*	*	*	*	*
!	!	!	!LO:TX:a:t=problem: u góry cztery kropki (ilość nut?)	!	!	!	!	!	!LO:TX:a:t=problem: u góry cztery kropki (ilość nut?)	!	!	!	!	!	!	!	!	!	!	!	!	!	!	!	!	!	!	!	!	!	!	!	!
!LO:TX:a:t=problem: skrótowy zapis tremola	!	!	!	!	!	!	!	!	!	!	!	!	!	!	!	!	!	!	!	!	!	!	!	!	!	!	!	!	!	!	!	!	!
16A\LL	3	.	16A\LL	.	16a\LL	.	16e/LL 16cc#	.	16cc#\LL	.	4A\	Do-	.	4c#\	Do-	.	4e\	Do-	.	4cc#\	Do-	.	4.A/	.	4.A/	.	16A\LL	4.a\	.	4cc#\	.	4ccc#\	.
16A\	.	.	16A\	.	16a\	.	16e/ 16cc#	.	16cc#\	.	.	.	.	.	.	.	.	.	.	.	.	.	.	.	.	.	16A\	.	.	.	.	.	.
16A\	.	.	16A\	.	16a\	.	16e/ 16cc#	.	16cc#\	.	.	.	.	.	.	.	.	.	.	.	.	.	.	.	.	.	16A\	.	.	.	.	.	.
16A\JJ	.	.	16A\JJ	.	16a\JJ	.	16e/JJ 16cc#	.	16cc#\JJ	.	.	.	.	.	.	.	.	.	.	.	.	.	.	.	.	.	16A\JJ	.	.	.	.	.	.
*Xtremolo	*	*	*Xtremolo	*	*Xtremolo	*	*Xtremolo	*	*Xtremolo	*	*	*	*	*	*	*	*	*	*	*	*	*	*	*	*	*	*Xtremolo	*	*	*	*	*	*
16F#\LL	6|	.	16F#\LL	.	16f#\LL	.	16a/LL	.	16dd#X\LL	.	8F#\	-mi-	.	8A\	-mi-	.	8a\	-mi-	.	8dd#X\	-mi-	.	.	.	.	.	16F#\LL	.	.	8dd#X\	.	8ddd#X\	.
16F#\JJ	.	.	16F#\JJ	.	16f#\JJ	.	16a/JJ	.	16dd#\JJ	.	.	.	.	.	.	.	.	.	.	.	.	.	.	.	.	.	16F#\JJ	.	.	.	.	.	.
=17	=17	=17	=17	=17	=17	=17	=17	=17	=17	=17	=17	=17	=17	=17	=17	=17	=17	=17	=17	=17	=17	=17	=17	=17	=17	=17	=17	=17	=17	=17	=17	=17	=17
*tremolo	*	*	*tremolo	*	*tremolo	*	*tremolo	*	*tremolo	*	*	*	*	*	*	*	*	*	*	*	*	*	*	*	*	*	*	*	*	*	*	*2\right	*
!	!	!	!	!	!LO:LB:g=original	!	!LO:LB:g=original	!	!LO:TX:a:t=problem: u góry cztery kropki (ilość nut?)	!	!	!	!	!	!	!	!	!	!	!	!	!	!	!	!	!	!	!	!	!LO:TX:a:t=problem: nuta naniesiona jako korekta na wcześniejszy zapis	!	!	!
!	!	!	!LO:TX:a:t=problem: skrótowy zapis tremola	!	!	!	!LO:TX:a:t=problem: skrótowy zapis tremola	!	!	!	!	!	!	!	!	!	!	!	!	!	!	!	!	!	!	!	!	!	!	!LO:TX:a:t=problem: cała nuta z kropką, adnotacja "g"	!	!LO:LB:g=original	!
16E\LL	8	.	16E\LL	.	16e\LL	.	16g#/LL	.	16ee\LL	.	4E\	-nus	.	4B\	-nus	.	4g#\	-nus	.	4ee\	-nus	.	8e\L	.	8e\L	.	4.E\	4.g#\	.	[1.ee\	.	2.eee\	.
16E\	.	.	16E\	.	16e\	.	16g#/	.	16ee\	.	.	.	.	.	.	.	.	.	.	.	.	.	.	.	.	.	.	.	.	.	.	.	.
16E\	.	.	16E\	.	16e\	.	16g#/	.	16ee\	.	.	.	.	.	.	.	.	.	.	.	.	.	16e\L	.	16e\L	.	.	.	.	.	.	.	.
16E\	.	.	16E\	.	16e\	.	16g#/JJ	.	16ee\JJ	.	.	.	.	.	.	.	.	.	.	.	.	.	16e\	.	16e\	.	.	.	.	.	.	.	.
*	*	*	*	*	*	*	*Xtremolo	*	*Xtremolo	*	*	*	*	*	*	*	*	*	*	*	*	*	*	*	*	*	*	*	*	*	*	*	*
16E\	.	.	16E\	.	16e\	.	16b\LL	.	16gg#\LL	.	8r	.	.	8r	.	.	8r	.	.	8r	.	.	16e\	.	16e\	.	.	.	.	.	.	.	.
16E\JJ	.	.	16E\JJ	.	16e\JJ	.	16b\JJ	.	16gg#\JJ	.	.	.	.	.	.	.	.	.	.	.	.	.	16e\JJ	.	16e\JJ	.	.	.	.	.	.	.	.
*	*	*	*	*	*	*	*tremolo	*	*	*	*	*	*	*	*	*	*	*	*	*	*	*	*	*	*	*	*	*	*	*	*	*	*
16GG#/LL	6	.	16GG#/LL	.	16G#/LL	.	16e/LL 16b	.	16bb\LL	.	8G#\	et	.	8e\	et	.	8b\	et	.	8ee\	et	.	4e\	.	4e\	.	4.G#\	4.b\	.	.	.	.	.
16GG#/	.	.	16GG#/	.	16G#/	.	16e/ 16b	.	(32ee\L	.	.	.	.	.	.	.	.	.	.	.	.	.	.	.	.	.	.	.	.	.	.	.	.
.	.	.	.	.	.	.	.	.	32gg#\JJJ)	.	.	.	.	.	.	.	.	.	.	.	.	.	.	.	.	.	.	.	.	.	.	.	.
16GG#/	.	.	16GG#/	.	16G#/	.	16e/ 16b	.	16bb'\LL	.	8G#\	su-	.	8e\	su-	.	8b\	su-	.	8ee\	su-	.	.	.	.	.	.	.	.	.	.	.	.
16GG#/	.	.	16GG#/	.	16G#/	.	16e/ 16b	.	16bb'\	.	.	.	.	.	.	.	.	.	.	.	.	.	.	.	.	.	.	.	.	.	.	.	.
16GG#/	.	.	16GG#/	.	16G#/	.	16e/ 16b	.	16bb'\	.	8G#\	-per	.	8e\	-per	.	8b\	-per	.	8ee\	-per	.	8r	.	8r	.	.	.	.	.	.	.	.
16GG#/JJ	.	.	16GG#/JJ	.	16G#/JJ	.	16e/JJ 16b	.	16bb'\JJ	.	.	.	.	.	.	.	.	.	.	.	.	.	.	.	.	.	.	.	.	.	.	.	.
=18	=18	=18	=18	=18	=18	=18	=18	=18	=18	=18	=18	=18	=18	=18	=18	=18	=18	=18	=18	=18	=18	=18	=18	=18	=18	=18	=18	=18	=18	=18	=18	=18	=18
!	!	!	!	!	!	!	!	!	!	!	!LO:LB:g=original	!	!	!	!	!	!	!	!	!LO:LB:g=original	!	!	!	!	!	!	!	!	!	!	!	!	!
16AA/LL	5 3	.	16AA/LL	.	16A/LL	.	16e/LL 16cc#	.	16ccc#\LL	.	4A\	ce-	.	4c#\	ce-	.	4a\	Ce-	.	4ee\	coe-	.	2.e\	.	[2.e\	.	4.A\	4.cc#\	.	.	.	2.eee\	.
16AA/	.	.	16AA/	.	16A/	.	16e/ 16cc#	.	(32ee\L	.	.	.	.	.	.	.	.	.	.	.	.	.	.	.	.	.	.	.	.	.	.	.	.
.	.	.	.	.	.	.	.	.	32aa\JJJ	.	.	.	.	.	.	.	.	.	.	.	.	.	.	.	.	.	.	.	.	.	.	.	.
16AA/	.	.	16AA/	.	16A/	.	16e/ 16cc#	.	16ccc#\LL)	.	.	.	.	.	.	.	.	.	.	.	.	.	.	.	.	.	.	.	.	.	.	.	.
16AA/	.	.	16AA/	.	16A/	.	16e/ 16cc#	.	16ccc#\	.	.	.	.	.	.	.	.	.	.	.	.	.	.	.	.	.	.	.	.	.	.	.	.
16AA/	.	.	16AA/	.	16A/	.	16e/ 16cc#	.	16ccc#\	.	8A\	-los	.	8c#\	-los	.	8a\	-los	.	8ee\	-los	.	.	.	.	.	.	.	.	.	.	.	.
16AA/JJ	.	.	16AA/JJ	.	16A/JJ	.	16e/JJ 16cc#	.	16ccc#\JJ	.	.	.	.	.	.	.	.	.	.	.	.	.	.	.	.	.	.	.	.	.	.	.	.
!	!	!	!	!	!	!	!	!	!	!	!	!	!	!	!	!	!LO:LB:g=original	!	!	!	!	!	!	!	!	!	!	!	!	!	!	!	!
16AA#X/LL	7n 5	.	16AA#X/LL	.	16A#X/LL	.	16gn/LL 16cc#	.	16eee\LL	.	8.A#X\	glo-	.	8.c#\	glo-	.	8.gn\	glo-	.	8.ee\	glo-	.	.	.	.	.	4.A#X\	4.gX\	.	.	.	.	.
16AA#/	.	.	16AA#/	.	16A#/	.	16g/ 16cc#	.	(32ee\	.	.	.	.	.	.	.	.	.	.	.	.	.	.	.	.	.	.	.	.	.	.	.	.
.	.	.	.	.	.	.	.	.	32ggn\	.	.	.	.	.	.	.	.	.	.	.	.	.	.	.	.	.	.	.	.	.	.	.	.
16AA#/	.	.	16AA#/	.	16A#/	.	16g/ 16cc#	.	16eee\)	.	.	.	.	.	.	.	.	.	.	.	.	.	.	.	.	.	.	.	.	.	.	.	.
16AA#/	.	.	16AA#/	.	16A#/	.	16g/ 16cc#	.	16eee\	.	16A#\	-ri-	.	16c#\	-ri-	.	16g\	-ri-	.	16ee\	-ri-	.	.	.	.	.	.	.	.	.	.	.	.
16AA#/	.	.	16AA#/	.	16A#/	.	16g/ 16cc#	.	16eee\	.	8A#\	-a	.	8c#\	-a	.	8g\	-a	.	8ee\	-a	.	.	.	.	.	.	.	.	.	.	.	.
16AA#/JJ	.	.	16AA#/JJ	.	16A#/JJ	.	16g/JJ 16cc#	.	16eee\JJ	.	.	.	.	.	.	.	.	.	.	.	.	.	.	.	.	.	.	.	.	.	.	.	.
=19	=19	=19	=19	=19	=19	=19	=19	=19	=19	=19	=19	=19	=19	=19	=19	=19	=19	=19	=19	=19	=19	=19	=19	=19	=19	=19	=19	=19	=19	=19	=19	=19	=19
*	*	*	*	*	*	*	*	*	*	*	*	*	*	*	*	*	*	*	*	*	*	*	*	*	*	*	*2\right	*	*	*	*	*	*
!	!	!	!	!	!	!	!	!	!LO:PB:g=original	!	!	!	!	!LO:LB:g=original	!	!	!	!	!	!	!	!	!	!	!	!	!	!	!	!LO:N:vis=4	!	!	!
16BB/LL	6 4	.	16BB/LL	.	16B/LL	.	16g#X/LL 16b	.	16eee\LL	.	2.B\	e-	.	2.B\	e-	.	4.g#X\	e-	.	(4.ee\	ae-	.	4e\	.	4e\]	.	2.B\	4.g#X\	.	4.ee\	.	4.eee\	.
16BB/	.	.	16BB/	.	16B/	.	16g#/ 16b	.	(32ee\L	.	.	.	.	.	.	.	.	.	.	.	.	.	.	.	.	.	.	.	.	.	.	.	.
.	.	.	.	.	.	.	.	.	32gg#X\JJJ	.	.	.	.	.	.	.	.	.	.	.	.	.	.	.	.	.	.	.	.	.	.	.	.
!	!	!	!	!	!	!	!	!	!LO:TX:a:t=problem: niejasna interpretacja znaków artykulacyjnych (wydłużone kropki staccato?, spiccato?)	!	!	!	!	!	!	!	!	!	!	!	!	!	!	!	!	!	!	!	!	!	!	!	!
16BB/	.	.	16BB/	.	16B/	.	16g#/ 16b	.	16eee`\LL	.	.	.	.	.	.	.	.	.	.	.	.	.	.	.	.	.	.	.	.	.	.	.	.
16BB/	.	.	16BB/	.	16B/	.	16g#/ 16b	.	16eee`\	.	.	.	.	.	.	.	.	.	.	.	.	.	.	.	.	.	.	.	.	.	.	.	.
16BB/	.	.	16BB/	.	16B/	.	16g#/ 16b	.	16eee`\)	.	.	.	.	.	.	.	.	.	.	.	.	.	8r	.	8r	.	.	.	.	.	.	.	.
16BB/JJ	.	.	16BB/JJ	.	16B/JJ	.	16g#/JJ 16b	.	16eee`\JJ	.	.	.	.	.	.	.	.	.	.	.	.	.	.	.	.	.	.	.	.	.	.	.	.
!	!	!	!	!	!	!	!	!	!	!	!	!	!	!	!	!	!	!	!	!	!	!	!	!	!	!	!	!LO:N:vis=4	!	!LO:N:vis=4	!	!LO:N:vis=4	!
16B\LL	#	.	16B\LL	.	16b\LL	.	16a/LL 16b	.	16bb\LL	.	.	.	.	.	.	.	4.f#\	.	.	4.dd#X\)	.	.	4r	.	4r	.	.	4f#/	.	4.dd#X\	.	4.ddd#X\	.
16B\	.	.	16B\	.	16b\	.	16a/ 16b	.	(32b\L	.	.	.	.	.	.	.	.	.	.	.	.	.	.	.	.	.	.	.	.	.	.	.	.
.	.	.	.	.	.	.	.	.	32dd#X\JJJ	.	.	.	.	.	.	.	.	.	.	.	.	.	.	.	.	.	.	.	.	.	.	.	.
16B\	.	.	16B\	.	16b\	.	16a/ 16b	.	(16ff#'\LL)	.	.	.	.	.	.	.	.	.	.	.	.	.	.	.	.	.	.	.	.	.	.	.	.
16B\	.	.	16B\	.	16b\	.	16a/ 16b	.	16ff#'\	.	.	.	.	.	.	.	.	.	.	.	.	.	.	.	.	.	.	.	.	.	.	.	.
16B\	.	.	16B\	.	16b\	.	16a/ 16b	.	16ff#'\	.	.	.	.	.	.	.	.	.	.	.	.	.	8r	.	8r	.	.	8ryy	.	.	.	.	.
16B\JJ	.	.	16B\JJ	.	16b\JJ	.	16a/JJ 16b	.	16ff#'\JJ)	.	.	.	.	.	.	.	.	.	.	.	.	.	.	.	.	.	.	.	.	.	.	.	.
=20	=20	=20	=20	=20	=20	=20	=20	=20	=20	=20	=20	=20	=20	=20	=20	=20	=20	=20	=20	=20	=20	=20	=20	=20	=20	=20	=20	=20	=20	=20	=20	=20	=20
16E\LL	8	.	16E\LL	.	16e\LL	.	16g#/LL 16b	.	16gg#\LL	.	4E\	-ius	.	4B\	-ius	.	4g#\	-ius	.	4ee\	-jus	.	4.e\	.	4.e\	.	4.E\	4.g#\	.	4.ee\	.	4.eee\	.
16E\	.	.	16E\	.	16e\	.	16g#/ 16b	.	(32g#\L	.	.	.	.	.	.	.	.	.	.	.	.	.	.	.	.	.	.	.	.	.	.	.	.
.	.	.	.	.	.	.	.	.	32b\JJJ	.	.	.	.	.	.	.	.	.	.	.	.	.	.	.	.	.	.	.	.	.	.	.	.
16E\	.	.	16E\	.	16e\	.	16g#/ 16b	.	(16ee'\LL)	.	.	.	.	.	.	.	.	.	.	.	.	.	.	.	.	.	.	.	.	.	.	.	.
16E\	.	.	16E\	.	16e\	.	16g#/ 16b	.	16ee'\	.	.	.	.	.	.	.	.	.	.	.	.	.	.	.	.	.	.	.	.	.	.	.	.
16E\	.	.	16E\	.	16e\	.	16g#/ 16b	.	16ee'\	.	8r	.	.	8r	.	.	8r	.	.	8r	.	.	.	.	.	.	.	.	.	.	.	.	.
16E\JJ	.	.	16E\JJ	.	16e\JJ	.	16g#/JJ 16b	.	16ee'\JJ)	.	.	.	.	.	.	.	.	.	.	.	.	.	.	.	.	.	.	.	.	.	.	.	.
4E\	.	.	4E\	.	4e\	.	4g#/ 4b	.	4ee\	.	4r	.	.	4r	.	.	4r	.	.	4r	.	.	4e\	.	4e\	.	4E\	4g#\	.	4ee\	.	4eee\	.
!LO:TX:b:t=Uniſ	!	!	!	!	!LO:TX:b:t=Uniſ	!	!	!	!	!	!	!	!	!	!	!	!	!	!	!	!	!	!	!	!	!	!	!	!	!	!	!	!
8E\	.	.	8E\	.	8e\	.	8e/	.	8ee\	.	8E\	quis	.	8e\	qui	.	8e\	qui	.	8ee\	quis	.	8r	.	8r	.	8E\	8e\	.	8ee\	.	8eee\	.
*	*	*	*	*	*	*	*Xtremolo	*	*	*	*	*	*	*	*	*	*	*	*	*	*	*	*	*	*	*	*	*	*	*	*	*	*
=21	=21	=21	=21	=21	=21	=21	=21	=21	=21	=21	=21	=21	=21	=21	=21	=21	=21	=21	=21	=21	=21	=21	=21	=21	=21	=21	=21	=21	=21	=21	=21	=21	=21
!LO:LB:g=original	!	!	!	!	!	!	!	!	!	!	!	!	!	!	!	!	!	!	!	!	!	!	!LO:TX:a:t=1.	!	!LO:TX:a:t=1.	!	!LO:LB:g=original	!	!	!	!	!	!
4D#X\	.	.	4D#X\	.	4d#X\	.	4d#X/	.	4dd#X\	.	4D#X\	si-	.	4d#X\	si-	.	4d#X\	Si-	.	4dd#X\	si-	.	2.r	.	2.r	.	4D#X\	4d#X\	.	4dd#X\	.	4ddd#X\	.
8E\	.	.	8E\	.	8e\	.	8e/	.	8ee\	.	8E\	-cut	.	8e\	-cut	.	8e\	-cut	.	8ee\	-cut	.	.	.	.	.	8E\	8e\	.	8ee\	.	8eee\	.
4F#\	.	.	4F#\	.	4f#\	.	4f#/	.	4ff#\	.	8.F#\	Do-	.	8.f#\	Do-	.	8.f#\	Do-	.	8.ff#\	do-	.	.	.	.	.	4F#\	4f#\	.	4ff#\	.	4fff#\	.
.	.	.	.	.	.	.	.	.	.	.	16F#\	-mi-	.	16f#\	-mi-	.	16f#\	-mi-	.	16ff#\	-mi-	.	.	.	.	.	.	.	.	.	.	.	.
8E\	.	.	8E\	.	8e\	.	8e/	.	8ee\	.	8E\	-nus	.	8e\	-nus	.	8e\	-nus	.	8ee\	-nus	.	.	.	.	.	8E\	8e\	.	8ee\	.	8eee\	.
=22	=22	=22	=22	=22	=22	=22	=22	=22	=22	=22	=22	=22	=22	=22	=22	=22	=22	=22	=22	=22	=22	=22	=22	=22	=22	=22	=22	=22	=22	=22	=22	=22	=22
!	!	!	!LO:LB:g=original	!	!LO:TX:a:t=problem: laska z lewej strony	!	!	!	!	!	!LO:LB:g=original	!	!	!	!	!	!LO:LB:g=original	!	!	!LO:LB:g=original	!	!	!	!	!	!	!	!LO:LB:g=original	!	!	!	!	!
4C#/	.	.	4C#/	.	4c#\	.	4c#/	.	4cc#\	.	4C#/	De-	.	4c#\	De-	.	4c#\	De-	.	4cc#\	De-	.	4r	.	4r	.	4C#\	4c#/	.	4cc#\	.	4ccc#\	.
!	!	!	!	!	!	!	!	!	!	!	!	!	!	!	!	!	!	!	!	!	!	!	!	!	!	!	!	!LO:TX:a:t=SIC:s=8f#	!	!	!	!	!
8D#X/	.	.	8D#X\	.	8d#X\	.	8d#X/	.	8dd#X\	.	8D#X/	-us	.	8d#X\	-us	.	8d#X\	-us	.	8dd#X\	-us	.	8r	.	8r	.	8D#X\	8d/	.	8dd#X\	.	8ddd#X\	.
8E\L	8_	.	8E\L	.	8e\L	.	16e/LL	.	16ee\LL	.	8E\	no-	.	8e\	no-	.	8e\	nos-	.	8ee\	nos-	.	4r	.	4r	.	4E\	4e/	.	4ee\	.	4.eee\	.
.	.	.	.	.	.	.	16B/ 16g#	.	(32g#\L	.	.	.	.	.	.	.	.	.	.	.	.	.	.	.	.	.	.	.	.	.	.	.	.
.	.	.	.	.	.	.	.	.	32b\JJJ	.	.	.	.	.	.	.	.	.	.	.	.	.	.	.	.	.	.	.	.	.	.	.	.
8E\	.	.	8E\	.	8e\	.	16B/ 16g#	.	(16ee'\LL)	.	8E\	-ster	.	8e\	-ster	.	8e\	-ter	.	8ee\	-ter	.	.	.	.	.	.	.	.	.	.	.	.
.	.	.	.	.	.	.	16B/ 16g#	.	16ee'\	.	.	.	.	.	.	.	.	.	.	.	.	.	.	.	.	.	.	.	.	.	.	.	.
8E\J	.	.	8E\J	.	8e\J	.	16B/ 16g#	.	16ee'\	.	16E\	qui	.	16B\	qui	.	16g#\	qui	.	16ee\	qui	.	[8e\	.	8e\	.	8G#\ 8B	8g#\	.	8ee\	.	.	.
.	.	.	.	.	.	.	16B/JJ 16g#	.	16ee'\JJ)	.	16E\	in	.	16B\	in	.	16g#\	in	.	16ee\	in	.	.	.	.	.	.	.	.	.	.	.	.
=23	=23	=23	=23	=23	=23	=23	=23	=23	=23	=23	=23	=23	=23	=23	=23	=23	=23	=23	=23	=23	=23	=23	=23	=23	=23	=23	=23	=23	=23	=23	=23	=23	=23
*	*	*	*	*	*	*	*tremolo	*	*	*	*	*	*	*	*	*	*	*	*	*	*	*	*	*	*	*	*	*2\right	*	*2\right	*	*	*
!	!	!	!	!	!	!	!LO:L B:g=original	!	!LO:LB:g=original	!	!	!	!	!LO:LB:g=original	!	!	!	!	!	!	!	!	!	!	!	!	!	!LO:TX:a:t=problem: półnuty zawsze mają laski z prawej strony	!	!	!	!	!
8E\L	.	.	8E\L	.	8e\L	>	16B/LL 16g#	.	16ee\LL	.	8.E\	al-	.	8.B\	al-	.	8.g#\	al-	.	8.ee\	al-	.	2.e\]	.	2.e\	.	2.G#\ 2.B	2.g#\	.	2.ee\	.	2.eee\	.
.	.	.	.	.	.	.	16B/ 16g#	.	(32b\L	.	.	.	.	.	.	.	.	.	.	.	.	.	.	.	.	.	.	.	.	.	.	.	.
.	.	.	.	.	.	.	.	.	32ee\JJJ	.	.	.	.	.	.	.	.	.	.	.	.	.	.	.	.	.	.	.	.	.	.	.	.
8E\	.	.	8E\	.	8e\	.	16B/ 16g#	.	16gg#\LL	.	.	.	.	.	.	.	.	.	.	.	.	.	.	.	.	.	.	.	.	.	.	.	.
.	.	.	.	.	.	.	16B/ 16g#	.	16gg#\	.	16E\	-tis	.	16B\	-tis	.	16g#\	-tis	.	16ee\	-tis	.	.	.	.	.	.	.	.	.	.	.	.
8E\J	.	.	8E\J	.	8e\J	.	16B/ 16g#	.	16gg#\	.	16E\	ha-	.	16B\	ha-	.	16g#\	ha-	.	16ee\	ha-	.	.	.	.	.	.	.	.	.	.	.	.
.	.	.	.	.	.	.	16B/JJ 16g#	.	16gg#\JJ)	.	16E\	-bi-	.	16B\	.	.	16g#\	-bi-	.	16ee\	-bi-	.	.	.	.	.	.	.	.	.	.	.	.
8E\L	.	.	8E\L	.	8e\L	.	16B/LL 16g#	.	16gg#\LL	.	4E\	-tat	.	4B\	-bi-	.	4g#\	-tat	.	4ee\	-tat	.	.	.	.	.	.	.	.	.	.	.	.
.	.	.	.	.	.	.	16B/ 16g#	.	(32ee\L	.	.	.	.	.	.	.	.	.	.	.	.	.	.	.	.	.	.	.	.	.	.	.	.
.	.	.	.	.	.	.	.	.	32gg#\JJJ	.	.	.	.	.	.	.	.	.	.	.	.	.	.	.	.	.	.	.	.	.	.	.	.
8E\	.	.	8E\	.	8e\	.	16B/ 16g#	.	16bb\LL	.	.	.	.	.	.	.	.	.	.	.	.	.	.	.	.	.	.	.	.	.	.	.	.
.	.	.	.	.	.	.	16B/ 16g#	.	16bb\	.	.	.	.	.	.	.	.	.	.	.	.	.	.	.	.	.	.	.	.	.	.	.	.
8E\J	.	.	8E\J	.	8e\J	]]	16B/ 16g#	.	16bb\	.	16E\	et	.	16B\	-tat	.	16g#\	et	.	16ee\	et	.	.	.	.	.	.	.	.	.	.	.	.
.	.	.	.	.	.	.	16B/JJ 16g#	.	16bb\JJ)	.	16E\	hu-	.	16B\	hu-	.	16g#\	hu-	.	16ee\	hu-	.	.	.	.	.	.	.	.	.	.	.	.
=24	=24	=24	=24	=24	=24	=24	=24	=24	=24	=24	=24	=24	=24	=24	=24	=24	=24	=24	=24	=24	=24	=24	=24	=24	=24	=24	=24	=24	=24	=24	=24	=24	=24
!	!	!	!	!	!	!	!	!	!	!	!LO:LB:g=original	!	!	!	!	!	!LO:LB:g=original	!	!	!	!	!	!LO:LB:g=original	!	!LO:LB:g=original	!	!	!	!	!	!	!	!
8E\L	.	.	8E\L	.	8e\L	.	16B/LL 16g#	.	16bb\LL	.	8.E\	-mi-	.	8.B\	-mi-	.	8.g#\	-mi-	.	8.ee\	-mi-	.	4.e\	.	4.e\	.	4.G#\ 4.B	4.g#\	.	4.ee\	.	(4.eee\	.
.	.	.	.	.	.	.	16B/ 16g#	.	32gg#\L	.	.	.	.	.	.	.	.	.	.	.	.	.	.	.	.	.	.	.	.	.	.	.	.
.	.	.	.	.	.	.	.	.	32bb\JJJ	.	.	.	.	.	.	.	.	.	.	.	.	.	.	.	.	.	.	.	.	.	.	.	.
8E\	.	.	8E\	.	8e\	.	16B/ 16g#	.	16eee\LL	.	.	.	.	.	.	.	.	.	.	.	.	.	.	.	.	.	.	.	.	.	.	.	.
.	.	.	.	.	.	.	16B/ 16g#	.	16eee\	.	16E\	-li-	.	16B\	-li-	.	16g#\	-li-	.	16ee\	-li-	.	.	.	.	.	.	.	.	.	.	.	.
8E\J	.	.	8E\J	.	8e\J	.	16B/ 16g#	.	16eee\	.	8E\	-a	.	8B\	-o	.	8g#\	-a	.	8ee\	-a	.	.	.	.	.	.	.	.	.	.	.	.
.	.	.	.	.	.	.	16B/JJ 16g#	.	16eee\JJ	.	.	.	.	.	.	.	.	.	.	.	.	.	.	.	.	.	.	.	.	.	.	.	.
4E\	.	.	4E\	.	4e\	.	4B/ 4g#	.	4eee\	.	8.E\	re-	.	8.B\	re-	.	8.g#\	res-	.	8.ee\	res-	.	4e\	.	4e\	.	4G#\ 4B	4g#\	.	4ee\	.	4eee\	.
.	.	.	.	.	.	.	.	.	.	.	16E\	-spi-	.	16B\	-spi-	.	16g#\	-pi-	.	16ee\	-pi-	.	.	.	.	.	.	.	.	.	.	.	.
!LO:TX:b:t=Uniſ	!	!	!	!	!LO:TX:a:t=problem: laska z lewej strony	!	!	!	!	!	!	!	!	!	!	!	!	!	!	!	!	!	!	!	!	!	!	!	!	!	!	!	!
8E\	.	.	8E\	.	8e\	.	8ee\	.	8eee\	.	16E\	-cit	.	16B\	-cit	.	16g#\	-cit	.	16ee\	-cit	.	8r	.	8r	.	8E\ 8e	8e\	.	8ee\	.	8eee\)	.
.	x	.	.	.	.	.	.	.	.	.	16E\	in	.	16e\	in	.	16e\	in	.	16ee\	in	.	.	.	.	.	.	.	.	.	.	.	.
*	*	*	*Xtremolo	*	*Xtremolo	*	*	*	*	*	*	*	*	*	*	*	*	*	*	*	*	*	*	*	*	*	*	*	*	*	*	*	*
=25	=25	=25	=25	=25	=25	=25	=25	=25	=25	=25	=25	=25	=25	=25	=25	=25	=25	=25	=25	=25	=25	=25	=25	=25	=25	=25	=25	=25	=25	=25	=25	=25	=25
*	*	*	*	*	*	*	*	*	*	*	*	*	*	*	*	*	*	*	*	*	*	*	*	*	*	*	*^	*	*	*	*	*	*
!	!	!	!	!	!LO:LB:g=original	!	!	!	!	!	!	!	!	!LO:LB:g=original	!	!	!	!	!	!LO:LB:g=original	!	!	!LO:TX:a:t=5.	!	!LO:TX:a:t=5.	!	!	!	!	!	!	!	!	!
!	!	!	!	!	!	!	!	!	!	!	!	!	!	!	!	!	!	!	!	!	!	!	!LO:N:vis=00	!	!LO:N:vis=00	!	!	!	!	!	!	!	!	!
4D#X\	.	.	4D#X\	.	4d#X\	.	4dd#X\	.	4ddd#X\	.	4D#X\	ce-	.	4d#X\	ce-	.	4d#X\	ce-	.	4dd#X\	coe-	.	0.r	.	0.r	.	4D#X\ 4d#X	4.ryy	4d#X/	.	4dd#X\	.	(4ddd#X\	.
8E\	.	.	8E\	.	8e\	.	8ee\	.	8eee\	.	8E\	-lo	.	8e\	-lo	.	8e\	-lo	.	8ee\	-lo	.	.	.	.	.	8E\ 8e	.	8e/	.	8ee\	.	8eee\	.
!	!	!	!	!	!LO:TX:a:t=problem: do końca taktu laski z lewej strony	!	!	!	!	!	!	!	!	!	!	!	!	!	!	!	!	!	!	!	!	!	!	!	!	!	!	!	!	!
4c#\	.	.	4c#\	.	4cc#\	.	4cc#\	.	4ccc#\	.	4c#\	et	.	4c#\	et	.	4cc#\	et	.	4cc#\	et	.	.	.	.	.	4c#/	4c#\	(4c#/	.	4cc#\	.	(4ccc#\)	.
!	!	!	!	!	!	!	!	!	!	!	!	!	!	!	!	!	!	!	!	!	!	!	!	!	!	!	!	!	!	!	!	!	!LO:N:vis=8	!
16B\LL	.	.	16B\LL	.	16b\LL	.	16b\LL	.	16bb\LL	.	16B\LL	in	.	16B\LL	in	.	(16b\LL	in	.	16b\LL	in	.	.	.	.	.	16B\LL	8ryy	16B/LL	.	(16b\LL	.	16bb\LL	.
!	!	!	!	!	!	!	!	!	!	!	!	!	!	!	!	!	!	!	!	!	!	!	!	!	!	!	!	!	!	!	!	!	!LO:N:vis=8	!
16A\JJ	.	.	16A\JJ	.	16a\JJ	.	16a\JJ	.	16aa\JJ	.	16A\JJ	.	.	16A\JJ	.	.	16a\JJ)	.	.	16a\JJ	.	.	.	.	.	.	16A\JJ	.	16A/JJ)	.	16a\JJ)	.	16aa\JJ)	.
*	*	*	*	*	*	*	*	*	*	*	*	*	*	*	*	*	*	*	*	*	*	*	*	*	*	*	*v	*v	*	*	*	*	*	*
=26	=26	=26	=26	=26	=26	=26	=26	=26	=26	=26	=26	=26	=26	=26	=26	=26	=26	=26	=26	=26	=26	=26	=26	=26	=26	=26	=26	=26	=26	=26	=26	=26	=26
!	!	!	!	!	!	!	!	!	!	!	!LO:LB:g=original	!	!	!	!	!	!	!	!	!	!	!	!	!	!	!	!	!LO:TX:a:t=problem: niejasny zapis wysokości	!	!LO:LB:g=original	!	!	!
4G#\	.	.	(4G#\	.	4g#\	.	4g#\	fp	4gg#\	.	(4G#\	ter-	.	4G#/	ter-	.	4g#\	ter-	.	(4g#\	ter-	.	.	.	.	.	4G#\	4G#/	.	4g#\	.	4gg#\	.
16A#X\LL	.	.	16A#X\LL	.	16a#X\LL	.	8a#X\	.	8aa#X\	.	16A#X\LL	.	.	(16A#X/LL	.	.	16a#X\LL	.	.	16a#X\LL	.	.	.	.	.	.	16A#X\LL	8A#X/	.	8a#X\	.	(16aa#X\LL	.
16B\JJ	.	.	16B\JJ	.	16b\JJ	.	.	.	.	.	16B\JJ)	.	.	16B/JJ)	.	.	16b\JJ	.	.	16b\JJ)	.	.	.	.	.	.	16B\JJ	.	.	.	.	16bb\JJ)	.
4B\	.	.	4B\)	.	4b\	.	4b\	.	16bb\LL	.	4B\	-ra	.	4B/	-ra	.	4b\	-ra	.	4b\	-ra.	.	.	.	.	.	4B\	4B/	.	4b\	.	4bb\	.
.	.	.	.	.	.	.	.	.	(32b\L	.	.	.	.	.	.	.	.	.	.	.	.	.	.	.	.	.	.	.	.	.	.	.	.
.	.	.	.	.	.	.	.	.	32dd#X\JJJ	.	.	.	.	.	.	.	.	.	.	.	.	.	.	.	.	.	.	.	.	.	.	.	.
.	.	.	.	.	.	.	.	.	16bb\LL	.	.	.	.	.	.	.	.	.	.	.	.	.	.	.	.	.	.	.	.	.	.	.	.
.	.	.	.	.	.	.	.	.	16bb\	.	.	.	.	.	.	.	.	.	.	.	.	.	.	.	.	.	.	.	.	.	.	.	.
8D#X\	-	fp	8D#X\	.	8d#X\	fp	8f#/	.	16bb\	.	8r	.	.	8r	.	.	8r	.	.	8r	.	.	.	.	.	.	8r	8r	.	8r	.	8r	.
.	.	.	.	.	.	.	.	.	16bb\JJ)	.	.	.	.	.	.	.	.	.	.	.	.	.	.	.	.	.	.	.	.	.	.	.	.
=27	=27	=27	=27	=27	=27	=27	=27	=27	=27	=27	=27	=27	=27	=27	=27	=27	=27	=27	=27	=27	=27	=27	=27	=27	=27	=27	=27	=27	=27	=27	=27	=27	=27
!LO:LB:g=original	!	!	!	!	!LO:TX:a:t=problem: do końca partii laski z lewej strony	!	!	!	!LO:LB:g=original	!	!	!	!	!	!	!	!LO:LB:g=original	!	!	!	!	!	!	!	!	!	!LO:TX:a:t=2.	!LO:TX:a:t=2.	!	!LO:TX:a:t=2.	!	!LO:TX:a:t=2.	!
!	!	!	!	!	!	!	!	!	!	!	!	!	!	!	!	!	!	!	!	!	!	!	!	!	!	!	!LO:N:vis=0	!LO:N:vis=0	!	!LO:N:vis=0	!	!LO:N:vis=0	!
4E\	5 3	.	4E\	.	4e\	.	4g#/	.	16bb\LL	.	4r	.	.	4r	.	.	4r	.	.	4r	.	.	.	.	.	.	1.r	1.r	.	1.r	.	1.r	.
.	.	.	.	.	.	.	.	.	32ee\L	.	.	.	.	.	.	.	.	.	.	.	.	.	.	.	.	.	.	.	.	.	.	.	.
.	.	.	.	.	.	.	.	.	32gg#\JJJ	.	.	.	.	.	.	.	.	.	.	.	.	.	.	.	.	.	.	.	.	.	.	.	.
.	.	.	.	.	.	.	.	.	16bb\LL	.	.	.	.	.	.	.	.	.	.	.	.	.	.	.	.	.	.	.	.	.	.	.	.
.	.	.	.	.	.	.	.	.	16bb\	.	.	.	.	.	.	.	.	.	.	.	.	.	.	.	.	.	.	.	.	.	.	.	.
8Dn\	6	.	8Dn\	.	8dn\	.	8f#/	.	16bb\	.	8r	.	.	8r	.	.	8r	.	.	8r	.	.	.	.	.	.	.	.	.	.	.	.	.
.	.	.	.	.	.	.	.	.	16bb\JJ	.	.	.	.	.	.	.	.	.	.	.	.	.	.	.	.	.	.	.	.	.	.	.	.
!	!	!	!	!	!	!	!	!	!	!	!	!	!LO:DY:a	!	!	!LO:DY:b	!	!	!LO:DY:a	!LO:TX:a:t=problem: niejasny (przekreślone gamma)	!	!	!	!	!	!	!	!	!	!	!	!	!
!	!	!	!	!	!	!	!	!	!	!	!	!	!LO:DY:p.	!	!	!LO:DY:fr.	!	!	!LO:DY:t=p.	!	!	!	!	!	!	!	!	!	!	!	!	!	!
4.C#/	#	.	4.C#/	.	16c#\KL	.	16e#X/LL	.	16bb\LL	.	8.C#/	Sus-	p	8.e#X\	sus-	f	8.g#\	Sus-	p	8.b\	Sus-	.	.	.	.	.	.	.	.	.	.	.	.
.	.	.	.	.	8c#\	.	16e#/	.	32ee#X\L	.	.	.	.	.	.	.	.	.	.	.	.	.	.	.	.	.	.	.	.	.	.	.	.
.	.	.	.	.	.	.	.	.	32gg#\JJJ	.	.	.	.	.	.	.	.	.	.	.	.	.	.	.	.	.	.	.	.	.	.	.	.
.	.	.	.	.	.	.	16e#/	.	16bb\LL	.	.	.	.	.	.	.	.	.	.	.	.	.	.	.	.	.	.	.	.	.	.	.	.
.	.	.	.	.	8c#\	.	16e#/	.	16bb\	.	16C#/	-ci-	.	16e#\	-ci-	.	16g#\	-ci-	.	16b\	-ci-	.	.	.	.	.	.	.	.	.	.	.	.
.	.	.	.	.	.	.	16e#/	.	16bb\	.	16C#/	-tans	.	16e#\	-tans	.	16g#\	-tans	.	16b\	-tans	.	.	.	.	.	.	.	.	.	.	.	.
.	.	.	.	.	16c#\Jk	.	16e#/JJ	.	16bb\JJ	.	16C#/	a	.	16e#\	at	.	16g#\	a	.	16b\	a	.	.	.	.	.	.	.	.	.	.	.	.
*Xtremolo	*	*	*	*	*	*	*	*	*	*	*	*	*	*	*	*	*	*	*	*	*	*	*	*	*	*	*	*	*	*	*	*	*
=28	=28	=28	=28	=28	=28	=28	=28	=28	=28	=28	=28	=28	=28	=28	=28	=28	=28	=28	=28	=28	=28	=28	=28	=28	=28	=28	=28	=28	=28	=28	=28	=28	=28
!	!	!	!	!	!	!	!	!	!	!	!	!	!	!LO:LB:g=original	!	!	!	!	!	!LO:LB:g=original	!	!	!	!	!	!	!	!	!	!	!	!	!
8F#\L	3	.	8F#\L	.	16c#\KL	.	16f#/LL	.	16aa\LL	.	4F#\	ter-	.	4f#\	ter-	.	4f#\	ter-	.	4a\	ter-	.	.	.	.	.	.	.	.	.	.	.	.
.	.	.	.	.	8c#\	.	16f#/	.	(32cc#\L	.	.	.	.	.	.	.	.	.	.	.	.	.	.	.	.	.	.	.	.	.	.	.	.
.	.	.	.	.	.	.	.	.	32ff#\JJJ	.	.	.	.	.	.	.	.	.	.	.	.	.	.	.	.	.	.	.	.	.	.	.	.
8A\	.	.	8A\	.	.	.	16f#/	.	16aa'\LL)	.	.	.	.	.	.	.	.	.	.	.	.	.	.	.	.	.	.	.	.	.	.	.	.
.	.	.	.	.	8c#\	.	16f#/	.	16aa'\	.	.	.	.	.	.	.	.	.	.	.	.	.	.	.	.	.	.	.	.	.	.	.	.
8F#\J	.	.	8F#\J	.	.	.	16f#/	.	16aa'\	.	8F#\	-ra	.	8c#\	-ra	.	8f#\	-ra	.	8a\	-ra	.	.	.	.	.	.	.	.	.	.	.	.
.	.	.	.	.	16c#\Jk	.	16f#/JJ	.	16aa'\JJ	.	.	.	.	.	.	.	.	.	.	.	.	.	.	.	.	.	.	.	.	.	.	.	.
*	*	*	*	*	*rep	*	*	*	*	*	*	*	*	*	*	*	*	*	*	*	*	*	*	*	*	*	*	*	*	*	*	*	*
8E#X\L	8 5	.	8E#X\L	.	16c#\KL	.	16g#/LL	.	16bb\LL	.	4E#X\	in-	.	4c#\	in-	.	4g#\	i-	.	4b\	in-	.	.	.	.	.	.	.	.	.	.	.	.
.	.	.	.	.	8c#\	.	16g#/	.	(32cc#\L	.	.	.	.	.	.	.	.	.	.	.	.	.	.	.	.	.	.	.	.	.	.	.	.
.	.	.	.	.	.	.	.	.	32gg#\JJJ)	.	.	.	.	.	.	.	.	.	.	.	.	.	.	.	.	.	.	.	.	.	.	.	.
8C#\	.	.	8C#\	.	.	.	16g#/	.	16bb'\LL	.	.	.	.	.	.	.	.	.	.	.	.	.	.	.	.	.	.	.	.	.	.	.	.
.	.	.	.	.	8c#\	.	16g#/	.	16bb'\	.	.	.	.	.	.	.	.	.	.	.	.	.	.	.	.	.	.	.	.	.	.	.	.
8E#\J	.	.	8E#\J	.	.	.	16g#/	.	16bb'\	.	8E#\	-o-	.	8c#\	-o-	.	8g#\	-no-	.	8b\	-o-	.	.	.	.	.	.	.	.	.	.	.	.
.	.	.	.	.	16c#\Jk	.	16g#/JJ	.	16bb'\JJ	.	.	.	.	.	.	.	.	.	.	.	.	.	.	.	.	.	.	.	.	.	.	.	.
*	*	*	*	*	*Xrep	*	*	*	*	*	*	*	*	*	*	*	*	*	*	*	*	*	*	*	*	*	*	*	*	*	*	*	*
=29	=29	=29	=29	=29	=29	=29	=29	=29	=29	=29	=29	=29	=29	=29	=29	=29	=29	=29	=29	=29	=29	=29	=29	=29	=29	=29	=29	=29	=29	=29	=29	=29	=29
!	!	!	!LO:LB:g=original	!	!	!	!	!	!	!	!LO:LB:g=original	!	!	!	!	!	!	!	!	!	!	!	!	!	!	!	!	!	!	!	!	!	!
8F#\L	3	.	8F#\L	.	16c#\KL	.	16a/LL	.	16aa\LL	.	4F#\	-pem	.	4c#\	-pem	.	4g#\	-pem	.	4a\	-pem	.	2.r	.	2.r	.	4r	4r	.	4r	.	4r	.
.	.	.	.	.	8c#\	.	16a/	.	(32cc#\L	.	.	.	.	.	.	.	.	.	.	.	.	.	.	.	.	.	.	.	.	.	.	.	.
.	.	.	.	.	.	.	.	.	32ff#\JJJ)	.	.	.	.	.	.	.	.	.	.	.	.	.	.	.	.	.	.	.	.	.	.	.	.
8A\	.	.	8A\	.	.	.	16a/	.	16aa'\LL	.	.	.	.	.	.	.	.	.	.	.	.	.	.	.	.	.	.	.	.	.	.	.	.
.	.	.	.	.	8c#\	.	16a/	.	16ccc#'\	.	.	.	.	.	.	.	.	.	.	.	.	.	.	.	.	.	.	.	.	.	.	.	.
8F#\J	.	.	8F#\J	.	.	.	16a/	.	16ccc#'\	.	8r	.	.	8r	.	.	8r	.	.	8r	.	.	.	.	.	.	8r	8r	.	8r	.	8r	.
.	.	.	.	.	16c#\Jk	.	16a/JJ	.	16ccc#'\JJ	.	.	.	.	.	.	.	.	.	.	.	.	.	.	.	.	.	.	.	.	.	.	.	.
4.C#/	7 #	.	4.C#/	.	4.c#\	.	16b/LL	.	16ccc#\KL	.	8r	.	.	8r	.	.	8r	.	.	8r	.	.	.	.	.	.	8r	8r	.	8r	.	8r	.
.	.	.	.	.	.	.	32e#X/L	.	8ccc#\	.	.	.	.	.	.	.	.	.	.	.	.	.	.	.	.	.	.	.	.	.	.	.	.
.	.	.	.	.	.	.	32g#/J	.	.	.	.	.	.	.	.	.	.	.	.	.	.	.	.	.	.	.	.	.	.	.	.	.	.
.	.	.	.	.	.	.	16b/	.	.	.	8C#/	et	.	8e#X\	et	.	8g#\	et	.	8b\	et	.	.	.	.	.	8C#/L	8e#X/L	.	8g#\L	.	8bb\L	.
.	.	.	.	.	.	.	16b/	.	8ccc#\	.	.	.	.	.	.	.	.	.	.	.	.	.	.	.	.	.	.	.	.	.	.	.	.
.	.	.	.	.	.	.	16b/	.	.	.	8C#/	de	.	8e#\	de	.	8g#\	de	.	8b\	de	.	.	.	.	.	8C#/J	8e#/J	.	8g#\J	.	8bb\J	.
.	.	.	.	.	.	.	16b/JJ	.	16ccc#\Jk	.	.	.	.	.	.	.	.	.	.	.	.	.	.	.	.	.	.	.	.	.	.	.	.
*	*	*	*	*	*	*	*Xtremolo	*	*	*	*	*	*	*	*	*	*	*	*	*	*	*	*	*	*	*	*	*	*	*	*	*	*
=30	=30	=30	=30	=30	=30	=30	=30	=30	=30	=30	=30	=30	=30	=30	=30	=30	=30	=30	=30	=30	=30	=30	=30	=30	=30	=30	=30	=30	=30	=30	=30	=30	=30
!	!	!	!	!	!	!	!LO:LB:g=original	!	!LO:LB:g=original	!	!	!	!	!	!	!	!LO:LB:g=original	!	!	!	!	!	!	!	!	!	!	!	!	!	!	!LO:LB:g=original	!
8F#\L	3	.	8F#\L	.	8F#/L	.	16a/LL	.	16ccc#\KL	.	8.F#\	ster-	.	8.f#\	ster-	.	8.f#\	ster-	.	8.a\	ster-	.	4F#/	.	4f#\	.	4.F#\	4.f#\	.	4.a\	.	4.aa\	.
.	.	.	.	.	.	.	(32c#/L	.	8ccc#\	.	.	.	.	.	.	.	.	.	.	.	.	.	.	.	.	.	.	.	.	.	.	.	.
.	.	.	.	.	.	.	32f#/JJJ)	.	.	.	.	.	.	.	.	.	.	.	.	.	.	.	.	.	.	.	.	.	.	.	.	.	.
8A\	.	.	8A\	.	8A/	.	16a'\LL	.	.	.	.	.	.	.	.	.	.	.	.	.	.	.	.	.	.	.	.	.	.	.	.	.	.
.	.	.	.	.	.	.	16a'\	.	8ccc#\	.	16F#\	-co-	.	16A/	-co-	.	16f#\	-co-	.	16cc#\	-co-	.	.	.	.	.	.	.	.	.	.	.	.
8F#\J	.	.	8F#\J	.	8F#/J	.	16a'\	.	.	.	8F#\	-re	.	8A/	-re	.	8f#\	-re	.	8cc#\	-re	.	8r	.	8r	.	.	.	.	.	.	.	.
.	.	.	.	.	.	.	16a'\JJ	.	16ccc#\Jk	.	.	.	.	.	.	.	.	.	.	.	.	.	.	.	.	.	.	.	.	.	.	.	.
8E#X\L	6 5	.	8E#X\L	.	8E#X/L	.	16b\LL	.	16ccc#\KL	.	8.E#X\	e-	.	8.B/	e-	.	8.g#\	e-	.	8.cc#\	e-	.	4r	.	4r	.	4.E#X\	4.g#\	.	4.b\	.	4.gg#\	.
.	.	.	.	.	.	.	32c#\L	.	8ccc#\	.	.	.	.	.	.	.	.	.	.	.	.	.	.	.	.	.	.	.	.	.	.	.	.
.	.	.	.	.	.	.	32g#\JJJ	.	.	.	.	.	.	.	.	.	.	.	.	.	.	.	.	.	.	.	.	.	.	.	.	.	.
8C#\	.	.	8C#\	.	8C#/	.	16b\LL	.	.	.	.	.	.	.	.	.	.	.	.	.	.	.	.	.	.	.	.	.	.	.	.	.	.
.	.	.	.	.	.	.	16b\	.	8ccc#\	.	16E#\	-ri-	.	16B/	-ri-	.	16g#\	-ri-	.	16cc#\	-ri-	.	.	.	.	.	.	.	.	.	.	.	.
8E#\J	.	.	8E#\J	.	8E#/J	.	16b\	.	.	.	8E#\	-gens	.	8B/	-gens	.	8g#\	-gens	.	8cc#\	-gens	.	8r	.	8r	.	.	.	.	.	.	.	.
.	.	.	.	.	.	.	16b\JJ	.	16ccc#\Jk	.	.	.	.	.	.	.	.	.	.	.	.	.	.	.	.	.	.	.	.	.	.	.	.
=31	=31	=31	=31	=31	=31	=31	=31	=31	=31	=31	=31	=31	=31	=31	=31	=31	=31	=31	=31	=31	=31	=31	=31	=31	=31	=31	=31	=31	=31	=31	=31	=31	=31
!	!	!	!	!	!LO:LB:g=original	!	!	!	!	!	!	!	!	!LO:LB:g=original	!	!	!	!	!	!LO:LB:g=original	!	!	!	!	!	!	!	!	!	!	!	!	!
8F#\L	3	.	8F#\L	.	8F#/L	.	16a/LL	.	16ccc#\KL	.	8.F#\	pau-	.	8.A/	pau-	.	8.a\	pau-	.	8.cc#\	pau-	.	4F#/	.	4f#\	.	4F#\	4f#\	.	4a\	.	4ff#\	.
.	.	.	.	.	.	.	32c#/L	.	8ccc#\	.	.	.	.	.	.	.	.	.	.	.	.	.	.	.	.	.	.	.	.	.	.	.	.
.	.	.	.	.	.	.	32f#/JJJ	.	.	.	.	.	.	.	.	.	.	.	.	.	.	.	.	.	.	.	.	.	.	.	.	.	.
8A\	.	.	8A\	.	8A/	.	16a/LL	.	.	.	.	.	.	.	.	.	.	.	.	.	.	.	.	.	.	.	.	.	.	.	.	.	.
.	.	.	.	.	.	.	16a/	.	8ccc#\	.	16F#\	-pe-	.	16A/	-pe-	.	16a\	-pe-	.	16cc#\	-pe-	.	.	.	.	.	.	.	.	.	.	.	.
8F#\J	.	.	8F#\J	.	8F#/J	.	16a/	.	.	.	16F#\	-rum	.	16A/	-rum	.	16a\	-rum	.	16cc#\	-rum	.	8r	.	8r	.	8r	8r	.	8r	.	8r	.
.	.	.	.	.	.	.	16a/JJ	.	16ccc#\Jk	.	16F#\	ut	.	16A/	ut	.	16a\	ut	.	16cc#\	ut	.	.	.	.	.	.	.	.	.	.	.	.
*	*	*	*	*	*	*	*tremolo	*	*	*	*	*	*	*	*	*	*	*	*	*	*	*	*	*	*	*	*	*	*	*	*	*	*
!	!	!	!	!	!	!	!	!	!	!	!LO:LB:g=original	!	!	!	!	!	!	!	!	!	!	!	!	!	!	!	!	!	!	!	!	!	!
4.BB/	7 #	.	4.BB/	.	16B\KL	.	16d#X/LL	.	16bb\LL	.	8.BB/	col-	.	8.A/	col-	.	8.f#\	col-	.	8.dd#X\	col-	.	4r	.	4r	.	4r	4r	.	4r	.	4r	.
.	.	.	.	.	8B\	.	16d#/	.	(32dd#X\L	.	.	.	.	.	.	.	.	.	.	.	.	.	.	.	.	.	.	.	.	.	.	.	.
.	.	.	.	.	.	.	.	.	32ff#\JJJ)	.	.	.	.	.	.	.	.	.	.	.	.	.	.	.	.	.	.	.	.	.	.	.	.
.	.	.	.	.	.	.	16d#/	.	16aa'\LL	.	.	.	.	.	.	.	.	.	.	.	.	.	.	.	.	.	.	.	.	.	.	.	.
.	.	.	.	.	8B\	.	16d#/	.	16aa'\	.	16BB/	-lo-	.	16A/	-le	.	16f#\	-lo-	.	16dd#\	-lo-	.	.	.	.	.	.	.	.	.	.	.	.
.	.	.	.	.	.	.	16d#/	.	16aa'\	.	8BB/	-ret	.	8A/	est	.	8f#\	-ret	.	8dd#\	-ret	.	8r	.	8r	.	8r	8r	.	8r	.	8r	.
.	.	.	.	.	16B\Jk	.	16d#/JJ	.	16aa'\JJ	.	.	.	.	.	.	.	.	.	.	.	.	.	.	.	.	.	.	.	.	.	.	.	.
=32	=32	=32	=32	=32	=32	=32	=32	=32	=32	=32	=32	=32	=32	=32	=32	=32	=32	=32	=32	=32	=32	=32	=32	=32	=32	=32	=32	=32	=32	=32	=32	=32	=32
!	!	!	!	!	!	!	!	!	!	!	!	!	!	!	!	!	!LO:LB:g=original	!	!	!	!	!	!	!	!LO:N:vis=0	!	!LO:LB:g=original	!LO:LB:g=original	!	!	!	!	!
!	!	!	!	!	!	!	!	!	!	!	!	!	!	!	!	!	!	!	!	!	!	!	!LO:TX:a:t=2.	!	!LO:TX:a:t=2.	!	!LO:TX:a:t=1.	!LO:TX:a:t=1.	!	!LO:TX:a:t=1.	!	!LO:TX:a:t=1.	!
8E\L	n:	.	8E\L	.	16B\KL	.	16e/LL	.	16ggn\LL	.	8.E\	e-	.	8.Gn/	e-	.	8.gn\	e-	.	8.ee\	e-	.	1.r	.	1.r	.	2.r	2.r	.	2.r	.	2.r	.
.	.	.	.	.	8B\	.	16e/	.	(32b\L	.	.	.	.	.	.	.	.	.	.	.	.	.	.	.	.	.	.	.	.	.	.	.	.
.	.	.	.	.	.	.	.	.	32ee\JJJ)	.	.	.	.	.	.	.	.	.	.	.	.	.	.	.	.	.	.	.	.	.	.	.	.
8Gn\	.	.	8Gn\	.	.	.	16e/	.	16gg'\LL	.	.	.	.	.	.	.	.	.	.	.	.	.	.	.	.	.	.	.	.	.	.	.	.
.	.	.	.	.	8B\	.	16e/	.	16gg'\	.	16E\	-um	.	16B/	-um	.	16g\	-um	.	16ee\	-um	.	.	.	.	.	.	.	.	.	.	.	.
8E\J	.	.	8E\J	.	.	.	16e/	.	16gg'\	.	16E\	cum	.	16B/	cum	.	16g\	cum	.	16ee\	cum	.	.	.	.	.	.	.	.	.	.	.	.
.	.	.	.	.	16B\Jk	.	16e/JJ	.	16gg'\JJ	.	16E\	prin-	.	16B/	prin-	.	16g\	prin-	.	16ee\	prin-	.	.	.	.	.	.	.	.	.	.	.	.
*	*	*	*	*	*rep	*	*	*	*	*	*	*	*	*	*	*	*	*	*	*	*	*	*	*	*	*	*	*	*	*	*	*	*
8D#X\L	8 5	.	8D#X\L	.	16B\KL	.	16f#/LL	.	16aa\LL	.	8.D#X\	-ci-	.	8.B\	-ci-	.	8.a\	-ci-	.	8.ff#\	-ci-	.	.	.	.	.	.	.	.	.	.	.	.
.	.	.	.	.	8B\	.	16f#/	.	32b\L	.	.	.	.	.	.	.	.	.	.	.	.	.	.	.	.	.	.	.	.	.	.	.	.
.	.	.	.	.	.	.	.	.	32ff#\JJJ	.	.	.	.	.	.	.	.	.	.	.	.	.	.	.	.	.	.	.	.	.	.	.	.
8BB\	.	.	8BB\	.	.	.	16f#/	.	16aa\LL	.	.	.	.	.	.	.	.	.	.	.	.	.	.	.	.	.	.	.	.	.	.	.	.
.	.	.	.	.	8B\	.	16f#/	.	16aa\	.	16D#\	-pi-	.	16B\	-pi-	.	16a\	-pi-	.	16ff#\	-pi-	.	.	.	.	.	.	.	.	.	.	.	.
!	!	!	!	!	!	!	!	!	!	!	!LO:TX:b:t=V:S:	!	!	!	!	!	!	!	!	!	!	!	!	!	!	!	!	!	!	!	!	!	!
8D#\J	.	.	8D#\J	.	.	.	16f#/	.	16aa\	.	8D#\	-bus	.	8B\	-bus	.	8a\	-bus	.	8ff#\	-bus	.	.	.	.	.	.	.	.	.	.	.	.
.	.	.	.	.	16B\Jk	.	16f#/JJ	.	16aa\JJ	.	.	.	.	.	.	.	.	.	.	.	.	.	.	.	.	.	.	.	.	.	.	.	.
*	*	*	*	*	*Xrep	*	*	*	*	*	*	*	*	*	*	*	*	*	*	*	*	*	*	*	*	*	*	*	*	*	*	*	*
=33	=33	=33	=33	=33	=33	=33	=33	=33	=33	=33	=33	=33	=33	=33	=33	=33	=33	=33	=33	=33	=33	=33	=33	=33	=33	=33	=33	=33	=33	=33	=33	=33	=33
!LO:LB:g=original	!	!	!	!	!	!	!	!	!LO:LB:g=original	!	!LO:PB:g=original	!	!	!LO:LB:g=original	!	!	!	!	!	!LO:LB:g=original	!	!	!	!	!	!	!	!	!	!	!	!	!
8E\L	n	.	8E\L	.	16B\KL	.	16gn/LL	.	16ggn\LL	.	8.E\	cum	.	4B\	cum	.	4gn\	cum	.	4ee\	cum	.	.	.	.	.	4r	4r	.	4r	.	4r	.
.	.	.	.	.	8B\	.	16g/	.	32b\L	.	.	.	.	.	.	.	.	.	.	.	.	.	.	.	.	.	.	.	.	.	.	.	.
.	.	.	.	.	.	.	.	.	32ee\JJJ	.	.	.	.	.	.	.	.	.	.	.	.	.	.	.	.	.	.	.	.	.	.	.	.
8Gn\	.	.	8Gn\	.	.	.	16g/	.	16gg\LL	.	.	.	.	.	.	.	.	.	.	.	.	.	.	.	.	.	.	.	.	.	.	.	.
.	.	.	.	.	8B\	.	16g/	.	16bb\	.	16E\	prin-	.	.	.	.	.	.	.	.	.	.	.	.	.	.	.	.	.	.	.	.	.
8E\J	.	.	8E\J	.	.	.	16g/	.	16bb\	.	8E\	.	.	8Gn\	prin-	.	8g\	prin-	.	8ee\	prin-	.	.	.	.	.	8r	8r	.	8r	.	8r	.
.	.	.	.	.	16B\Jk	.	16g/JJ	.	16bb\JJ	.	.	.	.	.	.	.	.	.	.	.	.	.	.	.	.	.	.	.	.	.	.	.	.
*	*	*	*	*	*	*	*Xtremolo	*	*	*	*	*	*	*	*	*	*	*	*	*	*	*	*	*	*	*	*	*	*	*	*	*	*
4.BB/	# 7	.	4.BB/	.	4.B\	.	16a/LL	.	16bb\KL	.	8.BB/	-ci-	.	8.A\	-ci-	.	8.f#\	-ci-	.	8.dd#X\	-ci-	.	.	.	.	.	8r	8r	.	8r	.	8r	.
.	.	.	.	.	.	.	32d#X/L	.	8bb\	.	.	.	.	.	.	.	.	.	.	.	.	.	.	.	.	.	.	.	.	.	.	.	.
.	.	.	.	.	.	.	32f#/JJJ	.	.	.	.	.	.	.	.	.	.	.	.	.	.	.	.	.	.	.	.	.	.	.	.	.	.
.	.	.	.	.	.	.	16a\LL	.	.	.	.	.	.	.	.	.	.	.	.	.	.	.	.	.	.	.	8BB/L	8d#X/L	.	8f#/L	.	8aa\L	.
.	.	.	.	.	.	.	16a\	.	8bb\	.	16BB/	-pi-	.	16A\	-pi-	.	16f#\	-pi-	.	16dd#\	-pi-	.	.	.	.	.	.	.	.	.	.	.	.
!	!	!	!	!	!	!	!	!	!	!	!	!	!	!	!	!	!LO:TX:b:t= V:S:	!	!	!	!	!	!	!	!	!	!	!	!	!	!	!	!
.	.	.	.	.	.	.	16a\	.	.	.	8BB/	-bus	.	8A\	-bus	.	8f#\	-bus	.	8dd#\	-bus	.	.	.	.	.	8BB/J	8d#/J	.	8f#/J	.	8aa\J	.
.	.	.	.	.	.	.	16a\JJ	.	16bb\Jk	.	.	.	.	.	.	.	.	.	.	.	.	.	.	.	.	.	.	.	.	.	.	.	.
=34	=34	=34	=34	=34	=34	=34	=34	=34	=34	=34	=34	=34	=34	=34	=34	=34	=34	=34	=34	=34	=34	=34	=34	=34	=34	=34	=34	=34	=34	=34	=34	=34	=34
!	!	!	!	!	!	!	!	!	!	!	!	!	!	!	!	!	!LO:PB:g=original	!	!	!	!	!	!	!	!	!	!	!	!	!	!	!	!
8E\L	n:	.	8E\L	.	8e\L	.	16gn/LL	.	16bb\KL	.	8.E\	po-	.	8.Gn/	po-	.	8.gn\	po-	.	8.ee\	po-	.	4e\	.	4e\	.	4.E\	4.e/	.	4.gX\	.	4.ggn\	.
.	.	.	.	.	.	.	32B/L	.	8bb\	.	.	.	.	.	.	.	.	.	.	.	.	.	.	.	.	.	.	.	.	.	.	.	.
.	.	.	.	.	.	.	32e/J	.	.	.	.	.	.	.	.	.	.	.	.	.	.	.	.	.	.	.	.	.	.	.	.	.	.
8Gn\	.	.	8Gn\	.	8gn\	.	16g/	.	.	.	.	.	.	.	.	.	.	.	.	.	.	.	.	.	.	.	.	.	.	.	.	.	.
.	.	.	.	.	.	.	16g/	.	8bb\	.	16E\	-pu-	.	16B/	-pu-	.	16g\	-pu-	.	16ee\	-pu-	.	.	.	.	.	.	.	.	.	.	.	.
8E\J	.	.	8E\J	.	8e\J	.	16g/	.	.	.	8E\	-li	.	8B/	-li	.	8g\	-li	.	8ee\	-li	.	8r	.	8r	.	.	.	.	.	.	.	.
.	.	.	.	.	.	.	16g/JJ	.	16bb\Jk	.	.	.	.	.	.	.	.	.	.	.	.	.	.	.	.	.	.	.	.	.	.	.	.
8D#X\L	- 5	.	8D#X\L	.	8d#X\L	.	16a/LL	.	16bb\KL	.	4.D#X\	su-	.	4.B/	su-	.	(4.a\	su-	.	4.ff#\	su-	.	4r	.	4r	.	4.D#X\	4.f#/	.	4.a\	.	4.ff#\	.
.	.	.	.	.	.	.	32B/L	.	8bb\	.	.	.	.	.	.	.	.	.	.	.	.	.	.	.	.	.	.	.	.	.	.	.	.
.	.	.	.	.	.	.	32f#/J	.	.	.	.	.	.	.	.	.	.	.	.	.	.	.	.	.	.	.	.	.	.	.	.	.	.
8BB\	.	.	8BB\	.	8B\	.	16a/	.	.	.	.	.	.	.	.	.	.	.	.	.	.	.	.	.	.	.	.	.	.	.	.	.	.
.	.	.	.	.	.	.	16a/	.	8bb\	.	.	.	.	.	.	.	.	.	.	.	.	.	.	.	.	.	.	.	.	.	.	.	.
8D#\J	.	.	8D#\J	.	8d#\J	.	16a/	.	.	.	.	.	.	.	.	.	.	.	.	.	.	.	8r	.	8r	.	.	.	.	.	.	.	.
.	.	.	.	.	.	.	16a/JJ	.	16bb\Jk	.	.	.	.	.	.	.	.	.	.	.	.	.	.	.	.	.	.	.	.	.	.	.	.
=35	=35	=35	=35	=35	=35	=35	=35	=35	=35	=35	=35	=35	=35	=35	=35	=35	=35	=35	=35	=35	=35	=35	=35	=35	=35	=35	=35	=35	=35	=35	=35	=35	=35
!	!	!	!	!	!	!	!LO:LB:g=original	!	!	!	!LO:LB:g=original	!	!	!	!	!	!	!	!	!LO:LB:g=original	!	!	!	!	!	!	!	!	!	!	!	!	!
8E\L	n	.	8E\L	.	8e\L	.	16gn/L	.	16bb\KL	.	4E\	-i	.	4B\	-i	.	4gn\)	-i	.	4ee\	-i	.	4e\	.	4e\	.	4.E\	4.e\	.	4.gX\	.	2.ee\	.
.	.	.	.	.	.	.	32B/	.	8bb\	.	.	.	.	.	.	.	.	.	.	.	.	.	.	.	.	.	.	.	.	.	.	.	.
.	.	.	.	.	.	.	32e/J	.	.	.	.	.	.	.	.	.	.	.	.	.	.	.	.	.	.	.	.	.	.	.	.	.	.
8Gn\	.	.	8Gn\	.	8gn\	.	16g/LL	.	.	.	.	.	.	.	.	.	.	.	.	.	.	.	.	.	.	.	.	.	.	.	.	.	.
.	.	.	.	.	.	.	16g/	.	8bb\	.	.	.	.	.	.	.	.	.	.	.	.	.	.	.	.	.	.	.	.	.	.	.	.
8E\J	.	.	8E\J	.	8e\J	.	16g/	.	.	.	8E\	qui	.	8B\	qui	.	8g\	qui	.	8ee\	qui	.	8r	.	8r	.	.	.	.	.	.	.	.
.	.	.	.	.	.	.	16g/JJ	.	16bb\Jk	.	.	.	.	.	.	.	.	.	.	.	.	.	.	.	.	.	.	.	.	.	.	.	.
*	*	*	*	*	*	*	*tremolo	*	*	*	*	*	*	*	*	*	*	*	*	*	*	*	*	*	*	*	*	*	*	*	*	*	*
8C#/L	- 5	.	8C#/L	.	8c#\L	.	16A/LL 16e	.	16aa\LL	.	8.C#/	ha-	.	8.A/	ha-	.	8.g\	ha-	.	8.ee\	ha-	.	(<4.A/	.	(4.e\	.	4.C#\	4.e\	.	4.a\	.	.	.
.	.	.	.	.	.	.	16A/ 16e	.	32a\L	.	.	.	.	.	.	.	.	.	.	.	.	.	.	.	.	.	.	.	.	.	.	.	.
.	.	.	.	.	.	.	.	.	32ee\JJJ	.	.	.	.	.	.	.	.	.	.	.	.	.	.	.	.	.	.	.	.	.	.	.	.
8AA/	.	.	8AA/	.	8A\	.	16A/ 16e	.	16ggn\LL	.	.	.	.	.	.	.	.	.	.	.	.	.	.	.	.	.	.	.	.	.	.	.	.
.	.	.	.	.	.	.	16A/ 16e	.	16gg\	.	16C#/	-bi-	.	16A/	-bi-	.	16g\	-bi-	.	16ee\	-bi-	.	.	.	.	.	.	.	.	.	.	.	.
8C#/J	.	.	8C#/J	.	8c#\J	.	16A/ 16e	.	16gg\	.	16C#/	-ta-	.	16A/	-ta-	.	16g\	-ta-	.	16ee\	-ta-	.	.	.	.	.	.	.	.	.	.	.	.
!	!	!	!	!	!	!	!	!	!	!	!	!	!	!LO:TX:b:t=V:S:	!	!	!	!	!	!	!	!	!	!	!	!	!	!	!	!	!	!	!
.	.	.	.	.	.	.	16A/JJ 16e	.	16gg\JJ	.	16C#/	-re	.	16A/	-re	.	16g\	-re	.	16ee\	-re	.	.	.	.	.	.	.	.	.	.	.	.
=36	=36	=36	=36	=36	=36	=36	=36	=36	=36	=36	=36	=36	=36	=36	=36	=36	=36	=36	=36	=36	=36	=36	=36	=36	=36	=36	=36	=36	=36	=36	=36	=36	=36
!	!	!	!LO:LB:g=original	!	!	!	!	!	!LO:LB:g=original	!	!	!	!	!LO:PB:g=original	!	!	!LO:TX:a:t=problem: brak laski	!	!	!	!	!	!	!	!	!	!	!	!	!	!	!	!
!	!	!	!	!	!	!	!	!	!	!	!	!	!	!	!	!	!LO:LB:g=original	!	!	!	!	!	!	!	!	!	!	!	!	!	!	!	!
8D\L	3	.	8D\L	.	8d\L	.	16A/LL 16f#	.	16ff#\KL	.	4D/	fe-	.	4A/	fa-	.	4f#\	fa-	.	4dd\	fa-	.	4d\)	.	4f#\)	.	4.D\	4.d/	.	4.f#\	.	4.dd\	.
.	.	.	.	.	.	.	16A/ 16f#	.	8ff#\	.	.	.	.	.	.	.	.	.	.	.	.	.	.	.	.	.	.	.	.	.	.	.	.
8F#\	.	.	8F#\	.	8f#\	.	16A/ 16f#	.	.	.	.	.	.	.	.	.	.	.	.	.	.	.	.	.	.	.	.	.	.	.	.	.	.
.	.	.	.	.	.	.	16A/ 16f#	.	8ff#\	.	.	.	.	.	.	.	.	.	.	.	.	.	.	.	.	.	.	.	.	.	.	.	.
8D\J	.	.	8D\J	.	8d\J	.	16A/ 16f#	.	.	.	8D/	-cit	.	8A/	-cit	.	8f#\	-cit	.	8dd\	-cit	.	8r	.	8r	.	.	.	.	.	.	.	.
.	.	.	.	.	.	.	16A/JJ 16f#	.	16ff#\Jk	.	.	.	.	.	.	.	.	.	.	.	.	.	.	.	.	.	.	.	.	.	.	.	.
8AA#X/L	 5	.	8AA#X/L	.	8A#X/L	.	16cc#/LL	.	16ff#\LL	.	8.AA#X/	ste-	.	8.c#\	ste-	.	8.f#\	ste-	.	8.ee\	ste-	.	4F#/	.	4f#\	.	4.AA#X/	4.e/	.	4.f#\	.	4.cc#\	.
.	.	.	.	.	.	.	32f#/L	.	32a\L	.	.	.	.	.	.	.	.	.	.	.	.	.	.	.	.	.	.	.	.	.	.	.	.
.	.	.	.	.	.	.	32a#X/J	.	32cc#\JJJ	.	.	.	.	.	.	.	.	.	.	.	.	.	.	.	.	.	.	.	.	.	.	.	.
8FF#/	.	.	8FF#/	.	8F#/	.	16cc#/	.	16ff#\LL	.	.	.	.	.	.	.	.	.	.	.	.	.	.	.	.	.	.	.	.	.	.	.	.
.	.	.	.	.	.	.	16cc#/	.	16ff#\	.	16AA#/	-ri-	.	16c#\	-ri-	.	16f#\	-ri-	.	16ee\	-ri-	.	.	.	.	.	.	.	.	.	.	.	.
8AA#/J	.	.	8AA#/J	.	8A#/J	.	16cc#/	.	16ff#\	.	16AA#/	-lem	.	16c#\	-sem	.	16f#\	-lem	.	16ee\	-sem	.	8r	.	8r	.	.	.	.	.	.	.	.
!	!	!	!	!	!	!	!	!	!LO:TX:a:t=problem: na kresce taktowej adnotacja ołówkiem "vi tro" (?) - być może łącznie z pozostałymi adnotacjami tworzy wyrażenie "vide; retro"?	!	!	!	!	!	!	!	!	!	!	!	!	!	!	!	!	!	!	!	!	!	!	!	!
.	.	.	.	.	.	.	16cc#/JJ	.	16ff#\JJ	.	16AA#/	in	.	16c#\	in	.	16f#\	in	.	16ee\	in	.	.	.	.	.	.	.	.	.	.	.	.
=37	=37	=37	=37	=37	=37	=37	=37	=37	=37	=37	=37	=37	=37	=37	=37	=37	=37	=37	=37	=37	=37	=37	=37	=37	=37	=37	=37	=37	=37	=37	=37	=37	=37
!	!	!	!	!	!LO:LB:g=original	!	!	!	!LO:TX:a:t=problem: takt dopisany ołówkiem na końcu partii z adnotacjami "de" i "re"	!	!LO:LB:g=original	!	!	!	!	!	!	!	!	!LO:PB:g=original	!	!	!	!	!	!	!	!	!	!	!	!	!
8BB\L	3	.	8BB\L	.	8B\L	.	16dd\LL	.	16ff#\LL	.	4BB/	do-	.	4B\	Do-	.	4f#\	Do-	.	4dd\	do-	.	4F#/	.	4.f#\	.	4.BB/	4.d/	.	4.f#\	.	4.dd\	.
.	.	.	.	.	.	.	32f#\L	.	32b\L	.	.	.	.	.	.	.	.	.	.	.	.	.	.	.	.	.	.	.	.	.	.	.	.
.	.	.	.	.	.	.	32a\J	.	32ddn\JJJ	.	.	.	.	.	.	.	.	.	.	.	.	.	.	.	.	.	.	.	.	.	.	.	.
8D\	.	.	8D\	.	8d\	.	16dd\	.	16ff#\LL	.	.	.	.	.	.	.	.	.	.	.	.	.	.	.	.	.	.	.	.	.	.	.	.
.	.	.	.	.	.	.	16dd\	.	16ff#\	.	.	.	.	.	.	.	.	.	.	.	.	.	.	.	.	.	.	.	.	.	.	.	.
8BB\J	.	.	8BB\J	.	8B\J	.	16dd\	.	16ff#\	.	8BB/	-mo	.	8B\	-mo	.	8f#\	-mo	.	8dd\	-mo	.	8r	.	.	.	.	.	.	.	.	.	.
.	.	.	.	.	.	.	16dd\JJ	.	16ff#\JJ	.	.	.	.	.	.	.	.	.	.	.	.	.	.	.	.	.	.	.	.	.	.	.	.
8AAn/L	-	.	8AAn\L	.	8An\L	.	16cc#\LL	.	16een\KL	.	8.AAn/	mat-	.	8.c#\	mat-	.	8.f#\	Mat-	.	8.ff#\	mat-	.	4F#/	.	4f#\	.	4.AAn/	4.c#/	.	4.f#\	.	4.ff#\	.
.	.	.	.	.	.	.	16cc#\	.	8ee\	.	.	.	.	.	.	.	.	.	.	.	.	.	.	.	.	.	.	.	.	.	.	.	.
8C#/	.	.	8C#\	.	8c#\	.	16cc#\	.	.	.	.	.	.	.	.	.	.	.	.	.	.	.	.	.	.	.	.	.	.	.	.	.	.
.	.	.	.	.	.	.	16cc#\	.	8ee\	.	16AA/	-rem	.	16c#\	-rem	.	16f#\	-rem	.	16ff#\	-rem	.	.	.	.	.	.	.	.	.	.	.	.
8AA/J	.	.	8AA\J	.	8A\J	.	16cc#\	.	.	.	16AA/	fi-	.	16c#\	fi-	.	16f#\	fi-	.	16ff#\	fi-	.	8r	.	8r	.	.	.	.	.	.	.	.
.	.	.	.	.	.	.	16cc#\JJ	.	16ee\Jk	.	16AA/	-li-	.	16c#\	-li-	.	16f#\	-li-	.	16ff#\	-li-	.	.	.	.	.	.	.	.	.	.	.	.
=38	=38	=38	=38	=38	=38	=38	=38	=38	=38	=38	=38	=38	=38	=38	=38	=38	=38	=38	=38	=38	=38	=38	=38	=38	=38	=38	=38	=38	=38	=38	=38	=38	=38
!	!	!	!	!	!	!	!	!	!	!	!	!	!	!LO:LB:g=original	!	!	!LO:LB:g=original	!	!	!	!	!	!LO:TX:a:t=1.	!	!LO:TX:a:t=1.	!	!	!	!	!LO:LB:g=original	!	!	!
4.GGn/	7 5 3	.	4.GGn/	.	16Gn/KL	.	16b\LL	.	16ff#\LL	.	8GGn/	-o-	.	8B\	-o-	.	8b\	-o-	.	8ff#\	-o-	.	2.r	.	2.r	.	2.GG#/ 2.B	4B/	.	4f#\	.	4.ff#\	.
.	.	.	.	.	8G/	.	16b\	.	32b\L	.	.	.	.	.	.	.	.	.	.	.	.	.	.	.	.	.	.	.	.	.	.	.	.
.	.	.	.	.	.	.	.	.	32ddn\JJJ	.	.	.	.	.	.	.	.	.	.	.	.	.	.	.	.	.	.	.	.	.	.	.	.
.	.	.	.	.	.	.	16b\	.	16ff#\LL	.	8Gn\	-rum	.	8B\	-rum	.	8b\	-rum	.	8ff#\	-rum	.	.	.	.	.	.	.	.	.	.	.	.
.	.	.	.	.	8G/	.	16b\	.	16ff#\	.	.	.	.	.	.	.	.	.	.	.	.	.	.	.	.	.	.	.	.	.	.	.	.
.	.	.	.	.	.	.	16b\	.	16ff#\	.	8G\	le-	.	8B\	le-	.	8b\	le-	.	8ff#\	le-	.	.	.	.	.	.	8r	.	8r	.	.	.
.	.	.	.	.	16G/Jk	.	16b\JJ	.	16ff#\JJ	.	.	.	.	.	.	.	.	.	.	.	.	.	.	.	.	.	.	.	.	.	.	.	.
8GG/L	.	.	8GG/L	.	16G/KL	.	16b\LL	.	16ee#X\KL	.	4.G\	-tan-	.	4.B\	-tan-	.	4.b\	-tan-	.	4.ee#X\	-tan-	.	.	.	.	.	.	8r	.	8r	.	4.ee#X\	.
.	.	.	.	.	8G/	.	(32ddn\L	.	8ee#\	.	.	.	.	.	.	.	.	.	.	.	.	.	.	.	.	.	.	.	.	.	.	.	.
.	.	.	.	.	.	.	32cc#\JJJ)	.	.	.	.	.	.	.	.	.	.	.	.	.	.	.	.	.	.	.	.	.	.	.	.	.	.
*	*	*	*	*	*	*	*Xtremolo	*	*	*	*	*	*	*	*	*	*	*	*	*	*	*	*	*	*	*	*	*	*	*	*	*	*
8GG/	6|	.	8GG/	.	.	.	16b'\LL	.	.	.	.	.	.	.	.	.	.	.	.	.	.	.	.	.	.	.	.	8e#X/L	.	8b\L	.	.	.
.	.	.	.	.	8G/	.	16b'\	.	8ee#\	.	.	.	.	.	.	.	.	.	.	.	.	.	.	.	.	.	.	.	.	.	.	.	.
8GG/J	.	.	8GG/J	.	.	.	16b'\	.	.	.	.	.	.	.	.	.	.	.	.	.	.	.	.	.	.	.	.	8e#/J	.	8b\J	.	.	.
.	.	.	.	.	16G/Jk	.	16b'\JJ	.	16ee#\Jk	.	.	.	.	.	.	.	.	.	.	.	.	.	.	.	.	.	.	.	.	.	.	.	.
=39	=39	=39	=39	=39	=39	=39	=39	=39	=39	=39	=39	=39	=39	=39	=39	=39	=39	=39	=39	=39	=39	=39	=39	=39	=39	=39	=39	=39	=39	=39	=39	=39	=39
!LO:LB:g=original	!	!	!	!	!	!	!	!	!	!	!	!	!	!	!	!	!	!	!	!	!	!	!	!	!	!	!	!	!	!	!	!	!
*	*	*	*	*	*	*	*	*	*	*	*	*	*	*	*	*	*	*	*	*	*	*	*	*	*	*	*^	*	*	*	*	*	*
4FF#/	#	.	4FF#/	.	4F#/	.	4a#X\	.	4ff#\	p	4F#\	-tem	.	4c#\	-tem	.	4a#X\	-tem.	.	4ff#\	-tem.	.	4F#/	.	4f#\	.	4A#X\	4FF#/	4f#\	.	4a#X\	.	4ff#\	.
2r	.	.	2r	.	8r	.	(>8f#\	.	(8ff#\	.	8r	.	.	8r	.	.	8r	.	.	8r	.	.	8r	.	8r	.	8r	2ryy	8r	.	8r	.	8r	.
.	.	.	.	.	4r	.	4e#X\	.	4ee#X\	.	4r	.	.	4r	.	.	4r	.	.	4r	.	.	4r	.	4r	.	4r	.	4r	.	4r	.	4r	.
.	.	.	.	.	8r	.	8f#\	.	8ff#\)	.	8r	.	.	8r	.	.	8r	.	.	8r	.	.	8r	.	8r	.	8r	.	8r	.	8r	.	8r	.
*	*	*	*	*	*	*	*	*	*	*	*	*	*	*	*	*	*	*	*	*	*	*	*	*	*	*	*v	*v	*	*	*	*	*	*
=40	=40	=40	=40	=40	=40	=40	=40	=40	=40	=40	=40	=40	=40	=40	=40	=40	=40	=40	=40	=40	=40	=40	=40	=40	=40	=40	=40	=40	=40	=40	=40	=40	=40
!LO:LB:TX:a:t=1	!	!	!LO:TX:a:t=1	!	!LO:TX:a:t=1	!	!LO:LB:g=original	!	!	!	!LO:LB:g=original.	!	!	!LO:TX:a:t=1.	!	!	!LO:TX:a:t=1.	!	!	!LO:TX:a:t=1.	!	!	!LO:TX:a:t=4.	!	!LO:TX:a:t=4.	!	!LO:TX:a:t=4.	!LO:TX:a:t=4.	!	!LO:TX:a:t=4.	!	!LO:TX:a:t=10.	!
!	!	!	!	!	!	!	!	!	!	!	!LO:TX:a:t=1	!	!	!	!	!	!	!	!	!	!	!	!LO:N:vis=00	!	!LO:N:vis=00	!	!LO:N:vis=00	!LO:N:vis=00	!	!LO:N:vis=00	!	!LO:N:vis=00	!
2.r	.	.	2.r	.	2.r	.	4.gn/	.	(4.ggn\	.	2.r	.	.	2.r	.	.	2.r	.	.	2.r	.	.	0.r	.	0.r	.	0.r	0.r	.	0.r	.	0.r	.
.	.	.	.	.	.	.	4.g#X/)	.	4.gg#X\)	.	.	.	.	.	.	.	.	.	.	.	.	.	.	.	.	.	.	.	.	.	.	.	.
=41	=41	=41	=41	=41	=41	=41	=41	=41	=41	=41	=41	=41	=41	=41	=41	=41	=41	=41	=41	=41	=41	=41	=41	=41	=41	=41	=41	=41	=41	=41	=41	=41	=41
*^	*	*	*^	*	*	*	*	*	*	*	*	*	*	*	*	*	*	*	*	*	*	*	*	*	*	*	*	*	*	*	*	*	*
!LO:TX:a:t=Violon	!	!	!	!	!	!	!LO:TX:a:t=problem: główka dolnej półnuty z prawej strony laski	!	!	!	!LO:LB:g=original	!	!	!	!	!	!	!	!	!	!	!LO:LB:g=original	!	!	!	!	!	!	!	!	!	!	!	!	!
8D/L	4D\	.	p	8D/L	4D\	.	2.F#/ 2.A	.	16a/LL	.	4aa\	.	4r	.	.	4r	.	.	4r	.	.	4r	.	.	.	.	.	.	.	.	.	.	.	.	.
.	.	.	.	.	.	.	.	.	(32A/L	.	.	.	.	.	.	.	.	.	.	.	.	.	.	.	.	.	.	.	.	.	.	.	.	.	.
.	.	.	.	.	.	.	.	.	32d/J)	.	.	.	.	.	.	.	.	.	.	.	.	.	.	.	.	.	.	.	.	.	.	.	.	.	.
8A/	.	.	.	8A/	.	.	.	.	16f#'/	.	.	.	.	.	.	.	.	.	.	.	.	.	.	.	.	.	.	.	.	.	.	.	.	.	.
.	.	.	.	.	.	.	.	.	16f#'/	.	.	.	.	.	.	.	.	.	.	.	.	.	.	.	.	.	.	.	.	.	.	.	.	.	.
(8F#/J	8r	.	.	8F#/J	8r	.	.	.	16f#'/	.	8aa\	.	8r	.	.	8r	.	.	8r	.	.	8r	.	.	.	.	.	.	.	.	.	.	.	.	.
.	.	.	.	.	.	.	.	.	16f#'/JJ	.	.	.	.	.	.	.	.	.	.	.	.	.	.	.	.	.	.	.	.	.	.	.	.	.	.
8D/L	4D\	.	.	8D/L	4D\	.	.	.	16f#/LL	.	4gg#X\	.	4r	.	.	4r	.	.	4r	.	.	4r	.	.	.	.	.	.	.	.	.	.	.	.	.
.	.	.	.	.	.	.	.	.	(32A/L	.	.	.	.	.	.	.	.	.	.	.	.	.	.	.	.	.	.	.	.	.	.	.	.	.	.
.	.	.	.	.	.	.	.	.	32d/J)	.	.	.	.	.	.	.	.	.	.	.	.	.	.	.	.	.	.	.	.	.	.	.	.	.	.
8A/)	.	.	.	8A/	.	.	.	.	16f#'/	.	.	.	.	.	.	.	.	.	.	.	.	.	.	.	.	.	.	.	.	.	.	.	.	.	.
.	.	.	.	.	.	.	.	.	16f#'/	.	.	.	.	.	.	.	.	.	.	.	.	.	.	.	.	.	.	.	.	.	.	.	.	.	.
!	!	!	!	!	!	!	!	!	!	!	!	!	!	!	!	!LO:TX:a:t=Sotto voce	!	!	!LO:TX:a:t=Sotto voce	!	!	!LO:TX:a:t=/: Sotto voce :/	!	!	!	!	!	!	!	!	!	!	!	!	!
8F#/J	8r	.	.	8F#/J	8r	.	.	.	16f#'/	.	8aa\	.	[8D\	Glo-	.	[>8A/	Glo-	.	[8d\	Glo-	.	[8f#/	Glo-	.	.	.	.	.	.	.	.	.	.	.	.
.	.	.	.	.	.	.	.	.	16f#'/JJ	.	.	.	.	.	.	.	.	.	.	.	.	.	.	.	.	.	.	.	.	.	.	.	.	.	.
=42	=42	=42	=42	=42	=42	=42	=42	=42	=42	=42	=42	=42	=42	=42	=42	=42	=42	=42	=42	=42	=42	=42	=42	=42	=42	=42	=42	=42	=42	=42	=42	=42	=42	=42	=42
*	*	*	*	*	*	*	*	*	*	*	*	*	*	*	*	*	*	*	*	*	*	*	*	*	*	*	*	*	*	*	*	*	*	*	*
!	!	!	!	!	!LO:N:vis=4	!	!LO:TX:a:t=problem: główka dolnej półnuty z prawej strony laski	!	!	!	!	!	!	!	!	!LO:LB:g=original	!	!	!LO:LB:g=original	!	!	!	!	!	!	!	!	!	!	!	!	!	!	!	!
8D/L	4D\	.	.	8D/L	8D\	.	2.F#/ 2.A	.	16f#/LL	.	4bb\	.	8.D\]	.	.	8.A/]	.	.	8.d\]	.	.	8.f#/]	.	.	.	.	.	.	.	.	.	.	.	.	.
.	.	.	.	.	.	.	.	.	(32A/L	.	.	.	.	.	.	.	.	.	.	.	.	.	.	.	.	.	.	.	.	.	.	.	.	.	.
.	.	.	.	.	.	.	.	.	32d/J)	.	.	.	.	.	.	.	.	.	.	.	.	.	.	.	.	.	.	.	.	.	.	.	.	.	.
!	!	!	!	!	!LO:N:vis=4	!	!	!	!	!	!	!	!	!	!	!	!	!	!	!	!	!	!	!	!	!	!	!	!	!	!	!	!	!	!
8A/	.	.	.	8A/	8A\	.	.	.	16f#'/	.	.	.	.	.	.	.	.	.	.	.	.	.	.	.	.	.	.	.	.	.	.	.	.	.	.
.	.	.	.	.	.	.	.	.	16f#'/	.	.	.	16D\	-ria	.	16A/	-ri-	.	16d\	-ri-	.	16f#/	-ri-	.	.	.	.	.	.	.	.	.	.	.	.
8F#/J	8r	.	.	8F#/J	8r	.	.	.	16f#'/	.	8aa\	.	8D\	.	.	8A/	-a	.	8d\	-a	.	8f#/	-a	.	.	.	.	.	.	.	.	.	.	.	.
.	.	.	.	.	.	.	.	.	16f#'/JJ	.	.	.	.	.	.	.	.	.	.	.	.	.	.	.	.	.	.	.	.	.	.	.	.	.	.
*	*	*	*	*	*	*	*	*	*rep	*	*	*	*	*	*	*	*	*	*	*	*	*	*	*	*	*	*	*	*	*	*	*	*	*	*
8D/L	4D\	.	.	8D/L	4D\	.	.	.	16f#/LL	.	4ff#\	.	8D\	pa-	.	8A/	pa-	.	8d\	pat-	.	8f#/	pat-	.	.	.	.	.	.	.	.	.	.	.	.
.	.	.	.	.	.	.	.	.	(32A/L	.	.	.	.	.	.	.	.	.	.	.	.	.	.	.	.	.	.	.	.	.	.	.	.	.	.
.	.	.	.	.	.	.	.	.	32d/J)	.	.	.	.	.	.	.	.	.	.	.	.	.	.	.	.	.	.	.	.	.	.	.	.	.	.
8A/	.	.	.	8A/	.	.	.	.	16f#'/	.	.	.	8D\	-tri	.	8A/	-tri	.	8d\	-ri	.	8f#/	-ri	.	.	.	.	.	.	.	.	.	.	.	.
.	.	.	.	.	.	.	.	.	16f#'/	.	.	.	.	.	.	.	.	.	.	.	.	.	.	.	.	.	.	.	.	.	.	.	.	.	.
8F#/J	8r	.	.	8F#/J	8r	.	.	.	16f#'/	.	(16ddd\LL	.	8D\	et	.	8A/	et	.	8d\	et	.	8f#/	et	.	.	.	.	.	.	.	.	.	.	.	.
.	.	.	.	.	.	.	.	.	16f#'/JJ	.	16ccc#\JJ	.	.	.	.	.	.	.	.	.	.	.	.	.	.	.	.	.	.	.	.	.	.	.	.
*	*	*	*	*	*	*	*	*	*	*Xrep	*	*	*	*	*	*	*	*	*	*	*	*	*	*	*	*	*	*	*	*	*	*	*	*	*
=43	=43	=43	=43	=43	=43	=43	=43	=43	=43	=43	=43	=43	=43	=43	=43	=43	=43	=43	=43	=43	=43	=43	=43	=43	=43	=43	=43	=43	=43	=43	=43	=43	=43	=43	=43
!	!	!	!	!	!	!	!	!	!	!	!	!	!LO:LB:g=original	!	!	!	!	!	!	!	!	!	!	!	!	!	!	!	!	!	!	!	!	!	!
8D/L	4D\	.	.	8D/L	4D\	.	4.Gn/ 4.B	.	16gn/LL	.	4bb\)	.	4.D\	fi-	.	4.B\	fi-	.	4.d\	fi-	.	4.gn\	fi-	.	.	.	.	.	.	.	.	.	.	.	.
.	.	.	.	.	.	.	.	.	(32B/L	.	.	.	.	.	.	.	.	.	.	.	.	.	.	.	.	.	.	.	.	.	.	.	.	.	.
.	.	.	.	.	.	.	.	.	32d/J)	.	.	.	.	.	.	.	.	.	.	.	.	.	.	.	.	.	.	.	.	.	.	.	.	.	.
8B/	.	.	.	8B/	.	.	.	.	16g/	.	.	.	.	.	.	.	.	.	.	.	.	.	.	.	.	.	.	.	.	.	.	.	.	.	.
.	.	.	.	.	.	.	.	.	16g/	.	.	.	.	.	.	.	.	.	.	.	.	.	.	.	.	.	.	.	.	.	.	.	.	.	.
8Gn/J	8r	.	.	8Gn/J	8r	.	.	.	16g/	.	(16eee\LL	.	.	.	.	.	.	.	.	.	.	.	.	.	.	.	.	.	.	.	.	.	.	.	.
.	.	.	.	.	.	.	.	.	16g/JJ	.	16ddd\JJ	.	.	.	.	.	.	.	.	.	.	.	.	.	.	.	.	.	.	.	.	.	.	.	.
8D/L	4D\	.	.	8D/L	4D\	.	4.E/ 4.c#X	.	16g/LL	.	8.ccc#\L)	.	4.D\	-li-	.	4.c#\	-li-	.	4.e\	-li-	.	4.g\	-li-	.	.	.	.	.	.	.	.	.	.	.	.
.	.	.	.	.	.	.	.	.	32c#X/L	.	.	.	.	.	.	.	.	.	.	.	.	.	.	.	.	.	.	.	.	.	.	.	.	.	.
.	.	.	.	.	.	.	.	.	32e/J	.	.	.	.	.	.	.	.	.	.	.	.	.	.	.	.	.	.	.	.	.	.	.	.	.	.
8G/	.	.	.	8G/	.	.	.	.	16g/	.	.	.	.	.	.	.	.	.	.	.	.	.	.	.	.	.	.	.	.	.	.	.	.	.	.
.	.	.	.	.	.	.	.	.	16g/	.	16aa\L	.	.	.	.	.	.	.	.	.	.	.	.	.	.	.	.	.	.	.	.	.	.	.	.
.	.	.	.	.	.	.	.	.	.	.	8qbb/	.	.	.	.	.	.	.	.	.	.	.	.	.	.	.	.	.	.	.	.	.	.	.	.
8E/J	8r	.	.	8E/J	8r	.	.	.	16g/	.	16bb\	.	.	.	.	.	.	.	.	.	.	.	.	.	.	.	.	.	.	.	.	.	.	.	.
.	.	.	.	.	.	.	.	.	16g/JJ	.	16aa\JJ	.	.	.	.	.	.	.	.	.	.	.	.	.	.	.	.	.	.	.	.	.	.	.	.
=44	=44	=44	=44	=44	=44	=44	=44	=44	=44	=44	=44	=44	=44	=44	=44	=44	=44	=44	=44	=44	=44	=44	=44	=44	=44	=44	=44	=44	=44	=44	=44	=44	=44	=44	=44
!	!	!	!	!LO:LB:g=original	!	!	!	!	!LO:LB:g=original	!	!	!	!	!	!	!	!	!	!	!	!	!	!	!	!LO:LB:g=original	!	!	!	!	!	!	!	!	!LO:N:vis=00	!
8D/L	4D\	.	.	8D/L	4D\	.	2.F#/ 2.d	.	16f#/LL	.	4ddd\	.	4D\	-o	.	4d\	-o	.	4d\	-o	.	4f#/	-o	.	2.D/	p	[2.D/	p	2.F#\ 2.A	2.f#\	p	2.a\	p	0.r	.
.	.	.	.	.	.	.	.	.	32A/L	.	.	.	.	.	.	.	.	.	.	.	.	.	.	.	.	.	.	.	.	.	.	.	.	.	.
.	.	.	.	.	.	.	.	.	32d/J	.	.	.	.	.	.	.	.	.	.	.	.	.	.	.	.	.	.	.	.	.	.	.	.	.	.
8A/	.	.	.	8A/	.	.	.	.	16f#/	.	.	.	.	.	.	.	.	.	.	.	.	.	.	.	.	.	.	.	.	.	.	.	.	.	.
.	.	.	.	.	.	.	.	.	16f#/	.	.	.	.	.	.	.	.	.	.	.	.	.	.	.	.	.	.	.	.	.	.	.	.	.	.
8F#/J	8r	.	.	8F#/J	8r	.	.	.	16f#/	.	8aa\	.	8r	.	.	8r	.	.	8r	.	.	8r	.	.	.	.	.	.	.	.	.	.	.	.	.
.	.	.	.	.	.	.	.	.	16f#/JJ	.	.	.	.	.	.	.	.	.	.	.	.	.	.	.	.	.	.	.	.	.	.	.	.	.	.
*	*	*	*	*	*	*	*	*	*rep	*	*	*	*	*	*	*	*	*	*	*	*	*	*	*	*	*	*	*	*	*	*	*	*	*	*
8D/L	4D\	.	.	8D/L	4D\	.	.	.	16f#/LL	.	4gg#X\	.	4r	.	.	4r	.	.	4r	.	.	4r	.	.	.	.	.	.	.	.	.	.	.	.	.
.	.	.	.	.	.	.	.	.	32A/L	.	.	.	.	.	.	.	.	.	.	.	.	.	.	.	.	.	.	.	.	.	.	.	.	.	.
.	.	.	.	.	.	.	.	.	32d/J	.	.	.	.	.	.	.	.	.	.	.	.	.	.	.	.	.	.	.	.	.	.	.	.	.	.
8A/	.	.	.	8A/	.	.	.	.	16f#/	.	.	.	.	.	.	.	.	.	.	.	.	.	.	.	.	.	.	.	.	.	.	.	.	.	.
.	.	.	.	.	.	.	.	.	16f#/	.	.	.	.	.	.	.	.	.	.	.	.	.	.	.	.	.	.	.	.	.	.	.	.	.	.
!	!	!	!	!	!	!	!	!	!	!	!LO:TX:a:t=dol[ce]	!	!	!	!	!	!	!	!	!	!	!	!	!	!	!	!	!	!	!	!	!	!	!	!
8F#/J	8r	.	.	8F#/J	8r	.	.	.	16f#/	.	8aa\	.	[8D\	glo-	.	[8A\	Glo-	.	[8d\	Glo-	.	[8f#/	Glo-	.	.	.	.	.	.	.	.	.	.	.	.
.	.	.	.	.	.	.	.	.	16f#/JJ	.	.	.	.	.	.	.	.	.	.	.	.	.	.	.	.	.	.	.	.	.	.	.	.	.	.
*	*	*	*	*	*	*	*	*	*Xrep	*	*	*	*	*	*	*	*	*	*	*	*	*	*	*	*	*	*	*	*	*	*	*	*	*	*
=45	=45	=45	=45	=45	=45	=45	=45	=45	=45	=45	=45	=45	=45	=45	=45	=45	=45	=45	=45	=45	=45	=45	=45	=45	=45	=45	=45	=45	=45	=45	=45	=45	=45	=45	=45
*	*	*	*	*rep	*rep	*	*	*	*rep	*	*	*	*	*	*	*	*	*	*	*	*	*	*	*	*	*	*	*	*	*	*	*	*	*	*
!	!	!	!	!	!	!	!LO:TX:a:t=problem: główka dolnej półnuty z prawej strony laski	!	!	!	!	!	!	!	!	!LO:LB:g=original	!	!	!LO:LB:g=original	!	!	!LO:LB:g=original	!	!	!	!	!	!	!	!	!	!	!	!	!
8D/L	4D\	.	.	8D/L	4D\	.	2.F#/ 2.A	.	16f#/LL	.	(4bb\	.	8.D\]	.	.	8.A/]	.	.	8.d\]	.	.	8.f#/]	.	.	2.D/	.	2.D/]	.	2.F#\ 2.A	2.f#\	.	2.a\	.	.	.
.	.	.	.	.	.	.	.	.	32A/L	.	.	.	.	.	.	.	.	.	.	.	.	.	.	.	.	.	.	.	.	.	.	.	.	.	.
.	.	.	.	.	.	.	.	.	32d/J	.	.	.	.	.	.	.	.	.	.	.	.	.	.	.	.	.	.	.	.	.	.	.	.	.	.
8A/	.	.	.	8A/	.	.	.	.	16f#/	.	.	.	.	.	.	.	.	.	.	.	.	.	.	.	.	.	.	.	.	.	.	.	.	.	.
.	.	.	.	.	.	.	.	.	16f#/	.	.	.	16D\	-ri-	.	16A/	-ri-	.	16d\	-ria	.	16f#/	-ri-	.	.	.	.	.	.	.	.	.	.	.	.
8F#/J	8r	.	.	8F#/J	8r	.	.	.	16f#/	.	8aa\)	.	8D\	-a	.	8A/	-a	.	8d\	pa	.	8f#/	-a	.	.	.	.	.	.	.	.	.	.	.	.
.	.	.	.	.	.	.	.	.	16f#/JJ	.	.	.	.	.	.	.	.	.	.	.	.	.	.	.	.	.	.	.	.	.	.	.	.	.	.
8D/L	4D\	.	.	8D/L	4D\	.	.	.	16f#/LL	.	4ff#\	.	8D\	pa-	.	8A/	pa-	.	8d\	pa-	.	8f#/	pat-	.	.	.	.	.	.	.	.	.	.	.	.
.	.	.	.	.	.	.	.	.	32A/L	.	.	.	.	.	.	.	.	.	.	.	.	.	.	.	.	.	.	.	.	.	.	.	.	.	.
.	.	.	.	.	.	.	.	.	32d/J	.	.	.	.	.	.	.	.	.	.	.	.	.	.	.	.	.	.	.	.	.	.	.	.	.	.
8A/	.	.	.	8A/	.	.	.	.	16f#/	.	.	.	8D\	-tri	.	8A/	-tri	.	8d\	-tri	.	8f#/	-ri	.	.	.	.	.	.	.	.	.	.	.	.
.	.	.	.	.	.	.	.	.	16f#/	.	.	.	.	.	.	.	.	.	.	.	.	.	.	.	.	.	.	.	.	.	.	.	.	.	.
8F#/J	8r	.	.	8F#/J	8r	.	.	.	16f#/	.	(16ddd\LL	.	8D\	et	.	8A/	et	.	8d\	et	.	8f#/	et	.	.	.	.	.	.	.	.	.	.	.	.
.	.	.	.	.	.	.	.	.	16f#/JJ	.	16ccc#\JJ)	.	.	.	.	.	.	.	.	.	.	.	.	.	.	.	.	.	.	.	.	.	.	.	.
*	*	*	*	*Xrep	*Xrep	*	*	*	*Xrep	*	*	*	*	*	*	*	*	*	*	*	*	*	*	*	*	*	*	*	*	*	*	*	*	*	*
=46	=46	=46	=46	=46	=46	=46	=46	=46	=46	=46	=46	=46	=46	=46	=46	=46	=46	=46	=46	=46	=46	=46	=46	=46	=46	=46	=46	=46	=46	=46	=46	=46	=46	=46	=46
!LO:LB:g=original	!	!	!	!	!	!	!LO:LB:g=original	!	!	!	!LO:LB:g=original	!	!LO:LB:g=original	!	!	!	!	!	!	!	!	!	!	!	!	!	!LO:LB:g=original	!	!LO:TX:a:t=SIC:s=4.Gn	!LO:LB:g=original	!	!	!	!	!
8D/L	4D\	.	.	8D/L	4D\	.	4.Gn/ 4.B	.	16gn/LL	.	4bb\	.	4.D\	fi-	.	4.B\	fi-	.	4.d\	fi-	.	4.gn/	fi-	.	2.D/	.	2.D/	.	4.G#\ 4.B	4.gX\	.	4.b\	.	.	.
.	.	.	.	.	.	.	.	.	32B/L	.	.	.	.	.	.	.	.	.	.	.	.	.	.	.	.	.	.	.	.	.	.	.	.	.	.
.	.	.	.	.	.	.	.	.	32d/J	.	.	.	.	.	.	.	.	.	.	.	.	.	.	.	.	.	.	.	.	.	.	.	.	.	.
8B/	.	.	.	8B/	.	.	.	.	16g/	.	.	.	.	.	.	.	.	.	.	.	.	.	.	.	.	.	.	.	.	.	.	.	.	.	.
.	.	.	.	.	.	.	.	.	16g/	.	.	.	.	.	.	.	.	.	.	.	.	.	.	.	.	.	.	.	.	.	.	.	.	.	.
8Gn/J	8r	.	.	8Gn/J	8r	.	.	.	16g/	.	16eee\LL	.	.	.	.	.	.	.	.	.	.	.	.	.	.	.	.	.	.	.	.	.	.	.	.
.	.	.	.	.	.	.	.	.	16g/JJ	.	16ddd\JJ	.	.	.	.	.	.	.	.	.	.	.	.	.	.	.	.	.	.	.	.	.	.	.	.
!	!	!	!	!	!	!	!	!	!	!	!	!	!	!	!	!	!	!	!	!	!	!	!	!	!	!	!	!	!LO:TX:a:t=SIC:s=4.Gn	!	!	!	!	!	!
8D/L	4D\	.	.	8D/L	4D\	.	4.E/ 4.c#	.	16g/LL	.	8.ccc#\L	.	4.D\	-li-	.	4.c#\	-li-	.	4.e\	-li-	.	4.g/	-li-	.	.	.	.	.	4.E\ 4.G#	4.e\	.	4.gX\	.	.	.
.	.	.	.	.	.	.	.	.	32c#/L	.	.	.	.	.	.	.	.	.	.	.	.	.	.	.	.	.	.	.	.	.	.	.	.	.	.
.	.	.	.	.	.	.	.	.	32e/J	.	.	.	.	.	.	.	.	.	.	.	.	.	.	.	.	.	.	.	.	.	.	.	.	.	.
8G/	.	.	.	8G/	.	.	.	.	16g/	.	.	.	.	.	.	.	.	.	.	.	.	.	.	.	.	.	.	.	.	.	.	.	.	.	.
.	.	.	.	.	.	.	.	.	16g/	.	16aa\L	.	.	.	.	.	.	.	.	.	.	.	.	.	.	.	.	.	.	.	.	.	.	.	.
.	.	.	.	.	.	.	.	.	.	.	8qbb/	.	.	.	.	.	.	.	.	.	.	.	.	.	.	.	.	.	.	.	.	.	.	.	.
8E/J	8r	.	.	8E/J	8r	.	.	.	16g/	.	16bb\	.	.	.	.	.	.	.	.	.	.	.	.	.	.	.	.	.	.	.	.	.	.	.	.
.	.	.	.	.	.	.	.	.	16g/JJ	.	16aa\JJ	.	.	.	.	.	.	.	.	.	.	.	.	.	.	.	.	.	.	.	.	.	.	.	.
=47	=47	=47	=47	=47	=47	=47	=47	=47	=47	=47	=47	=47	=47	=47	=47	=47	=47	=47	=47	=47	=47	=47	=47	=47	=47	=47	=47	=47	=47	=47	=47	=47	=47	=47	=47
!	!	!	!	!	!	!	!	!	!	!	!	!	!	!	!	!	!	!	!	!	!	!	!	!	!	!	!	!	!LO:LB:g=original	!	!	!	!	!	!
*	*	*	*	*	*	*	*^	*	*	*	*	*	*	*	*	*	*	*	*	*	*	*	*	*	*	*	*	*	*	*	*	*	*	*	*
8D/L	4D\	.	.	8D/L	4D\	.	2.d/	4.D/	.	16f#/LL	.	8.ddd\L	.	4D\	-o	.	4d\	-o	.	4d\	-o	.	4f#/	-o	.	4.D/	.	4.D/	.	4.D\ 4.F#	4.d/	.	4.f#\	.	.	.
.	.	.	.	.	.	.	.	.	.	32A/L	.	.	.	.	.	.	.	.	.	.	.	.	.	.	.	.	.	.	.	.	.	.	.	.	.	.
.	.	.	.	.	.	.	.	.	.	32d/J	.	.	.	.	.	.	.	.	.	.	.	.	.	.	.	.	.	.	.	.	.	.	.	.	.	.
8A/	.	.	.	8A/	.	.	.	.	.	16f#/	.	.	.	.	.	.	.	.	.	.	.	.	.	.	.	.	.	.	.	.	.	.	.	.	.	.
.	.	.	.	.	.	.	.	.	.	16f#/	.	16aa\L	.	.	.	.	.	.	.	.	.	.	.	.	.	.	.	.	.	.	.	.	.	.	.	.
.	.	.	.	.	.	.	.	.	.	.	.	8qbb/	.	.	.	.	.	.	.	.	.	.	.	.	.	.	.	.	.	.	.	.	.	.	.	.
8F#/J	8r	.	.	8F#/J	8r	.	.	.	.	16f#/	.	16bb\	.	8r	.	.	8r	.	.	8r	.	.	8r	.	.	.	.	.	.	.	.	.	.	.	.	.
.	.	.	.	.	.	.	.	.	.	16f#/JJ	.	16aa\JJ	.	.	.	.	.	.	.	.	.	.	.	.	.	.	.	.	.	.	.	.	.	.	.	.
4B\	4.ryy	8:	.	4B\	4.ryy	.	.	4B\	.	16f#/LL	.	8.ddd\L	.	8r	.	.	8r	.	.	8r	.	.	8r	.	.	4D/	.	4D/	.	4D\ 4F#	4d/	.	4f#\	.	.	.
.	.	.	.	.	.	.	.	.	.	32B/L	.	.	.	.	.	.	.	.	.	.	.	.	.	.	.	.	.	.	.	.	.	.	.	.	.	.
.	.	.	.	.	.	.	.	.	.	32d/J	.	.	.	.	.	.	.	.	.	.	.	.	.	.	.	.	.	.	.	.	.	.	.	.	.	.
.	.	.	.	.	.	.	.	.	.	16f#/	.	.	.	8B\	et	.	8d\	et	.	8f#\	et	.	8b\	et	.	.	.	.	.	.	.	.	.	.	.	.
.	.	.	.	.	.	.	.	.	.	16f#/	.	16bb\L	.	.	.	.	.	.	.	.	.	.	.	.	.	.	.	.	.	.	.	.	.	.	.	.
.	.	.	.	.	.	.	.	.	.	.	.	8qccc#/	.	.	.	.	.	.	.	.	.	.	.	.	.	.	.	.	.	.	.	.	.	.	.	.
8A\	.	x	.	8A\	.	.	.	8A\	.	16f#/	.	16ccc#\	.	8A\	spi-	.	8d\	spi-	.	8f#\	spi-	.	8b\	spi-	.	8r	.	8r	.	8r	8r	.	8r	.	.	.
.	.	.	.	.	.	.	.	.	.	16f#/JJ	.	16bb\JJ	.	.	.	.	.	.	.	.	.	.	.	.	.	.	.	.	.	.	.	.	.	.	.	.
*v	*v	*	*	*	*	*	*	*	*	*	*	*	*	*	*	*	*	*	*	*	*	*	*	*	*	*	*	*	*	*	*	*	*	*	*	*
*	*	*	*v	*v	*	*	*	*	*	*	*	*	*	*	*	*	*	*	*	*	*	*	*	*	*	*	*	*	*	*	*	*	*	*	*
=48	=48	=48	=48	=48	=48	=48	=48	=48	=48	=48	=48	=48	=48	=48	=48	=48	=48	=48	=48	=48	=48	=48	=48	=48	=48	=48	=48	=48	=48	=48	=48	=48	=48	=48
!	!	!	!	!	!LO:TX:a:t=problem: nuty z różnych głosów mają wspólną laskę	!	!	!LO:LB:g=original	!	!	!	!	!	!	!	!	!	!LO:LB:g=original	!	!	!	!	!	!LO:TX:a:t=2.	!	!LO:TX:a:t=2.	!	!LO:TX:a:t=problem: adnotacja jaśniejszym atramentem "8ctava?"	!	!	!	!	!	!
!	!	!	!	!	!	!	!	!	!	!	!	!	!	!	!	!	!	!	!	!	!	!	!	!LO:N:vis=0	!	!LO:N:vis=0	!	!	!	!	!	!	!LO:N:vis=0	!
4G#X\	6 5	.	4G#X\	.	(4.d/ 4G#X/	4G#X/yy	.	16e/LL	.	8.ddd\L	.	8.G#\	-ri-	.	8.d\	-ri-	.	8.e\	-ri-	.	8.b\	-ri-	.	1.r	.	1.r	.	4GG#X/	4r	.	4r	.	1.r	.
.	.	.	.	.	.	.	.	(32B/L	.	.	.	.	.	.	.	.	.	.	.	.	.	.	.	.	.	.	.	.	.	.	.	.	.	.
.	.	.	.	.	.	.	.	32d/J)	.	.	.	.	.	.	.	.	.	.	.	.	.	.	.	.	.	.	.	.	.	.	.	.	.	.
.	.	.	.	.	.	.	.	16e/	.	.	.	.	.	.	.	.	.	.	.	.	.	.	.	.	.	.	.	.	.	.	.	.	.	.
.	.	.	.	.	.	.	.	16e/	.	16bb\L	.	16G#\	-tu-	.	16d\	-tu-	.	16e\	-tu-	.	16b\	-tu-	.	.	.	.	.	.	.	.	.	.	.	.
.	.	.	.	.	.	.	.	.	.	8qccc#/	.	.	.	.	.	.	.	.	.	.	.	.	.	.	.	.	.	.	.	.	.	.	.	.
8r	.	.	8r	.	.	8r	.	16e/	.	16ccc#\	.	8G#\	-i	.	8d\	-i	.	8e\	-i	.	8b\	-i	.	.	.	.	.	8r	8r	.	8r	.	.	.
.	.	.	.	.	.	.	.	16e/JJ	.	16bb\JJ	.	.	.	.	.	.	.	.	.	.	.	.	.	.	.	.	.	.	.	.	.	.	.	.
4A\	9 5 3	.	4A\	.	4.c#/)	4A\	.	16e/LL	.	4bb\	.	(4A\	San-	.	(4.c#\	san-	.	(4e\	San-	.	(4b\	san-	.	.	.	.	.	4AA/	4r	.	4r	.	.	.
.	.	.	.	.	.	.	.	32A/L	.	.	.	.	.	.	.	.	.	.	.	.	.	.	.	.	.	.	.	.	.	.	.	.	.	.
.	.	.	.	.	.	.	.	32c#/J	.	.	.	.	.	.	.	.	.	.	.	.	.	.	.	.	.	.	.	.	.	.	.	.	.	.
.	.	.	.	.	.	.	.	16e/	.	.	.	.	.	.	.	.	.	.	.	.	.	.	.	.	.	.	.	.	.	.	.	.	.	.
.	.	.	.	.	.	.	.	16c#/	.	.	.	.	.	.	.	.	.	.	.	.	.	.	.	.	.	.	.	.	.	.	.	.	.	.
8F#\	3	.	8F#\	.	.	8F#\	.	16c#/	.	8aa\	.	8F#\	.	.	.	.	.	(8f#\)	.	.	8a\)	-cto	.	.	.	.	.	8FF#/	8f#/	.	8a\	.	.	.
.	.	.	.	.	.	.	.	16c#/JJ	.	.	.	.	.	.	.	.	.	.	.	.	.	.	.	.	.	.	.	.	.	.	.	.	.	.
*	*	*	*	*	*v	*v	*	*	*	*	*	*	*	*	*	*	*	*	*	*	*	*	*	*	*	*	*	*	*	*	*	*	*	*
=49	=49	=49	=49	=49	=49	=49	=49	=49	=49	=49	=49	=49	=49	=49	=49	=49	=49	=49	=49	=49	=49	=49	=49	=49	=49	=49	=49	=49	=49	=49	=49	=49	=49
!	!	!	!	!	!	!	!	!	!	!	!LO:LB:g=original	!	!	!LO:LB:g=original	!	!	!	!	!	!LO:LB:g=original	!	!	!	!	!	!	!LO:TX:a:t=loco	!	!	!	!	!	!
4B\	8 4	.	4B\	.	2.B/	.	16e/LL	.	(8.gg#X\L	.	2.B\)	.	.	2.B\)	.	.	4.e\)	.	.	(4.g#X/	San-	.	.	.	.	.	2.B\	4e/	.	4g#\	.	.	.
.	.	.	.	.	.	.	32B/L	.	.	.	.	.	.	.	.	.	.	.	.	.	.	.	.	.	.	.	.	.	.	.	.	.	.
.	.	.	.	.	.	.	32e/J	.	.	.	.	.	.	.	.	.	.	.	.	.	.	.	.	.	.	.	.	.	.	.	.	.	.
.	.	.	.	.	.	.	16g#/	.	.	.	.	.	.	.	.	.	.	.	.	.	.	.	.	.	.	.	.	.	.	.	.	.	.
.	.	.	.	.	.	.	16g#/	.	16aa\K	.	.	.	.	.	.	.	.	.	.	.	.	.	.	.	.	.	.	.	.	.	.	.	.
8r	.	.	8r	.	.	.	16g#/	.	8gg#\J	.	.	.	.	.	.	.	.	.	.	.	.	.	.	.	.	.	.	8r	.	8r	.	.	.
.	.	.	.	.	.	.	16g#/JJ	.	.	.	.	.	.	.	.	.	.	.	.	.	.	.	.	.	.	.	.	.	.	.	.	.	.
!	!	!	!	!	!	!	!	!	!	!	!	!	!	!	!	!	!	!	!	!	!	!	!	!	!	!	!	!	!	!LO:TX:a:t=problem: zapis wysokości niepewny	!	!	!
4BB/	#	.	4BB/	.	.	.	16f#/LL	.	8.ff#\L	.	.	.	.	.	.	.	4.d#X\	.	.	4.f#/)	.	.	.	.	.	.	.	4d#X/	.	4f#\	.	.	.
.	.	.	.	.	.	.	32B/L	.	.	.	.	.	.	.	.	.	.	.	.	.	.	.	.	.	.	.	.	.	.	.	.	.	.
.	.	.	.	.	.	.	32d#X/JJJ	.	.	.	.	.	.	.	.	.	.	.	.	.	.	.	.	.	.	.	.	.	.	.	.	.	.
.	.	.	.	.	.	.	16f#/LL	.	.	.	.	.	.	.	.	.	.	.	.	.	.	.	.	.	.	.	.	.	.	.	.	.	.
.	.	.	.	.	.	.	16f#/	.	16gg#\K	.	.	.	.	.	.	.	.	.	.	.	.	.	.	.	.	.	.	.	.	.	.	.	.
8r	.	.	8r	.	.	.	16f#/	.	8ff#\J)	.	.	.	.	.	.	.	.	.	.	.	.	.	.	.	.	.	.	8r	.	8r	.	.	.
.	.	.	.	.	.	.	16f#/JJ	.	.	.	.	.	.	.	.	.	.	.	.	.	.	.	.	.	.	.	.	.	.	.	.	.	.
=50	=50	=50	=50	=50	=50	=50	=50	=50	=50	=50	=50	=50	=50	=50	=50	=50	=50	=50	=50	=50	=50	=50	=50	=50	=50	=50	=50	=50	=50	=50	=50	=50	=50
!	!	!	!	!	!	!	!	!	!LO:LB:g=original	!	!	!	!	!	!	!	!	!	!	!	!	!	!	!	!	!	!	!	!	!	!LO:TX:a:t=problem: brak 4 pustych taktów	!	!
4.E\	8	.	4.E\	.	4.E/	.	16e/LL	.	4ee\	.	4E\	-cto	.	4G#X/	-cto	.	4e\	-cto	.	4e/	-cto	.	8r	.	8r	.	4E\	4e/	.	4e\	.	2.r	.
.	.	.	.	.	.	.	32G#/L	.	.	.	.	.	.	.	.	.	.	.	.	.	.	.	.	.	.	.	.	.	.	.	.	.	.
.	.	.	.	.	.	.	32B/J	.	.	.	.	.	.	.	.	.	.	.	.	.	.	.	.	.	.	.	.	.	.	.	.	.	.
.	.	.	.	.	.	.	16e/	.	.	.	.	.	.	.	.	.	.	.	.	.	.	.	8e\L	.	8e\L	.	.	.	.	.	.	.	.
.	.	.	.	.	.	.	16e/	.	.	.	.	.	.	.	.	.	.	.	.	.	.	.	.	.	.	.	.	.	.	.	.	.	.
.	.	.	.	.	.	.	16e/	.	8r	.	8r	.	.	8r	.	.	8r	.	.	8r	.	.	8e\J	.	8e\J	.	8r	8r	.	8r	.	.	.
.	.	.	.	.	.	.	16e/JJ	.	.	.	.	.	.	.	.	.	.	.	.	.	.	.	.	.	.	.	.	.	.	.	.	.	.
!LO:TX:a:t=prbolem: niejasna adnotacja "fertta", "Sertta", por. t. 6	!	!	!	!	!	!	!	!	!	!	!	!	!	!	!	!	!LO:TX:a:t=problem: adnotacja "1o."	!	!	!	!	!	!	!	!	!	!	!	!	!	!	!	!
4E\	.	.	4E\	.	4E/	.	4e/	.	4r	.	4r	.	.	4r	.	.	4r	.	.	4r	.	.	4e\	.	4e\	.	4r	4r	.	4r	.	.	.
!	!	!	!	!	!	!	!	!	!	!	!	!	!	!	!	!	!LO:TX:a:t=problem: ołówkiem dopisane "Solo"	!	!	!	!	!	!	!	!	!	!	!	!	!	!	!	!
!	!	!	!	!	!	!	!	!	!	!	!	!	!	!	!	!	!LO:TX:a:t=dolce	!	!	!	!	!	!	!	!	!	!	!	!	!	!	!	!
8r	.	.	8r	.	8r	.	16g#\LL	p	(16b\LL	.	8r	.	.	8r	.	.	16g#\	si-	.	16b\	Si-	.	8r	.	8r	.	(16G#\LL 16B	8r	.	8r	.	.	.
.	.	.	.	.	.	.	16a\JJ	.	16cc#\JJ)	.	.	.	.	.	.	.	16a\	-cut	.	16cc#\	-cut	.	.	.	.	.	16A\JJ) 16c#	.	.	.	.	.	.
=51	=51	=51	=51	=51	=51	=51	=51	=51	=51	=51	=51	=51	=51	=51	=51	=51	=51	=51	=51	=51	=51	=51	=51	=51	=51	=51	=51	=51	=51	=51	=51	=51	=51
!	!	!	!LO:LB:g=original	!	!	!	!	!	!	!	!LO:TX:a:t=3.	!	!	!LO:TX:a:t=3.	!	!	!LO:LB:g=original	!	!	!	!	!	!LO:TX:a:t=3.	!	!LO:TX:a:t=3.	!	!	!LO:TX:a:t=3.	!	!LO:TX:a:t=3.	!	!	!
!	!	!	!	!	!	!	!	!	!	!	!LO:N:vis=0	!	!	!LO:N:vis=0	!	!	!	!	!	!	!	!	!LO:N:vis=0	!	!LO:N:vis=0	!	!	!LO:N:vis=0	!	!	!LO:N:vis=0	!	!
8E\	.	.	8E\	.	16r	.	8.b\L	.	8.dd\L	.	1.r	.	.	1.r	.	.	(8.b\	e-	.	8.dd\L	e-	.	1.r	.	1.r	.	8.B\L 8.d	1.r	.	1.r	.	2.r	.
.	.	.	.	.	16e'\	.	.	.	.	.	.	.	.	.	.	.	.	.	.	.	.	.	.	.	.	.	.	.	.	.	.	.	.
*	*	*	*	*	*tremolo	*	*	*	*	*	*	*	*	*	*	*	*	*	*	*	*	*	*	*	*	*	*	*	*	*	*	*	*
!	!	!	!	!	!LO:TX:a:t=problem: u góry cztery kropki (staccato?)	!	!	!	!	!	!	!	!	!	!	!	!	!	!	!	!	!	!	!	!	!	!	!	!	!	!	!	!
8r	.	.	8r	.	16e'\LL	.	.	.	.	.	.	.	.	.	.	.	.	.	.	.	.	.	.	.	.	.	.	.	.	.	.	.	.
.	.	.	.	.	16e'\	.	16cc#\K	.	16ee\K	.	.	.	.	.	.	.	16cc#\)	.	.	16ee\Jk	.	.	.	.	.	.	16c#\K 16e	.	.	.	.	.	.
8r	.	.	8r	.	16e'\	.	8b\J	.	8dd\J	.	.	.	.	.	.	.	8b\	-rat	.	8dd\	-rat	.	.	.	.	.	8B\J 8d	.	.	.	.	.	.
.	.	.	.	.	16e'\JJ	.	.	.	.	.	.	.	.	.	.	.	.	.	.	.	.	.	.	.	.	.	.	.	.	.	.	.	.
8E\	.	.	8E\	.	16r	.	8.a\L	.	8.cc#\L	.	.	.	.	.	.	.	(8.a\L	in	.	8.cc#\L	in	.	.	.	.	.	8.A\L 8.c#	.	.	.	.	.	.
.	.	.	.	.	16e\	.	.	.	.	.	.	.	.	.	.	.	.	.	.	.	.	.	.	.	.	.	.	.	.	.	.	.	.
!	!	!	!	!	!LO:TX:a:t=problem: u góry cztery kropki (staccato?)	!	!	!	!	!	!	!	!	!	!	!	!	!	!	!	!	!	!	!	!	!	!	!	!	!	!	!	!
8r	.	.	8r	.	16e'\LL	.	.	.	.	.	.	.	.	.	.	.	.	.	.	.	.	.	.	.	.	.	.	.	.	.	.	.	.
.	.	.	.	.	16e'\	.	16g#\K	.	16b\K	.	.	.	.	.	.	.	16g#\Jk)	.	.	16b\Jk	.	.	.	.	.	.	16G#\K 16B	.	.	.	.	.	.
8r	.	.	8r	.	16e'\	.	8a\J	.	8cc#\J	.	.	.	.	.	.	.	8a\	prin-	.	8cc#\	prin-	.	.	.	.	.	8A\J 8c#	.	.	.	.	.	.
.	.	.	.	.	16e'\JJ	.	.	.	.	.	.	.	.	.	.	.	.	.	.	.	.	.	.	.	.	.	.	.	.	.	.	.	.
=52	=52	=52	=52	=52	=52	=52	=52	=52	=52	=52	=52	=52	=52	=52	=52	=52	=52	=52	=52	=52	=52	=52	=52	=52	=52	=52	=52	=52	=52	=52	=52	=52	=52
!	!	!	!	!	!	!	!LO:LB:g=original	!	!	!	!	!	!	!	!	!	!	!	!	!	!	!	!	!	!	!	!	!	!	!	!	!	!
8E\	.	.	8E\	.	16r	.	8.b\L	.	8.dd\L	.	.	.	.	.	.	.	(8.b\L	-ci-	.	(8.dd\L	-ci-	.	.	.	.	.	8.B\L 8.d	.	.	.	.	2.r	.
.	.	.	.	.	16e\	.	.	.	.	.	.	.	.	.	.	.	.	.	.	.	.	.	.	.	.	.	.	.	.	.	.	.	.
!	!	!	!	!	!LO:TX:a:t=problem: u góry cztery kropki (staccato?)	!	!	!	!	!	!	!	!	!	!	!	!	!	!	!	!	!	!	!	!	!	!	!	!	!	!	!	!
8r	.	.	8r	.	16e'\LL	.	.	.	.	.	.	.	.	.	.	.	.	.	.	.	.	.	.	.	.	.	.	.	.	.	.	.	.
.	.	.	.	.	16e'\	.	16cc#\K	.	16ee\K	.	.	.	.	.	.	.	16cc#\Jk)	.	.	16ee\K	.	.	.	.	.	.	16c#\K 16e	.	.	.	.	.	.
8r	.	.	8r	.	16e'\	.	8b\J	.	8dd\J	.	.	.	.	.	.	.	8b\	-pio	.	8dd\J)	.	.	.	.	.	.	8B\J 8d	.	.	.	.	.	.
.	.	.	.	.	16e'\JJ	.	.	.	.	.	.	.	.	.	.	.	.	.	.	.	.	.	.	.	.	.	.	.	.	.	.	.	.
.	.	.	.	.	.	.	.	.	8qdd/	.	.	.	.	.	.	.	.	.	.	.	.	.	.	.	.	.	.	.	.	.	.	.	.
8AA/	.	.	8AA/	f	16r	.	4a\	.	4cc#\	.	.	.	.	.	.	.	4a\	.	.	4cc#\	-pio	.	.	.	.	.	8.A\L 8.c#	.	.	.	.	.	.
.	.	.	.	.	16e\	.	.	.	.	.	.	.	.	.	.	.	.	.	.	.	.	.	.	.	.	.	.	.	.	.	.	.	.
!	!	!	!	!	!LO:TX:a:t=problem: u góry cztery kropki (staccato?)	!	!	!	!	!	!	!	!	!	!	!	!	!	!	!	!	!	!	!	!	!	!	!	!	!	!	!	!
8r	.	.	8r	.	16e'\LL	.	.	.	.	.	.	.	.	.	.	.	.	.	.	.	.	.	.	.	.	.	.	.	.	.	.	.	.
.	.	.	.	.	16e'\	.	.	.	.	.	.	.	.	.	.	.	.	.	.	.	.	.	.	.	.	.	16A\K 16c#	.	.	.	.	.	.
8r	.	.	8r	.	16e'\	.	16a\LL	.	(16cc#\LL	.	.	.	.	.	.	.	16a\LL	et	.	16cc#\LL	et	.	.	.	.	.	8B\J 8d	.	.	.	.	.	.
.	.	.	.	.	16e'\JJ	.	16b\JJ	.	16dd\JJ)	.	.	.	.	.	.	.	16b\JJ	.	.	16dd\JJ	.	.	.	.	.	.	.	.	.	.	.	.	.
*	*	*	*	*	*Xtremolo	*	*	*	*	*	*	*	*	*	*	*	*	*	*	*	*	*	*	*	*	*	*	*	*	*	*	*	*
=53	=53	=53	=53	=53	=53	=53	=53	=53	=53	=53	=53	=53	=53	=53	=53	=53	=53	=53	=53	=53	=53	=53	=53	=53	=53	=53	=53	=53	=53	=53	=53	=53	=53
*	*	*	*	*	*^	*	*	*	*	*	*	*	*	*	*	*	*	*	*	*	*	*	*	*	*	*	*	*	*	*	*	*	*
!LO:LB:g=original	!	!	!	!	!LO:LB:g=original	!	!	!	!	!	!	!	!	!	!	!	!	!	!	!	!LO:LB:g=original	!	!	!	!	!	!	!	!	!	!	!	!	!
4.A\	.	.	4.A\	.	16.ryy	16.e\LL	.	8cc#\L	.	16ee\LL	.	2.r	.	.	2.r	.	.	4cc#\	nunc	.	4ee\	nunc	.	2.r	.	2.r	.	4.c#\ 4.e	2.r	.	2.r	.	2.r	.
.	.	.	.	.	.	.	.	.	.	16aa\	.	.	.	.	.	.	.	.	.	.	.	.	.	.	.	.	.	.	.	.	.	.	.	.
.	.	.	.	.	32ryy	16c#\J	.	.	.	.	.	.	.	.	.	.	.	.	.	.	.	.	.	.	.	.	.	.	.	.	.	.	.	.
!	!	!	!	!	!LO:TX:a:t=problem: niepewna interpretacja	!	!	!	!	!	!	!	!	!	!	!	!	!	!	!	!	!	!	!	!	!	!	!	!	!	!	!	!	!
.	.	.	.	.	4A/	.	.	16cc#\L	.	16ee\	.	.	.	.	.	.	.	.	.	.	.	.	.	.	.	.	.	.	.	.	.	.	.	.
.	.	.	.	.	.	8A\J	.	.	.	.	.	.	.	.	.	.	.	.	.	.	.	.	.	.	.	.	.	.	.	.	.	.	.	.
.	.	.	.	.	.	.	.	16a\	.	16cc#\	.	.	.	.	.	.	.	.	.	.	.	.	.	.	.	.	.	.	.	.	.	.	.	.
.	.	.	.	.	.	.	.	16b\	.	16dd\	.	.	.	.	.	.	.	8cc#\	et	.	8ee\	et	.	.	.	.	.	.	.	.	.	.	.	.
.	.	.	.	.	.	4.ryy	.	.	.	.	.	.	.	.	.	.	.	.	.	.	.	.	.	.	.	.	.	.	.	.	.	.	.	.
.	.	.	.	.	.	.	.	16cc#\JJ	.	16ee\JJ	.	.	.	.	.	.	.	.	.	.	.	.	.	.	.	.	.	.	.	.	.	.	.	.
8D\L	.	.	8D\L	.	8d\L	.	.	8dd\	.	8ff#\	.	.	.	.	.	.	.	4dd\	sem-	.	4ff#\	sem-	.	.	.	.	.	4d\ 4f#	.	.	.	.	.	.
8D\J	.	.	8D\J	.	8d\J	.	.	16r	.	16r	.	.	.	.	.	.	.	.	.	.	.	.	.	.	.	.	.	.	.	.	.	.	.	.
.	.	.	.	.	.	.	.	(16dd\LL	.	16ff#\LL	.	.	.	.	.	.	.	.	.	.	.	.	.	.	.	.	.	.	.	.	.	.	.	.
8r	.	.	8r	.	8r	.	.	16cc#\	.	16ee\	.	.	.	.	.	.	.	16cc#\LL	-per	.	16ee\LL	-per	.	.	.	.	.	(16c#\LL 16e	.	.	.	.	.	.
.	.	.	.	.	.	16.ryy	.	.	.	.	.	.	.	.	.	.	.	.	.	.	.	.	.	.	.	.	.	.	.	.	.	.	.	.
.	.	.	.	.	.	.	.	16b\JJ)	.	16dd\JJ	.	.	.	.	.	.	.	16b\JJ	.	.	16dd\JJ	.	.	.	.	.	.	16B\JJ) 16d	.	.	.	.	.	.
*	*	*	*	*	*v	*v	*	*	*	*	*	*	*	*	*	*	*	*	*	*	*	*	*	*	*	*	*	*	*	*	*	*	*	*
=54	=54	=54	=54	=54	=54	=54	=54	=54	=54	=54	=54	=54	=54	=54	=54	=54	=54	=54	=54	=54	=54	=54	=54	=54	=54	=54	=54	=54	=54	=54	=54	=54	=54
*tremolo	*	*	*tremolo	*	*tremolo	*	*	*	*	*	*	*	*	*	*	*	*	*	*	*	*	*	*	*	*	*	*	*	*	*	*	*	*
!	!	!	!	!	!	!	!	!	!	!	!	!	!	!	!	!	!LO:LB:g=original	!	!	!	!	!	!	!	!	!	!LO:LB:g=original	!	!	!	!	!LO:LB:g=original	!
8E\L	7 5	.	8E\L	.	8e\L	.	16a/LL	.	(16cc#\LL	.	4r	.	.	8r	.	.	4a\	et	.	4cc#\	et	.	4r	.	4r	.	4A\ 4c#	4r	.	4r	.	4r	.
.	.	.	.	.	.	.	16c#/	.	16ee\)	.	.	.	.	.	.	.	.	.	.	.	.	.	.	.	.	.	.	.	.	.	.	.	.
8E\	.	.	8E\	.	8e\	.	16e'/	.	16cc#\	.	.	.	.	8r	.	.	.	.	.	.	.	.	.	.	.	.	.	.	.	.	.	.	.
.	.	.	.	.	.	.	(16e/	.	16cc#\	.	.	.	.	.	.	.	.	.	.	.	.	.	.	.	.	.	.	.	.	.	.	.	.
8E\J	6 4	.	8E\J	.	8e\J	.	16d/	.	16b\	.	8E\	in	.	(16d\LL	in	.	16g#\LL	in	.	16b\LL	in	.	8r	.	8r	.	16G#\LL 16B	8r	.	8r	.	8r	.
.	.	.	.	.	.	.	16c#/JJ)	.	16a\JJ	.	.	.	.	16c#\JJ)	.	.	16a\JJ	.	.	16a\JJ	.	.	.	.	.	.	16A\JJ 16c#	.	.	.	.	.	.
*	*	*	*	*	*Xtremolo	*	*	*	*	*	*	*	*	*	*	*	*	*	*	*	*	*	*	*	*	*	*	*	*	*	*	*	*
!	!	!	!	!	!	!	!	!	!	!	!	!	!	!	!	!	!	!	!	!	!	!	!	!	!	!	!LO:TX:a:t=problem: zapis wysokości niejasny	!	!	!	!	!	!
8A\L	5: 3:	.	8A\L	.	16e/LL	.	8cc#\L	.	16ee\LL	.	8.A\	se-	.	8.c#\	Se-	.	8.cc#\L	Se-	.	8.ee\L	sæ-	.	4.A/	.	4.a\	.	8.e\	8cc#\L	.	(16ee\LL	.	8r	.
.	3 1	.	.	.	16c#/J	.	.	.	16aa\	.	.	.	.	.	.	.	.	.	.	.	.	.	.	.	.	.	.	.	.	16aa\	.	.	.
!	!	!	!	!	!	!	!	!	!	!	!	!	!	!	!	!	!	!	!	!	!	!	!	!	!	!	!	!	!	!	!	!LO:TX:a:t=problem: brak pauzy	!
8A\	4 2	.	8A\	.	8A/J	.	16cc#\L	.	(16ee\	.	.	.	.	.	.	.	.	.	.	.	.	.	.	.	.	.	.	(16cc#\L	.	16ee\	.	16ryy	.
.	.	.	.	.	.	.	16a\	.	16cc#\	.	16A\	-cu-	.	16A\	-cu-	.	16a\Jk	.	.	16cc#\Jk	.	.	.	.	.	.	(16A\L 16c#	16a\	.	16cc#\	.	(16ccc#\LL	.
8A\J	5 3	.	8A\J	.	8r	.	16b\	.	16dd\	.	8A\	-la	.	8A\	-la	.	16b\	-cu-	.	16dd\	-cu-	.	.	.	.	.	16B\ 16d	16b\	.	16dd\	.	16ddd\	.
.	.	.	.	.	.	.	16cc#\JJ	.	16ee\JJ)	.	.	.	.	.	.	.	16cc#\	-la	.	16ee\	-la	.	.	.	.	.	16c#\J) 16e	16cc#\JJ)	.	16ee\JJ)	.	16eee\JJ)	.
=55	=55	=55	=55	=55	=55	=55	=55	=55	=55	=55	=55	=55	=55	=55	=55	=55	=55	=55	=55	=55	=55	=55	=55	=55	=55	=55	=55	=55	=55	=55	=55	=55	=55
*Xtremolo	*	*	*Xtremolo	*	*	*	*	*	*	*	*	*	*	*	*	*	*	*	*	*	*	*	*	*	*	*	*	*	*	*	*	*	*
!	!	!	!	!	!	!	!	!	!LO:LB:g=original	!	!LO:LB:g=original	!	!	!	!	!	!	!	!	!	!	!	!	!	!	!	!	!	!	!LO:LB:g=original	!	!LO:N:vis=4.	!
8D\L	3:	.	8D\L	.	8d\L	.	8dd\	.	8ff#\	.	4D\	se-	.	8.A\L	.	.	4dd\	Se-	.	4ff#\	sæ-	.	4.d\	.	4.f#\	.	4d\ 4f#	4dd\	.	4ff#\	.	4fff#\	.
8D\J	.	.	8D\J	.	8d\J	.	16r	.	16r	.	.	.	.	.	.	.	.	.	.	.	.	.	.	.	.	.	.	.	.	.	.	.	.
.	.	.	.	.	.	.	16dd\LL	.	16ff#\LL	.	.	.	.	(16d\L	Se-	.	.	.	.	.	.	.	.	.	.	.	.	.	.	.	.	.	.
8r	.	.	8r	.	8r	.	16cc#\	.	16ee\	.	8D\	-cu-	.	16e\)	.	.	16cc#\LL	-cu-	.	16ee\LL	-cu-	.	.	.	.	.	(16c#\LL 16e	(16cc#\LL	.	(16ee\LL	.	(16eee\LL	.
.	.	.	.	.	.	.	16b\JJ	.	16dd\JJ	.	.	.	.	16f#\JJ	-cu-	.	16b\JJ	.	.	16dd\JJ	.	.	.	.	.	.	16B\JJ) 16d	16b\JJ)	.	16dd\JJ)	.	16ddd\JJ)	.
*tremolo	*	*	*tremolo	*	*tremolo	*	*	*	*	*	*	*	*	*	*	*	*	*	*	*	*	*	*	*	*	*	*	*	*	*	*	*	*
!	!	!	!	!	!	!	!	!	!	!	!	!	!	!LO:LB:g=original	!	!	!	!	!	!	!	!	!	!	!	!	!	!	!	!	!	!	!
8E\L	6 4:	.	8E\L	.	8e\L	.	16a/LL	.	16cc#\LL	.	4.E\	-lo-	.	4e\	-lo-	.	(4a\	-lo-	.	4cc#\	-lo-	.	8r	.	8r	.	4A\ 4c#	4a\	.	4cc#\	.	4ccc#\	.
!	!	!	!	!	!	!	!LO:TX:a:t=problem: staccato powinno być chyba przy następnej nucie	!	!	!	!	!	!	!	!	!	!	!	!	!	!	!	!	!	!	!	!	!	!	!	!	!	!
.	.	.	.	.	.	.	16c#'/	.	16ee\	.	.	.	.	.	.	.	.	.	.	.	.	.	.	.	.	.	.	.	.	.	.	.	.
8E\	.	.	8E\	.	8e\	.	16e/	.	16cc#\	.	.	.	.	.	.	.	.	.	.	.	.	.	8e\L	.	8e\L	.	.	.	.	.	.	.	.
.	.	.	.	.	.	.	(16e/	.	16cc#\	.	.	.	.	.	.	.	.	.	.	.	.	.	.	.	.	.	.	.	.	.	.	.	.
8E\J	7	.	8E\J	.	8e\J	.	16d/	.	16b\	.	.	.	.	(16d\LL	-rum	.	16g#\LL	.	.	16b\LL	.	.	8e\J	.	8e\J	.	(16G#\LL 16B	(16g#\LL	.	(16b\LL	.	(16bb\LL	.
.	.	.	.	.	.	.	16c#/JJ)	.	16a\JJ	.	.	.	.	16c#\JJ)	.	.	16a\JJ)	.	.	16a\JJ	.	.	.	.	.	.	16A\JJ) 16c#	16a\JJ)	.	16a\JJ)	.	16aa\JJ)	.
*Xtremolo	*	*	*	*	*Xtremolo	*	*	*	*	*	*	*	*	*	*	*	*	*	*	*	*	*	*	*	*	*	*	*	*	*	*	*	*
=56	=56	=56	=56	=56	=56	=56	=56	=56	=56	=56	=56	=56	=56	=56	=56	=56	=56	=56	=56	=56	=56	=56	=56	=56	=56	=56	=56	=56	=56	=56	=56	=56	=56
4AA/	8	.	4AA/	.	4A/	ff	4c#/	ff	4a/	ff	4A\	-rum	.	4c#\	a-	.	4a\	-rum	.	4a\	-rum	.	4A/	.	4e\	.	4A\ 4c#	4a\	.	4a\	.	4aa\	.
!	!	!	!	!	!	!	!	!	!	!	!	!	!	!	!	!	!	!	!	!LO:TX:a:t=problem: niepewne podłożenie sylaby	!	!	!	!	!	!	!	!	!	!	!	!	!
8A\	.	.	8A\	.	8a\	.	8a/	.	8aa\	.	8A\	a-	.	8A\	.	.	(8a\	a-	.	8a\	a-	.	8A/	.	8A/	.	8A\	8a\	.	8a\	.	8aa\	.
!	!	!	!	!	!	!	!	!	!	!	!	!	!	!	!	!	!	!	!	!	!	!	!LO:TX:a:t=problem: brak zapisu	!	!	!	!	!	!	!	!	!	!
4G#\	.	.	4G#\	.	4g#\	.	4g#/	.	4gg#\	.	(4G#\	.	.	4G#/	.	.	4g#\	.	.	4g#\	.	.	4ryy	.	4G#X/	.	4G#\	4g#\	.	4g#\	.	4gg#\	.
8A\	.	.	8A\	.	8a\	.	8a/	.	8aa\	.	8A\	.	.	8A/	.	.	8a\	.	.	8a\	.	.	8ryy	.	8A/	.	8A\	8a\	.	8a\	.	8aa\	.
=57	=57	=57	=57	=57	=57	=57	=57	=57	=57	=57	=57	=57	=57	=57	=57	=57	=57	=57	=57	=57	=57	=57	=57	=57	=57	=57	=57	=57	=57	=57	=57	=57	=57
!	!	!	!LO:LB:g=original	!	!	!	!LO:LB:g=original	!	!	!	!	!	!	!	!	!	!LO:LB:g=original	!	!	!LO:LB:g=original	!	!	!	!	!	!	!	!LO:LB:g=original	!	!	!	!	!
4B\	.	.	4B\	.	4b\	.	4b\	.	4bb\	.	4B\	.	.	4B/	.	.	4b\	.	.	(4b\	.	.	4ryy	.	4B/	.	4B\	4b\	.	4b\	.	4bb\	.
8A\	.	.	8A\	.	8a\	.	8a\	.	8aa\	.	8A\	.	.	8A/	.	.	8a\	.	.	8a\	.	.	8ryy	.	8A/	.	8A\	8a\	.	8a\	.	8aa\	.
4F#\	.	.	4F#\	.	4f#\	.	4f#\	.	4ff#\	.	4F#\	.	.	4F#/	.	.	4f#\	.	.	4f#\	.	.	4F#/	.	4F#/	.	4F#\	4f#\	.	4f#\	.	4ff#\	.
8G#\	.	.	8G#\	.	8g#\	.	8g#\	.	8gg#\	.	8G#\	.	.	8G#/	.	.	8g#\	.	.	8g#\	.	.	8G#X/	.	8G#X/	.	8G#\	8g#\	.	8g#\	.	8gg#\	.
=58	=58	=58	=58	=58	=58	=58	=58	=58	=58	=58	=58	=58	=58	=58	=58	=58	=58	=58	=58	=58	=58	=58	=58	=58	=58	=58	=58	=58	=58	=58	=58	=58	=58
4A\	.	.	4A\	.	4a\	.	4a\	.	4aa\	.	4A\	.	.	4A\	.	.	4a\	.	.	4a\	.	.	4A/	.	4A/	.	4A\	4a\	.	4a\	.	4aa\	.
!	!	!	!	!	!	!	!	!	!	!	!LO:TX:a:t=problem: niejasny zapis łuku	!	!	!	!	!	!	!	!	!	!	!	!	!	!	!	!	!	!	!	!	!	!
8B\	.	.	8B\	.	8b\	.	8b\	.	8bb\	.	8B\)	.	.	8B\	.	.	8b\	.	.	8b\	.	.	4r	.	4r	.	8B\	8b\	.	8b\	.	8bb\	.
!	!	!	!	!	!	!	!	!	!	!	!LO:LB:g=original	!	!	!	!	!	!	!	!	!	!	!	!	!	!	!	!	!	!	!	!	!	!
4c#\	.	.	4c#\	.	4cc#\	.	4cc#\	.	4ccc#\	.	(4c#\	.	.	4c#\	.	.	4cc#\	.	.	4cc#\	.	.	.	.	.	.	4c#\	4cc#\	.	4cc#\	.	4ccc#\	.
.	.	.	.	.	.	.	.	.	.	.	.	.	.	.	.	.	.	.	.	.	.	.	8r	.	8r	.	.	.	.	.	.	.	.
16B\LL	.	.	(16B\LL	.	16b\LL	.	(16b\LL	.	(16bb\LL	.	16B\LL	.	.	(16B\LL	.	.	16b\LL	.	.	16b\LL	.	.	8r	.	8r	.	(16B\LL	16b\LL	.	(16b\LL	.	(16bb\LL	.
16A\JJ	.	.	16A\JJ	.	16a\JJ	.	16a\JJ)	.	16aa\JJ)	.	16A\JJ)	.	.	16A\JJ)	.	.	16a\JJ)	.	.	16a\JJ)	.	.	.	.	.	.	16A\JJ)	16a\JJ	.	16a\JJ)	.	16aa\JJ)	.
=59	=59	=59	=59	=59	=59	=59	=59	=59	=59	=59	=59	=59	=59	=59	=59	=59	=59	=59	=59	=59	=59	=59	=59	=59	=59	=59	=59	=59	=59	=59	=59	=59	=59
!LO:LB:g=original	!	!	!	!	!LO:LB:g=original	!	!	!	!	!	!	!	!	!	!	!	!	!	!	!	!	!	!	!	!	!	!	!	!	!	!	!	!
!	!	!	!	!	!LO:TX:a:t=problem: mixed beam	!	!	!	!LO:LB:g=original	!	!	!	!	!LO:LB:g=original	!	!	!	!	!	!	!	!	!LO:LB:g=original	!	!	!	!	!	!	!	!	!	!
8.A\L	.	.	8.A\L)	.	8.a\L	.	16a/LL	.	16aa\LL	.	8A\	-men	.	8A\	-men	.	8a\	-men	.	8a\	-men	.	8r	.	8r	.	8.A\L	4a\	.	4a\	.	4aa\	.
.	.	.	.	.	.	.	32c#/L	.	(32ee\L	.	.	.	.	.	.	.	.	.	.	.	.	.	.	.	.	.	.	.	.	.	.	.	.
.	.	.	.	.	.	.	32e/J	.	32aa\JJJ)	.	.	.	.	.	.	.	.	.	.	.	.	.	.	.	.	.	.	.	.	.	.	.	.
.	.	.	.	.	.	.	16a/	.	16ccc#\LL	.	8r	.	.	8r	.	.	8r	.	.	8r	.	.	8A\L	.	8e\L	.	.	.	.	.	.	.	.
16c#\L	.	.	16c#\L	.	16c#/L	.	16a/	.	16ccc#\	.	.	.	.	.	.	.	.	.	.	.	.	.	.	.	.	.	16c#\L	.	.	.	.	.	.
16e\	3	.	16e\	.	16e/	.	16a/	.	16ccc#\	.	8E\	a-	.	8e\	a-	.	8g#\	A-	.	8b\	A-	.	8e\J	.	8e\J	.	16e\	8b\	.	8gg#\	.	8bb\	.
16E\JJ	.	.	16E\JJ	.	16E/JJ	.	16a/JJ	.	16ccc#\JJ	.	.	.	.	.	.	.	.	.	.	.	.	.	.	.	.	.	16E\JJ	.	.	.	.	.	.
*	*	*	*	*	*	*	*	*	*	*	*	*	*	*	*	*	*	*	*	*	*	*	*	*	*	*	*rep	*	*	*	*	*	*
8.A\L	3	.	8.A\L	.	8.A/L	.	16a/LL	.	16aa\LL	.	8A\	-men	.	8e\	-men	.	8a\	-men	.	8cc#\	-men	.	8r	.	8r	.	8.A\L	4cc#\	.	4aa\	.	4aa\	.
.	.	.	.	.	.	.	32c#/L	.	(32ee\L	.	.	.	.	.	.	.	.	.	.	.	.	.	.	.	.	.	.	.	.	.	.	.	.
.	.	.	.	.	.	.	32e/J	.	32aa\JJJ)	.	.	.	.	.	.	.	.	.	.	.	.	.	.	.	.	.	.	.	.	.	.	.	.
.	.	.	.	.	.	.	16a/	.	16ccc#\LL	.	8r	.	.	8r	.	.	8r	.	.	8r	.	.	8A\L	.	8e\L	.	.	.	.	.	.	.	.
16c#\L	.	.	16c#\L	.	16c#/L	.	16a/	.	16ccc#\	.	.	.	.	.	.	.	.	.	.	.	.	.	.	.	.	.	16c#\L	.	.	.	.	.	.
16e\	3	.	16e\	.	16e/	.	16a/	.	16ccc#\	.	8E\	a-	.	8B\	a-	.	8g#\	A-	.	8ee\	A-	.	8e\J	.	8e\J	.	16e\	8b\	.	8gg#\	.	8bb\	.
16E\JJ	.	.	16E\JJ	.	16E/JJ	.	16a/JJ	.	16ccc#\JJ	.	.	.	.	.	.	.	.	.	.	.	.	.	.	.	.	.	16E\JJ	.	.	.	.	.	.
*	*	*	*	*	*	*	*	*	*	*	*	*	*	*	*	*	*	*	*	*	*	*	*	*	*	*	*Xrep	*	*	*	*	*	*
=60	=60	=60	=60	=60	=60	=60	=60	=60	=60	=60	=60	=60	=60	=60	=60	=60	=60	=60	=60	=60	=60	=60	=60	=60	=60	=60	=60	=60	=60	=60	=60	=60	=60
!	!	!	!	!	!	!	!	!	!	!	!	!	!	!	!	!	!LO:LB:g=original	!	!	!	!	!	!	!	!LO:LB:g=original	!	!LO:LB:g=original	!	!	!	!	!	!
8A\L	8:	.	8A\L	.	16A/LL	.	16a/LL	.	4aa\	.	4AA/	-men	.	4c#\	-men.	.	4a\	-men.	.	4ee\	-men.	.	4A/	.	4e\	.	8A\L	4cc#\	.	4aa\	.	4ccc#\	.
.	.	.	.	.	32E/L	.	32c#/L	.	.	.	.	.	.	.	.	.	.	.	.	.	.	.	.	.	.	.	.	.	.	.	.	.	.
.	.	.	.	.	32A/JJJ	.	32e/JJJ	.	.	.	.	.	.	.	.	.	.	.	.	.	.	.	.	.	.	.	.	.	.	.	.	.	.
8E\	.	.	8E\	.	16c#\LL	.	16a\LL	.	.	.	.	.	.	.	.	.	.	.	.	.	.	.	.	.	.	.	8E\	.	.	.	.	.	.
.	.	.	.	.	16c#\	.	16a\	.	.	.	.	.	.	.	.	.	.	.	.	.	.	.	.	.	.	.	.	.	.	.	.	.	.
8C#\J	.	.	8C#\J	.	16c#\	.	16a\	.	8r	.	8r	.	.	8r	.	.	8r	.	.	8r	.	.	8r	.	8r	.	8C#\J	8r	.	8r	.	8r	.
.	.	.	.	.	16c#\JJ	.	16a\JJ	.	.	.	.	.	.	.	.	.	.	.	.	.	.	.	.	.	.	.	.	.	.	.	.	.	.
*	*	*	*	*	*rep	*	*rep	*	*	*	*	*	*	*	*	*	*	*	*	*	*	*	*	*	*	*	*	*	*	*	*	*	*
!	!	!	!	!	!LO:TX:a:t=problem: powtórka poprzedniej grupy oznaczona skrótem ÷	!	!	!	!	!	!	!	!	!	!	!	!	!	!	!	!	!	!	!	!	!	!	!	!	!	!	!	!
8AA/L	8:	.	8AA\L	.	16A/LL	.	16a/LL	.	4e\ 4cc# 4aa	.	4r	.	.	4r	.	.	4r	.	.	4r	.	.	4A/	.	4e\	.	8AA\L	4cc#\	.	4aa\	.	4aa\	.
.	.	.	.	.	32E/L	.	32c#/L	.	.	.	.	.	.	.	.	.	.	.	.	.	.	.	.	.	.	.	.	.	.	.	.	.	.
.	.	.	.	.	32A/JJJ	.	32e/JJJ	.	.	.	.	.	.	.	.	.	.	.	.	.	.	.	.	.	.	.	.	.	.	.	.	.	.
8E/	.	.	8E\	.	16c#\LL	.	16a/LL	.	.	.	.	.	.	.	.	.	.	.	.	.	.	.	.	.	.	.	8C#\	.	.	.	.	.	.
.	.	.	.	.	16c#\	.	16a/	.	.	.	.	.	.	.	.	.	.	.	.	.	.	.	.	.	.	.	.	.	.	.	.	.	.
8C#/J	.	.	8C#\J	.	16c#\	.	16a/	.	8r	.	8r	.	.	8r	.	.	8r	.	.	8r	.	.	8r	.	8r	.	8AA\J	8r	.	8r	.	8r	.
.	.	.	.	.	16c#\JJ	.	16a/JJ	.	.	.	.	.	.	.	.	.	.	.	.	.	.	.	.	.	.	.	.	.	.	.	.	.	.
*	*	*	*	*	*Xrep	*	*Xrep	*	*	*	*	*	*	*	*	*	*	*	*	*	*	*	*	*	*	*	*	*	*	*	*	*	*
=61	=61	=61	=61	=61	=61	=61	=61	=61	=61	=61	=61	=61	=61	=61	=61	=61	=61	=61	=61	=61	=61	=61	=61	=61	=61	=61	=61	=61	=61	=61	=61	=61	=61
!	!	!	!	!	!	!	!	!	!	!	!LO:TX:b:t= V:S:	!	!	!	!	!	!LO:TX:b:t=Segue Lautate	!	!	!	!	!	!	!	!	!	!	!	!	!	!	!	!
!	!	!	!	!	!	!	!	!	!	!	!LO:TX:a:t=1.	!	!	!	!	!	!LO:TX:a:t=1.	!	!	!	!	!	!	!	!	!	!	!	!	!	!	!	!
4AA/	x	.	4AA/	.	4A/	.	4c#/	.	4e\ 4cc# 4aa	.	2.r	.	.	4r	.	.	2.r	.	.	4r	.	.	4.A/	.	4.e\	.	4AA/	4.cc#\	.	[4.aa\	.	4.aa\	.
8.r	.	.	8.r	.	8.r	.	8.r	.	8.r	.	.	.	.	8r	.	.	.	.	.	8r	.	.	.	.	.	.	8.r	.	.	.	.	.	.
.	.	.	.	.	.	.	.	.	.	.	.	.	.	4r	.	.	.	.	.	4r	.	.	4A/	.	4e\	.	.	4cc#\	.	4aa\]	.	4aa\	.
16AA/	.	.	16AA/	.	16A/	.	16A/	.	16A/	.	.	.	.	.	.	.	.	.	.	.	.	.	.	.	.	.	16AA/	.	.	.	.	.	.
!	!	!	!	!	!LO:TX:a:t=problem: nadliczbowa pauza ćwierćnutowa	!	!LO:TX:a:t=problem: nadliczbowa pauza ćwierćnutowa	!	!LO:TX:a:t=problem: nadliczbowa pauza ćwierćnutowa	!	!	!	!	!	!	!	!	!	!	!	!	!	!	!	!	!	!	!	!	!	!	!	!
4AA/	.	.	4AA/	.	4A/	.	4A/	.	4A/	.	.	.	.	.	.	.	.	.	.	.	.	.	.	.	.	.	4AA/	.	.	.	.	.	.
.	.	.	.	.	.	.	.	.	.	.	.	.	.	8r	.	.	.	.	.	8r	.	.	8r	.	8r	.	.	8r	.	8r	.	8r	.
==	==	==	==	==	==	==	==	==	==	==	==	==	==	==	==	==	==	==	==	==	==	==	==	==	==	==	==	==	==	==	==	==	==
*-	*-	*-	*-	*-	*-	*-	*-	*-	*-	*-	*-	*-	*-	*-	*-	*-	*-	*-	*-	*-	*-	*-	*-	*-	*-	*-	*-	*-	*-	*-	*-	*-	*-
!!!system-decoration: [(g1)][(g2)][(g3)][(g4)]{g5}
!!!RDF**kern: <= below
!!!RDF**kern: >= above
